WindOilSpirit/serl/Code/spacemouse_franka_teleop_test/debug_output/fixed_offset_k600.csv
time_unix_s,time_since_start_s,phase,target_x,measured_x,limited_reference_x,position_error_x,cartesian_force_x,cartesian_force_y,cartesian_force_z,tau_task_1,tau_task_2,tau_task_3,tau_task_4,tau_task_5,tau_task_6,tau_task_7,coriolis_1,coriolis_2,coriolis_3,coriolis_4,coriolis_5,coriolis_6,coriolis_7,tau_before_saturation_1,tau_before_saturation_2,tau_before_saturation_3,tau_before_saturation_4,tau_before_saturation_5,tau_before_saturation_6,tau_before_saturation_7,tau_after_saturation_1,tau_after_saturation_2,tau_after_saturation_3,tau_after_saturation_4,tau_after_saturation_5,tau_after_saturation_6,tau_after_saturation_7,tau_command_1,tau_command_2,tau_command_3,tau_command_4,tau_command_5,tau_command_6,tau_command_7,q_1,q_2,q_3,q_4,q_5,q_6,q_7,dq_1,dq_2,dq_3,dq_4,dq_5,dq_6,dq_7,O_T_EE_0,O_T_EE_1,O_T_EE_2,O_T_EE_3,O_T_EE_4,O_T_EE_5,O_T_EE_6,O_T_EE_7,O_T_EE_8,O_T_EE_9,O_T_EE_10,O_T_EE_11,O_T_EE_12,O_T_EE_13,O_T_EE_14,O_T_EE_15,zero_jacobian_0,zero_jacobian_1,zero_jacobian_2,zero_jacobian_3,zero_jacobian_4,zero_jacobian_5,zero_jacobian_6,zero_jacobian_7,zero_jacobian_8,zero_jacobian_9,zero_jacobian_10,zero_jacobian_11,zero_jacobian_12,zero_jacobian_13,zero_jacobian_14,zero_jacobian_15,zero_jacobian_16,zero_jacobian_17,zero_jacobian_18,zero_jacobian_19,zero_jacobian_20,zero_jacobian_21,zero_jacobian_22,zero_jacobian_23,zero_jacobian_24,zero_jacobian_25,zero_jacobian_26,zero_jacobian_27,zero_jacobian_28,zero_jacobian_29,zero_jacobian_30,zero_jacobian_31,zero_jacobian_32,zero_jacobian_33,zero_jacobian_34,zero_jacobian_35,zero_jacobian_36,zero_jacobian_37,zero_jacobian_38,zero_jacobian_39,zero_jacobian_40,zero_jacobian_41,commanded_torque_norm,tau_rate_limited,torque_rate_limited,reference_clipped,translational_stiffness,translational_damping
1782249844.131136417389,0.000413189999,hold_measured_before,0.567008353380,0.567008353380,0.567017853420,-0.000009500040,0.016606200000,0.021185500000,0.005425110000,0.026735900000,-0.012937600000,0.023162800000,0.014813600000,-0.015544000000,0.007765100000,-0.014908300000,0.000000773547,0.000000427839,0.000000628931,-0.000000800124,-0.000000061746,-0.000000038494,0.000000003124,0.029095700000,-0.012905600000,0.021406200000,0.014815800000,-0.010782200000,0.007760220000,-0.018399700000,0.029095700000,-0.012905600000,0.021406200000,0.014815800000,-0.010782200000,0.007760220000,-0.018399700000,0.029095700000,-0.012905600000,0.021406200000,0.014815800000,-0.010782200000,0.007760220000,-0.018399700000,0.051796800000,0.728329000000,-0.019753400000,-2.096750000000,0.003142750000,2.914640000000,1.304570000000,-0.000440661000,-0.000802787000,-0.000264093000,-0.001045890000,0.000426436000,-0.000358056000,0.000784064000,0.294728000000,-0.954929000000,0.035303500000,0.000000000000,-0.951340000000,-0.296697000000,-0.083206900000,0.000000000000,0.089931100000,-0.009062200000,-0.995907000000,0.000000000000,0.567008000000,0.017444300000,0.076003400000,1.000000000000,-0.017444300000,0.567008000000,0.000000000000,0.000000000000,0.000000000000,1.000000000000,-0.256652000000,-0.013305700000,-0.567151000000,-0.051773700000,0.998659000000,0.000000000000,-0.021875000000,0.593985000000,-0.007944350000,0.664731000000,0.034461800000,0.746288000000,0.437665000000,0.020109200000,0.295218000000,0.037042600000,-0.999227000000,0.013147400000,0.002100290000,-0.061626900000,0.000750428000,0.311593000000,-0.000951432000,-0.950215000000,0.098590200000,0.004543910000,0.097223100000,0.034058400000,-0.999346000000,0.012169000000,-0.000000000000,-0.000000000000,0.000000000000,0.089931100000,-0.009062200000,-0.995907000000,0.046966700000,0,0,0,600.000000000000,40.000000000000
1782249844.151273488998,0.020549724999,hold_measured_before,0.567008353380,0.567006103632,0.567014695682,-0.000009500040,0.016606200000,0.021185500000,0.005425110000,0.026735900000,-0.012937600000,0.023162800000,0.014813600000,-0.015544000000,0.007765100000,-0.014908300000,0.000000773547,0.000000427839,0.000000628931,-0.000000800124,-0.000000061746,-0.000000038494,0.000000003124,0.029095700000,-0.012905600000,0.021406200000,0.014815800000,-0.010782200000,0.007760220000,-0.018399700000,0.029095700000,-0.012905600000,0.021406200000,0.014815800000,-0.010782200000,0.007760220000,-0.018399700000,0.029095700000,-0.012905600000,0.021406200000,0.014815800000,-0.010782200000,0.007760220000,-0.018399700000,0.051796800000,0.728329000000,-0.019753400000,-2.096750000000,0.003142750000,2.914640000000,1.304570000000,-0.000440661000,-0.000802787000,-0.000264093000,-0.001045890000,0.000426436000,-0.000358056000,0.000784064000,0.294728000000,-0.954929000000,0.035303500000,0.000000000000,-0.951340000000,-0.296697000000,-0.083206900000,0.000000000000,0.089931100000,-0.009062200000,-0.995907000000,0.000000000000,0.567008000000,0.017444300000,0.076003400000,1.000000000000,-0.017444300000,0.567008000000,0.000000000000,0.000000000000,0.000000000000,1.000000000000,-0.256652000000,-0.013305700000,-0.567151000000,-0.051773700000,0.998659000000,0.000000000000,-0.021875000000,0.593985000000,-0.007944350000,0.664731000000,0.034461800000,0.746288000000,0.437665000000,0.020109200000,0.295218000000,0.037042600000,-0.999227000000,0.013147400000,0.002100290000,-0.061626900000,0.000750428000,0.311593000000,-0.000951432000,-0.950215000000,0.098590200000,0.004543910000,0.097223100000,0.034058400000,-0.999346000000,0.012169000000,-0.000000000000,-0.000000000000,0.000000000000,0.089931100000,-0.009062200000,-0.995907000000,0.046966700000,0,0,0,600.000000000000,40.000000000000
1782249844.172191381454,0.041467698997,hold_measured_before,0.567008353380,0.567005739507,0.567014695682,-0.000008592050,0.027393100000,0.018115400000,0.050299800000,0.008588860000,-0.059926800000,0.011950200000,0.051241300000,0.001979250000,0.031698500000,0.001945030000,0.000000017093,-0.000000323298,0.000000160147,-0.000002076790,-0.000000088069,0.000000009601,0.000000008091,0.011138900000,-0.059892900000,0.010050900000,0.051242500000,0.007126530000,0.031693300000,-0.001829060000,0.011138900000,-0.059892900000,0.010050900000,0.051242500000,0.007126530000,0.031693300000,-0.001829060000,0.011138900000,-0.059892900000,0.010050900000,0.051242500000,0.007126530000,0.031693300000,-0.001829060000,0.051799700000,0.728337000000,-0.019754700000,-2.096750000000,0.003138490000,2.914640000000,1.304570000000,-0.000267547000,0.001525650000,-0.000481921000,-0.000119019000,-0.000889893000,-0.001274230000,0.000045922100,0.294736000000,-0.954926000000,0.035302900000,0.000000000000,-0.951339000000,-0.296704000000,-0.083195500000,0.000000000000,0.089920100000,-0.009064370000,-0.995908000000,0.000000000000,0.567006000000,0.017445300000,0.075998700000,1.000000000000,-0.017445300000,0.567006000000,0.000000000000,0.000000000000,0.000000000000,1.000000000000,-0.256657000000,-0.013306600000,-0.567149000000,-0.051776600000,0.998659000000,0.000000000000,-0.021876400000,0.593985000000,-0.007944760000,0.664737000000,0.034464000000,0.746282000000,0.437668000000,0.020110400000,0.295215000000,0.037044600000,-0.999227000000,0.013148400000,0.002100650000,-0.061626400000,0.000750566000,0.311586000000,-0.000952023000,-0.950218000000,0.098591200000,0.004544750000,0.097222000000,0.034064500000,-0.999346000000,0.012171300000,0.000000000000,0.000000000000,0.000000000000,0.089920100000,-0.009064370000,-0.995908000000,0.086583200000,0,0,0,600.000000000000,40.000000000000
1782249844.192342519760,0.061621408000,hold_measured_before,0.567008353380,0.567007302695,0.567011123611,-0.000006763360,0.023666400000,0.009279490000,0.011092700000,0.009774100000,-0.018349900000,0.006486280000,0.019790500000,-0.006073420000,0.009429470000,-0.005106190000,-0.000000124918,-0.000000242571,-0.000000109516,-0.000000369070,0.000000005951,-0.000000008020,0.000000002850,0.005197230000,-0.018411500000,0.009895300000,0.019784300000,-0.015311800000,0.009438850000,0.001667440000,0.005197230000,-0.018411500000,0.009895300000,0.019784300000,-0.015311800000,0.009438850000,0.001667440000,0.005197230000,-0.018411500000,0.009895300000,0.019784300000,-0.015311800000,0.009438850000,0.001667440000,0.051798500000,0.728331000000,-0.019753300000,-2.096760000000,0.003141990000,2.914640000000,1.304570000000,-0.000001946840,-0.000483430000,-0.000121621000,-0.001489670000,0.001845650000,0.000315704000,-0.001241370000,0.294739000000,-0.954926000000,0.035302200000,0.000000000000,-0.951338000000,-0.296707000000,-0.083198600000,0.000000000000,0.089922900000,-0.009062470000,-0.995908000000,0.000000000000,0.567006000000,0.017445200000,0.076001000000,1.000000000000,-0.017445200000,0.567006000000,0.000000000000,0.000000000000,0.000000000000,1.000000000000,-0.256654000000,-0.013306200000,-0.567148000000,-0.051775400000,0.998659000000,0.000000000000,-0.021876100000,0.593984000000,-0.007944280000,0.664732000000,0.034463000000,0.746287000000,0.437667000000,0.020110000000,0.295216000000,0.037044400000,-0.999227000000,0.013147400000,0.002100430000,-0.061626600000,0.000750437000,0.311587000000,-0.000951064000,-0.950217000000,0.098591000000,0.004544190000,0.097222300000,0.034060900000,-0.999346000000,0.012169200000,0.000000000000,0.000000000000,-0.000000000000,0.089922900000,-0.009062470000,-0.995908000000,0.034375200000,0,0,0,600.000000000000,40.000000000000
1782249844.213462114334,0.082743733001,hold_measured_before,0.567008353380,0.567007363701,0.567010165820,-0.000003820920,-0.004153060000,-0.022979000000,0.003750150000,-0.026804900000,0.010903100000,-0.022816000000,-0.013035300000,0.014887000000,-0.012002900000,0.013780200000,0.000000468710,0.000000193502,0.000000346608,-0.000000869004,-0.000000078326,-0.000000038211,0.000000002765,-0.031017400000,0.010846800000,-0.019677400000,-0.013041500000,0.006382640000,-0.011994300000,0.020015600000,-0.031017400000,0.010846800000,-0.019677400000,-0.013041500000,0.006382640000,-0.011994300000,0.020015600000,-0.031017400000,0.010846800000,-0.019677400000,-0.013041500000,0.006382640000,-0.011994300000,0.020015600000,0.051801300000,0.728334000000,-0.019750800000,-2.096750000000,0.003142390000,2.914640000000,1.304570000000,0.000880181000,0.000384816000,0.000004406730,0.000266339000,-0.000471627000,0.001620670000,-0.000362936000,0.294738000000,-0.954926000000,0.035301500000,0.000000000000,-0.951337000000,-0.296706000000,-0.083204300000,0.000000000000,0.089928100000,-0.009060170000,-0.995907000000,0.000000000000,0.567007000000,0.017448400000,0.076000800000,1.000000000000,-0.017448400000,0.567007000000,0.000000000000,0.000000000000,0.000000000000,1.000000000000,-0.256654000000,-0.013306900000,-0.567150000000,-0.051778100000,0.998659000000,0.000000000000,-0.021878900000,0.593985000000,-0.007943360000,0.664735000000,0.034465000000,0.746284000000,0.437666000000,0.020111600000,0.295217000000,0.037049100000,-0.999227000000,0.013145800000,0.002100720000,-0.061627100000,0.000750336000,0.311588000000,-0.000948017000,-0.950217000000,0.098590400000,0.004544440000,0.097222800000,0.034065200000,-0.999346000000,0.012167500000,-0.000000000000,0.000000000000,0.000000000000,0.089928100000,-0.009060170000,-0.995907000000,0.047140700000,0,0,0,600.000000000000,40.000000000000
1782249844.234390020370,0.103674322003,hold_measured_before,0.567008353380,0.567008567270,0.567010165820,-0.000002802120,0.021476500000,0.017622000000,0.012948400000,0.010675500000,-0.023632800000,0.009868490000,0.024149000000,-0.002238170000,0.014031100000,-0.001019100000,0.000001769920,-0.000000665309,0.000001599710,-0.000000508501,-0.000000140438,0.000000027775,0.000000005587,0.014487700000,-0.023582400000,0.007031790000,0.024153400000,0.005453140000,0.014023300000,-0.006658530000,0.014487700000,-0.023582400000,0.007031790000,0.024153400000,0.005453140000,0.014023300000,-0.006658530000,0.014487700000,-0.023582400000,0.007031790000,0.024153400000,0.005453140000,0.014023300000,-0.006658530000,0.051796100000,0.728328000000,-0.019749600000,-2.096760000000,0.003141990000,2.914640000000,1.304570000000,-0.000969706000,-0.000207375000,0.000222601000,-0.001218350000,0.000176075000,-0.000276816000,-0.000853432000,0.294734000000,-0.954927000000,0.035301000000,0.000000000000,-0.951338000000,-0.296702000000,-0.083205100000,0.000000000000,0.089928700000,-0.009059770000,-0.995907000000,0.000000000000,0.567007000000,0.017446100000,0.076003000000,1.000000000000,-0.017446100000,0.567007000000,0.000000000000,0.000000000000,0.000000000000,1.000000000000,-0.256652000000,-0.013305500000,-0.567150000000,-0.051772900000,0.998659000000,0.000000000000,-0.021876300000,0.593985000000,-0.007942820000,0.664730000000,0.034461200000,0.746288000000,0.437666000000,0.020109300000,0.295218000000,0.037044600000,-0.999227000000,0.013144900000,0.002100450000,-0.061626800000,0.000750286000,0.311591000000,-0.000948471000,-0.950216000000,0.098590400000,0.004543960000,0.097222900000,0.034061200000,-0.999346000000,0.012166700000,-0.000000000000,-0.000000000000,0.000000000000,0.089928700000,-0.009059770000,-0.995907000000,0.040860500000,0,0,0,600.000000000000,40.000000000000
1782249844.254355430603,0.123636386998,hold_measured_before,0.567008353380,0.567008031748,0.567009539179,-0.000000971909,0.015377300000,-0.028526600000,-0.016986700000,-0.034854600000,0.001398660000,-0.030393200000,0.005556140000,0.019582600000,0.004165050000,0.018466200000,-0.000001584850,0.000002099010,-0.000001241680,-0.000002835600,-0.000000064763,-0.000000172635,0.000000006080,-0.034971400000,0.001399210000,-0.030308600000,0.005553160000,0.019349900000,0.004165120000,0.018636700000,-0.034971400000,0.001399210000,-0.030308600000,0.005553160000,0.019349900000,0.004165120000,0.018636700000,-0.034971400000,0.001399210000,-0.030308600000,0.005553160000,0.019349900000,0.004165120000,0.018636700000,0.051800800000,0.728327000000,-0.019748600000,-2.096750000000,0.003139610000,2.914640000000,1.304570000000,0.000508268000,-0.001771860000,0.000476034000,-0.001690390000,-0.001418190000,-0.000634107000,-0.000085130100,0.294744000000,-0.954924000000,0.035302300000,0.000000000000,-0.951335000000,-0.296712000000,-0.083209000000,0.000000000000,0.089932900000,-0.009059010000,-0.995907000000,0.000000000000,0.567009000000,0.017449500000,0.076004500000,1.000000000000,-0.017449500000,0.567009000000,0.000000000000,0.000000000000,0.000000000000,1.000000000000,-0.256651000000,-0.013306600000,-0.567152000000,-0.051777600000,0.998659000000,0.000000000000,-0.021879600000,0.593985000000,-0.007942330000,0.664729000000,0.034464300000,0.746289000000,0.437665000000,0.020111500000,0.295219000000,0.037050000000,-0.999227000000,0.013144300000,0.002100930000,-0.061626900000,0.000750292000,0.311594000000,-0.000946032000,-0.950215000000,0.098590000000,0.004544710000,0.097223300000,0.034068800000,-0.999345000000,0.012166800000,0.000000000000,0.000000000000,-0.000000000000,0.089932900000,-0.009059010000,-0.995907000000,0.053976900000,0,0,0,600.000000000000,40.000000000000
1782249844.275195598602,0.144474230001,hold_measured_before,0.567008353380,0.567006448492,0.567009145029,-0.000001113280,0.027201400000,0.073740700000,0.048433800000,0.050427900000,-0.061350400000,0.054830100000,0.053603900000,-0.010204100000,0.033609900000,-0.007996960000,0.000001645710,-0.000001126330,0.000002369270,-0.000007412550,-0.000000526599,-0.000000037076,0.000000029721,0.053274900000,-0.061313400000,0.052713000000,0.053600000000,-0.004461020000,0.033604000000,-0.012208200000,0.053274900000,-0.061313400000,0.052713000000,0.053600000000,-0.004461020000,0.033604000000,-0.012208200000,0.053274900000,-0.061313400000,0.052713000000,0.053600000000,-0.004461020000,0.033604000000,-0.012208200000,0.051795700000,0.728335000000,-0.019757400000,-2.096750000000,0.003141990000,2.914640000000,1.304570000000,-0.001428400000,0.001630310000,-0.001525010000,-0.000439572000,0.000647961000,-0.001137590000,-0.002071420000,0.294731000000,-0.954928000000,0.035306000000,0.000000000000,-0.951339000000,-0.296699000000,-0.083202800000,0.000000000000,0.089927900000,-0.009065620000,-0.995907000000,0.000000000000,0.567008000000,0.017441300000,0.076000900000,1.000000000000,-0.017441300000,0.567008000000,0.000000000000,0.000000000000,0.000000000000,1.000000000000,-0.256654000000,-0.013305500000,-0.567151000000,-0.051772600000,0.998659000000,0.000000000000,-0.021872700000,0.593985000000,-0.007945970000,0.664735000000,0.034461300000,0.746284000000,0.437666000000,0.020108200000,0.295217000000,0.037038600000,-0.999227000000,0.013150200000,0.002100080000,-0.061626900000,0.000750614000,0.311590000000,-0.000955452000,-0.950216000000,0.098590500000,0.004543880000,0.097222800000,0.034055100000,-0.999346000000,0.012172000000,0.000000000000,-0.000000000000,0.000000000000,0.089927900000,-0.009065620000,-0.995907000000,0.116393000000,0,0,0,600.000000000000,40.000000000000
1782249844.295186281204,0.164462586996,hold_measured_before,0.567008353380,0.567009220746,0.567008871321,-0.000002422830,0.030148000000,0.008752400000,0.046166900000,-0.004274630000,-0.046595500000,0.000162281000,0.039385700000,0.009215030000,0.019883200000,0.009182090000,-0.000000350284,-0.000002902780,-0.000000547586,-0.000001310460,-0.000000048289,0.000000212352,0.000000007208,-0.008802630000,-0.046659200000,0.003534290000,0.039378700000,0.000075643400,0.019892700000,0.015883100000,-0.008802630000,-0.046659200000,0.003534290000,0.039378700000,0.000075643400,0.019892700000,0.015883100000,-0.008802630000,-0.046659200000,0.003534290000,0.039378700000,0.000075643400,0.019892700000,0.015883100000,0.051801200000,0.728335000000,-0.019753300000,-2.096750000000,0.003142700000,2.914640000000,1.304570000000,0.000331614000,0.001608430000,-0.000642865000,-0.000946545000,0.000331098000,0.001021910000,-0.001531250000,0.294740000000,-0.954925000000,0.035302500000,0.000000000000,-0.951337000000,-0.296708000000,-0.083200300000,0.000000000000,0.089924600000,-0.009062120000,-0.995907000000,0.000000000000,0.567006000000,0.017446700000,0.075999800000,1.000000000000,-0.017446700000,0.567006000000,0.000000000000,0.000000000000,0.000000000000,1.000000000000,-0.256655000000,-0.013307000000,-0.567149000000,-0.051778000000,0.998659000000,0.000000000000,-0.021877700000,0.593985000000,-0.007944380000,0.664735000000,0.034464900000,0.746284000000,0.437667000000,0.020111200000,0.295216000000,0.037047100000,-0.999227000000,0.013147500000,0.002100560000,-0.061626900000,0.000750434000,0.311586000000,-0.000950363000,-0.950217000000,0.098590800000,0.004544370000,0.097222500000,0.034062900000,-0.999346000000,0.012169100000,-0.000000000000,0.000000000000,-0.000000000000,0.089924600000,-0.009062120000,-0.995907000000,0.066826100000,0,0,0,600.000000000000,40.000000000000
1782249844.315359115601,0.184634824000,hold_measured_before,0.567008353380,0.567007816426,0.567008584226,0.000000521585,-0.022064200000,-0.039275200000,-0.018572800000,-0.028065600000,0.030102800000,-0.033935500000,-0.029245400000,0.004908840000,-0.017439100000,0.005083410000,-0.000000153921,-0.000004038180,-0.000000100544,0.000000437964,0.000000030754,0.000000292243,0.000000003275,-0.023585000000,0.030158800000,-0.037273300000,-0.029239300000,0.013953500000,-0.017448000000,-0.001548170000,-0.023585000000,0.030158800000,-0.037273300000,-0.029239300000,0.013953500000,-0.017448000000,-0.001548170000,-0.023585000000,0.030158800000,-0.037273300000,-0.029239300000,0.013953500000,-0.017448000000,-0.001548170000,0.051797700000,0.728329000000,-0.019747300000,-2.096750000000,0.003141130000,2.914640000000,1.304570000000,-0.000471645000,-0.000191912000,0.001933350000,0.001130800000,-0.000219880000,0.000346341000,0.000442547000,0.294734000000,-0.954927000000,0.035300500000,0.000000000000,-0.951338000000,-0.296703000000,-0.083209700000,0.000000000000,0.089933000000,-0.009057960000,-0.995907000000,0.000000000000,0.567009000000,0.017448500000,0.076004200000,1.000000000000,-0.017448500000,0.567009000000,0.000000000000,0.000000000000,0.000000000000,1.000000000000,-0.256651000000,-0.013305800000,-0.567152000000,-0.051774500000,0.998659000000,0.000000000000,-0.021878300000,0.593985000000,-0.007941870000,0.664731000000,0.034462300000,0.746288000000,0.437665000000,0.020110300000,0.295220000000,0.037048000000,-0.999227000000,0.013143400000,0.002100710000,-0.061626800000,0.000750207000,0.311595000000,-0.000945794000,-0.950215000000,0.098590000000,0.004544240000,0.097223300000,0.034065300000,-0.999346000000,0.012165400000,-0.000000000000,0.000000000000,-0.000000000000,0.089933000000,-0.009057960000,-0.995907000000,0.064896600000,0,0,0,600.000000000000,40.000000000000
1782249844.336283445358,0.205558349000,hold_measured_before,0.567008353380,0.567007948452,0.567008584226,-0.000000767800,-0.004572200000,-0.036587700000,-0.018895200000,-0.031818200000,0.019313800000,-0.031756900000,-0.015354200000,0.011797700000,-0.009473240000,0.010749900000,-0.000000197904,0.000000049951,-0.000000071139,-0.000001519800,-0.000000088956,-0.000000021186,0.000000005277,-0.031832600000,0.019313600000,-0.031746400000,-0.015355700000,0.011768900000,-0.009473230000,0.010770900000,-0.031832600000,0.019313600000,-0.031746400000,-0.015355700000,0.011768900000,-0.009473230000,0.010770900000,-0.031832600000,0.019313600000,-0.031746400000,-0.015355700000,0.011768900000,-0.009473230000,0.010770900000,0.051802800000,0.728329000000,-0.019746600000,-2.096750000000,0.003140970000,2.914640000000,1.304570000000,0.000442491000,-0.000966079000,0.000836658000,-0.000253818000,-0.000771647000,0.000168519000,0.000445404000,0.294744000000,-0.954924000000,0.035299500000,0.000000000000,-0.951335000000,-0.296712000000,-0.083206100000,0.000000000000,0.089929300000,-0.009057170000,-0.995907000000,0.000000000000,0.567008000000,0.017451800000,0.076003100000,1.000000000000,-0.017451800000,0.567008000000,0.000000000000,0.000000000000,0.000000000000,1.000000000000,-0.256652000000,-0.013307200000,-0.567151000000,-0.051779600000,0.998659000000,0.000000000000,-0.021881700000,0.593985000000,-0.007941590000,0.664731000000,0.034465800000,0.746288000000,0.437665000000,0.020112700000,0.295218000000,0.037053700000,-0.999227000000,0.013142900000,0.002101070000,-0.061626700000,0.000750181000,0.311592000000,-0.000943706000,-0.950215000000,0.098590300000,0.004544780000,0.097222900000,0.034071200000,-0.999345000000,0.012165000000,0.000000000000,0.000000000000,0.000000000000,0.089929300000,-0.009057170000,-0.995907000000,0.054536500000,0,0,0,600.000000000000,40.000000000000
1782249844.357029199600,0.226304709002,hold_measured_before,0.567008353380,0.567007948452,0.567008504412,-0.000000555961,0.017662500000,0.036226200000,0.004798310000,0.030282800000,-0.018836600000,0.032672600000,0.021015000000,-0.009645690000,0.013483700000,-0.009309640000,0.000001604130,-0.000000281344,0.000001471390,-0.000001749750,-0.000000112442,-0.000000017840,0.000000007685,0.034791600000,-0.018776400000,0.029316700000,0.021019000000,-0.000547716000,0.013474400000,-0.015980400000,0.034791600000,-0.018776400000,0.029316700000,0.021019000000,-0.000547716000,0.013474400000,-0.015980400000,0.034791600000,-0.018776400000,0.029316700000,0.021019000000,-0.000547716000,0.013474400000,-0.015980400000,0.051797700000,0.728329000000,-0.019750600000,-2.096750000000,0.003140870000,2.914640000000,1.304570000000,-0.000678922000,-0.000541034000,-0.000962403000,-0.001222470000,-0.000641910000,-0.000695792000,0.000465460000,0.294736000000,-0.954926000000,0.035302100000,0.000000000000,-0.951338000000,-0.296704000000,-0.083205300000,0.000000000000,0.089929200000,-0.009060590000,-0.995907000000,0.000000000000,0.567008000000,0.017446500000,0.076003300000,1.000000000000,-0.017446500000,0.567008000000,0.000000000000,0.000000000000,0.000000000000,1.000000000000,-0.256652000000,-0.013305900000,-0.567151000000,-0.051774500000,0.998659000000,0.000000000000,-0.021876800000,0.593985000000,-0.007943180000,0.664731000000,0.034462300000,0.746288000000,0.437666000000,0.020109900000,0.295218000000,0.037045500000,-0.999227000000,0.013145600000,0.002100570000,-0.061626700000,0.000750348000,0.311592000000,-0.000948786000,-0.950215000000,0.098590300000,0.004544250000,0.097222900000,0.034063100000,-0.999346000000,0.012167700000,-0.000000000000,0.000000000000,0.000000000000,0.089929200000,-0.009060590000,-0.995907000000,0.057458800000,0,0,0,600.000000000000,40.000000000000
1782249844.377240180969,0.246514981998,hold_measured_before,0.567008353380,0.567006484399,0.567008452194,-0.000002642420,0.032502800000,0.028379900000,0.032576500000,0.030546100000,-0.042532800000,0.026413100000,0.039960300000,-0.015988000000,0.022035500000,-0.014841800000,0.000002867030,-0.000002428570,0.000002973070,-0.000001333550,-0.000000264722,0.000000136762,0.000000013633,0.036398700000,-0.042456700000,0.022058700000,0.039966300000,-0.004180270000,0.022023600000,-0.023499500000,0.036398700000,-0.042456700000,0.022058700000,0.039966300000,-0.004180270000,0.022023600000,-0.023499500000,0.036398700000,-0.042456700000,0.022058700000,0.039966300000,-0.004180270000,0.022023600000,-0.023499500000,0.051798800000,0.728334000000,-0.019752600000,-2.096760000000,0.003141130000,2.914640000000,1.304570000000,-0.001155680000,0.000572865000,-0.000033651300,-0.001521800000,0.000309915000,0.000188550000,0.000401171000,0.294735000000,-0.954927000000,0.035301600000,0.000000000000,-0.951339000000,-0.296703000000,-0.083198700000,0.000000000000,0.089922700000,-0.009062210000,-0.995908000000,0.000000000000,0.567006000000,0.017445800000,0.075999600000,1.000000000000,-0.017445800000,0.567006000000,0.000000000000,0.000000000000,0.000000000000,1.000000000000,-0.256656000000,-0.013306400000,-0.567149000000,-0.051775600000,0.998659000000,0.000000000000,-0.021876600000,0.593985000000,-0.007944020000,0.664735000000,0.034463300000,0.746284000000,0.437668000000,0.020110200000,0.295215000000,0.037045200000,-0.999227000000,0.013147000000,0.002100540000,-0.061626800000,0.000750432000,0.311585000000,-0.000950504000,-0.950218000000,0.098591000000,0.004544340000,0.097222300000,0.034062500000,-0.999346000000,0.012169100000,0.000000000000,-0.000000000000,0.000000000000,0.089922700000,-0.009062210000,-0.995908000000,0.079158500000,0,0,0,600.000000000000,40.000000000000
1782249844.397332668304,0.266606917001,hold_measured_before,0.567008353380,0.567008693543,0.567008397421,-0.000001934950,0.023578500000,-0.035289800000,0.005732430000,-0.030525400000,-0.021117400000,-0.033087600000,0.023540300000,0.010159000000,0.014987200000,0.009691360000,-0.000001639930,-0.000000094374,-0.000001466890,-0.000001671580,-0.000000030887,-0.000000029616,0.000000003476,-0.035073100000,-0.021178400000,-0.029702800000,0.023532800000,0.000982545000,0.014996500000,0.016419600000,-0.035073100000,-0.021178400000,-0.029702800000,0.023532800000,0.000982545000,0.014996500000,0.016419600000,-0.035073100000,-0.021178400000,-0.029702800000,0.023532800000,0.000982545000,0.014996500000,0.016419600000,0.051800400000,0.728331000000,-0.019748700000,-2.096760000000,0.003141110000,2.914640000000,1.304570000000,0.000644390000,-0.000705290000,0.000854930000,-0.001453910000,0.000636681000,-0.000776096000,-0.000585956000,0.294740000000,-0.954925000000,0.035300000000,0.000000000000,-0.951337000000,-0.296709000000,-0.083202300000,0.000000000000,0.089925700000,-0.009059090000,-0.995907000000,0.000000000000,0.567006000000,0.017449100000,0.076001300000,1.000000000000,-0.017449100000,0.567006000000,0.000000000000,0.000000000000,0.000000000000,1.000000000000,-0.256654000000,-0.013306700000,-0.567149000000,-0.051777300000,0.998659000000,0.000000000000,-0.021879300000,0.593984000000,-0.007942470000,0.664732000000,0.034464300000,0.746286000000,0.437667000000,0.020111400000,0.295216000000,0.037049700000,-0.999227000000,0.013144400000,0.002100820000,-0.061626800000,0.000750271000,0.311588000000,-0.000946504000,-0.950217000000,0.098590700000,0.004544520000,0.097222600000,0.034067100000,-0.999345000000,0.012166500000,-0.000000000000,-0.000000000000,-0.000000000000,0.089925700000,-0.009059090000,-0.995907000000,0.060084600000,0,0,0,600.000000000000,40.000000000000
1782249844.418273210526,0.287548569002,hold_measured_before,0.567008353380,0.567007304174,0.567008397421,0.000000296122,0.000503186000,-0.021502500000,-0.000895431000,-0.028583400000,0.004946880000,-0.026548200000,-0.004938870000,0.016096600000,-0.004574380000,0.016049200000,0.000000011723,-0.000000883674,0.000000012376,0.000000216153,-0.000000009596,0.000000070134,0.000000000498,-0.025506900000,0.004987240000,-0.028839900000,-0.004934750000,0.022306600000,-0.004580610000,0.011496000000,-0.025506900000,0.004987240000,-0.028839900000,-0.004934750000,0.022306600000,-0.004580610000,0.011496000000,-0.025506900000,0.004987240000,-0.028839900000,-0.004934750000,0.022306600000,-0.004580610000,0.011496000000,0.051800500000,0.728330000000,-0.019745800000,-2.096750000000,0.003138490000,2.914640000000,1.304570000000,-0.000361185000,-0.000018635200,0.000978725000,-0.000171580000,-0.000943820000,0.000713922000,-0.000733022000,0.294746000000,-0.954923000000,0.035300400000,0.000000000000,-0.951334000000,-0.296714000000,-0.083208100000,0.000000000000,0.089931500000,-0.009057290000,-0.995907000000,0.000000000000,0.567009000000,0.017451200000,0.076003600000,1.000000000000,-0.017451200000,0.567009000000,0.000000000000,0.000000000000,0.000000000000,1.000000000000,-0.256652000000,-0.013306600000,-0.567152000000,-0.051777400000,0.998659000000,0.000000000000,-0.021880800000,0.593985000000,-0.007941190000,0.664731000000,0.034464300000,0.746287000000,0.437665000000,0.020111800000,0.295219000000,0.037052000000,-0.999227000000,0.013142400000,0.002101110000,-0.061626800000,0.000750198000,0.311594000000,-0.000943689000,-0.950215000000,0.098590100000,0.004544870000,0.097223100000,0.034071800000,-0.999345000000,0.012165300000,-0.000000000000,0.000000000000,0.000000000000,0.089931500000,-0.009057290000,-0.995907000000,0.046715000000,0,0,0,600.000000000000,40.000000000000
1782249844.438310384750,0.307585253002,hold_measured_before,0.567008353380,0.567007426624,0.567008372616,-0.000001078020,0.035514300000,0.033382400000,0.015716200000,0.031268400000,-0.029916600000,0.028297200000,0.032473400000,-0.014231100000,0.016788200000,-0.012790500000,0.000003829900,-0.000001940620,0.000003502020,-0.000001586530,-0.000000262024,0.000000093839,0.000000015755,0.033494900000,-0.029888800000,0.026645100000,0.032474600000,-0.009744850000,0.016783800000,-0.016080100000,0.033494900000,-0.029888800000,0.026645100000,0.032474600000,-0.009744850000,0.016783800000,-0.016080100000,0.033494900000,-0.029888800000,0.026645100000,0.032474600000,-0.009744850000,0.016783800000,-0.016080100000,0.051797200000,0.728328000000,-0.019748600000,-2.096760000000,0.003144320000,2.914640000000,1.304570000000,-0.000966739000,-0.000508692000,-0.000376524000,-0.002471650000,0.001059930000,0.000529281000,-0.000645795000,0.294735000000,-0.954927000000,0.035299800000,0.000000000000,-0.951338000000,-0.296704000000,-0.083205300000,0.000000000000,0.089928600000,-0.009058450000,-0.995907000000,0.000000000000,0.567007000000,0.017447200000,0.076003000000,1.000000000000,-0.017447200000,0.567007000000,0.000000000000,0.000000000000,0.000000000000,1.000000000000,-0.256652000000,-0.013305800000,-0.567150000000,-0.051774100000,0.998659000000,0.000000000000,-0.021877300000,0.593985000000,-0.007942540000,0.664730000000,0.034462000000,0.746288000000,0.437666000000,0.020110000000,0.295218000000,0.037046500000,-0.999227000000,0.013144300000,0.002100430000,-0.061626800000,0.000750203000,0.311591000000,-0.000947285000,-0.950216000000,0.098590400000,0.004543800000,0.097222900000,0.034060800000,-0.999346000000,0.012165400000,-0.000000000000,-0.000000000000,-0.000000000000,0.089928600000,-0.009058450000,-0.995907000000,0.066445700000,0,0,0,600.000000000000,40.000000000000
1782249844.459270000458,0.328544871001,hold_measured_before,0.567008353380,0.567007746590,0.567008372616,-0.000000945992,0.007402710000,0.009646870000,0.012415500000,0.013221200000,-0.009704340000,0.014028100000,0.007777960000,-0.006795530000,0.002639790000,-0.007480230000,-0.000000179468,-0.000001249980,-0.000000294395,0.000000355431,0.000000006243,0.000000096369,0.000000000142,0.009160920000,-0.009760050000,0.017052200000,0.007773170000,-0.014991100000,0.002648200000,-0.001471150000,0.009160920000,-0.009760050000,0.017052200000,0.007773170000,-0.014991100000,0.002648200000,-0.001471150000,0.009160920000,-0.009760050000,0.017052200000,0.007773170000,-0.014991100000,0.002648200000,-0.001471150000,0.051799900000,0.728333000000,-0.019751700000,-2.096750000000,0.003139350000,2.914640000000,1.304570000000,0.000629474000,0.000475315000,-0.001017090000,-0.000294252000,0.000456306000,0.000686374000,0.000452948000,0.294738000000,-0.954926000000,0.035302700000,0.000000000000,-0.951337000000,-0.296706000000,-0.083203100000,0.000000000000,0.089927300000,-0.009061670000,-0.995907000000,0.000000000000,0.567007000000,0.017447200000,0.076001500000,1.000000000000,-0.017447200000,0.567007000000,0.000000000000,0.000000000000,0.000000000000,1.000000000000,-0.256654000000,-0.013306600000,-0.567150000000,-0.051776800000,0.998659000000,0.000000000000,-0.021877800000,0.593985000000,-0.007943590000,0.664733000000,0.034464000000,0.746285000000,0.437666000000,0.020110800000,0.295217000000,0.037047000000,-0.999227000000,0.013146400000,0.002100750000,-0.061626800000,0.000750428000,0.311590000000,-0.000949198000,-0.950216000000,0.098590500000,0.004544660000,0.097222700000,0.034066000000,-0.999345000000,0.012169000000,0.000000000000,-0.000000000000,0.000000000000,0.089927300000,-0.009061670000,-0.995907000000,0.027645800000,0,0,0,600.000000000000,40.000000000000
1782249844.479328870773,0.348603920000,hold_measured_before,0.567008353380,0.567006840472,0.567008365965,-0.000000619375,-0.003165830000,0.008763310000,-0.001611770000,0.021168400000,0.013208800000,0.017300200000,-0.013068700000,-0.016103100000,-0.011827800000,-0.016241900000,0.000000228294,-0.000000019159,0.000000253312,-0.000000334284,-0.000000041584,-0.000000008616,0.000000001704,0.028316600000,0.013304700000,0.011976100000,-0.013060000000,-0.001674550000,-0.011842400000,-0.026821100000,0.028316600000,0.013304700000,0.011976100000,-0.013060000000,-0.001674550000,-0.011842400000,-0.026821100000,0.028316600000,0.013304700000,0.011976100000,-0.013060000000,-0.001674550000,-0.011842400000,-0.026821100000,0.051797200000,0.728331000000,-0.019748600000,-2.096750000000,0.003140370000,2.914640000000,1.304570000000,-0.000646674000,0.000130868000,0.000089149100,-0.000118271000,-0.000719914000,0.001683400000,0.002163880000,0.294734000000,-0.954927000000,0.035301100000,0.000000000000,-0.951338000000,-0.296702000000,-0.083207000000,0.000000000000,0.089930500000,-0.009059300000,-0.995907000000,0.000000000000,0.567008000000,0.017447400000,0.076002500000,1.000000000000,-0.017447400000,0.567008000000,0.000000000000,0.000000000000,0.000000000000,1.000000000000,-0.256653000000,-0.013305800000,-0.567151000000,-0.051774000000,0.998659000000,0.000000000000,-0.021877400000,0.593985000000,-0.007942400000,0.664732000000,0.034462100000,0.746287000000,0.437666000000,0.020110000000,0.295218000000,0.037046500000,-0.999227000000,0.013144300000,0.002100670000,-0.061627100000,0.000750284000,0.311591000000,-0.000947338000,-0.950216000000,0.098590200000,0.004544280000,0.097223100000,0.034064600000,-0.999346000000,0.012166600000,-0.000000000000,-0.000000000000,-0.000000000000,0.089930500000,-0.009059300000,-0.995907000000,0.046424600000,0,0,0,600.000000000000,40.000000000000
1782249844.500265359879,0.369540141000,hold_measured_before,0.567008353380,0.567010162177,0.567008361782,-0.000001521310,0.028096400000,0.030426800000,0.035200100000,0.029315900000,-0.048869800000,0.028798300000,0.044701600000,-0.012302800000,0.027708500000,-0.011908600000,0.000000128228,-0.000002484410,0.000000078631,-0.000000808929,-0.000000061126,0.000000181029,0.000000006885,0.025572000000,-0.048922500000,0.031587300000,0.044696000000,-0.019860500000,0.027716400000,-0.006367230000,0.025572000000,-0.048922500000,0.031587300000,0.044696000000,-0.019860500000,0.027716400000,-0.006367230000,0.025572000000,-0.048922500000,0.031587300000,0.044696000000,-0.019860500000,0.027716400000,-0.006367230000,0.051796100000,0.728333000000,-0.019754300000,-2.096750000000,0.003145190000,2.914640000000,1.304570000000,0.000126449000,0.000884572000,-0.001189780000,-0.000896596000,0.001197030000,-0.000877207000,-0.000355241000,0.294728000000,-0.954929000000,0.035301800000,0.000000000000,-0.951341000000,-0.296696000000,-0.083199700000,0.000000000000,0.089923700000,-0.009062710000,-0.995907000000,0.000000000000,0.567007000000,0.017443100000,0.076000800000,1.000000000000,-0.017443100000,0.567007000000,0.000000000000,0.000000000000,0.000000000000,1.000000000000,-0.256655000000,-0.013305600000,-0.567149000000,-0.051772900000,0.998659000000,0.000000000000,-0.021874100000,0.593985000000,-0.007944850000,0.664734000000,0.034461400000,0.746285000000,0.437667000000,0.020108800000,0.295216000000,0.037041200000,-0.999227000000,0.013148100000,0.002100050000,-0.061626500000,0.000750418000,0.311589000000,-0.000952668000,-0.950217000000,0.098590900000,0.004543550000,0.097222400000,0.034054700000,-0.999346000000,0.012168900000,-0.000000000000,-0.000000000000,-0.000000000000,0.089923700000,-0.009062710000,-0.995907000000,0.085123500000,0,0,0,600.000000000000,40.000000000000
1782249844.520375967026,0.389651546000,hold_measured_before,0.567008353380,0.567006971855,0.567008357050,0.000001803300,-0.049682800000,0.000819617000,-0.047149200000,-0.012337200000,0.072302700000,-0.003196040000,-0.068754200000,0.014600800000,-0.042593600000,0.013841700000,0.000001840650,-0.000005295460,0.000001923610,-0.000000447851,-0.000000238050,0.000000373314,0.000000015082,-0.016822300000,0.072237300000,0.000148159000,-0.068760400000,0.005543330000,-0.042584000000,0.020482600000,-0.016822300000,0.072237300000,0.000148159000,-0.068760400000,0.005543330000,-0.042584000000,0.020482600000,-0.016822300000,0.072237300000,0.000148159000,-0.068760400000,0.005543330000,-0.042584000000,0.020482600000,0.051801300000,0.728331000000,-0.019752400000,-2.096750000000,0.003140370000,2.914640000000,1.304570000000,0.000685773000,-0.000772110000,-0.000928095000,0.002006870000,-0.000573880000,0.001332680000,-0.001103570000,0.294739000000,-0.954925000000,0.035305700000,0.000000000000,-0.951336000000,-0.296708000000,-0.083213200000,0.000000000000,0.089937900000,-0.009061400000,-0.995906000000,0.000000000000,0.567010000000,0.017447600000,0.076004200000,1.000000000000,-0.017447600000,0.567010000000,0.000000000000,0.000000000000,0.000000000000,1.000000000000,-0.256651000000,-0.013306800000,-0.567153000000,-0.051778100000,0.998659000000,0.000000000000,-0.021878200000,0.593985000000,-0.007943890000,0.664732000000,0.034464800000,0.746287000000,0.437664000000,0.020111200000,0.295220000000,0.037047800000,-0.999227000000,0.013146800000,0.002100770000,-0.061627400000,0.000750441000,0.311595000000,-0.000949113000,-0.950214000000,0.098589500000,0.004544640000,0.097223800000,0.034065900000,-0.999346000000,0.012169100000,0.000000000000,-0.000000000000,-0.000000000000,0.089937900000,-0.009061400000,-0.995906000000,0.111772000000,0,0,0,600.000000000000,40.000000000000
1782249844.540394067764,0.409669052002,hold_measured_before,0.567008353380,0.567007286698,0.567008355830,-0.000001385190,-0.005941920000,0.010833900000,-0.004205160000,0.013531300000,0.010566700000,0.013422800000,-0.010358700000,-0.007072940000,-0.007693060000,-0.007161910000,-0.000000008157,-0.000000296534,-0.000000007869,-0.000000021952,-0.000000007420,0.000000022278,0.000000000919,0.012442900000,0.010551800000,0.014233600000,-0.010360100000,-0.009270020000,-0.007690800000,-0.005550990000,0.012442900000,0.010551800000,0.014233600000,-0.010360100000,-0.009270020000,-0.007690800000,-0.005550990000,0.012442900000,0.010551800000,0.014233600000,-0.010360100000,-0.009270020000,-0.007690800000,-0.005550990000,0.051797600000,0.728333000000,-0.019750500000,-2.096750000000,0.003141480000,2.914640000000,1.304570000000,0.000096407000,-0.000031695600,-0.000576693000,0.000201908000,0.000353694000,0.000620192000,0.000274479000,0.294737000000,-0.954926000000,0.035301200000,0.000000000000,-0.951338000000,-0.296706000000,-0.083202100000,0.000000000000,0.089925900000,-0.009060600000,-0.995907000000,0.000000000000,0.567007000000,0.017446400000,0.076000900000,1.000000000000,-0.017446400000,0.567007000000,0.000000000000,0.000000000000,0.000000000000,1.000000000000,-0.256654000000,-0.013306000000,-0.567150000000,-0.051774400000,0.998659000000,0.000000000000,-0.021876800000,0.593985000000,-0.007943210000,0.664734000000,0.034462400000,0.746285000000,0.437667000000,0.020109900000,0.295216000000,0.037045500000,-0.999227000000,0.013145600000,0.002100540000,-0.061626800000,0.000750339000,0.311588000000,-0.000948969000,-0.950217000000,0.098590700000,0.004544180000,0.097222600000,0.034062500000,-0.999346000000,0.012167600000,0.000000000000,-0.000000000000,-0.000000000000,0.089925900000,-0.009060600000,-0.995907000000,0.027422400000,0,0,0,600.000000000000,40.000000000000
1782249844.561237335205,0.430512296000,hold_measured_before,0.567008353380,0.567006862149,0.567008355830,-0.000001069130,0.026004500000,0.001223690000,0.003802140000,-0.011734900000,-0.016881100000,-0.007751690000,0.020380300000,0.011992400000,0.010797700000,0.012178000000,0.000000733970,-0.000000398398,0.000000629611,-0.000000476227,-0.000000065529,0.000000027400,0.000000003197,-0.011241800000,-0.016874900000,-0.008117880000,0.020380500000,0.012986400000,0.010796700000,0.011449200000,-0.011241800000,-0.016874900000,-0.008117880000,0.020380500000,0.012986400000,0.010796700000,0.011449200000,-0.011241800000,-0.016874900000,-0.008117880000,0.020380500000,0.012986400000,0.010796700000,0.011449200000,0.051800300000,0.728328000000,-0.019748600000,-2.096760000000,0.003142740000,2.914640000000,1.304570000000,-0.000228378000,-0.000850988000,0.000043900000,-0.001989170000,-0.000485786000,0.000163351000,-0.001225070000,0.294742000000,-0.954925000000,0.035300600000,0.000000000000,-0.951336000000,-0.296710000000,-0.083205700000,0.000000000000,0.089929300000,-0.009058510000,-0.995907000000,0.000000000000,0.567007000000,0.017449000000,0.076003000000,1.000000000000,-0.017449000000,0.567007000000,0.000000000000,0.000000000000,0.000000000000,1.000000000000,-0.256652000000,-0.013306600000,-0.567150000000,-0.051777100000,0.998659000000,0.000000000000,-0.021879200000,0.593984000000,-0.007942470000,0.664730000000,0.034464100000,0.746288000000,0.437666000000,0.020111300000,0.295218000000,0.037049600000,-0.999227000000,0.013144300000,0.002100720000,-0.061626900000,0.000750234000,0.311591000000,-0.000946336000,-0.950216000000,0.098590300000,0.004544290000,0.097222900000,0.034065400000,-0.999346000000,0.012165800000,-0.000000000000,0.000000000000,0.000000000000,0.089929300000,-0.009058510000,-0.995907000000,0.036176000000,0,0,0,600.000000000000,40.000000000000
1782249844.581338405609,0.450613198998,hold_measured_before,0.567008353380,0.567009584745,0.567008354450,-0.000001492830,0.023605700000,-0.003342850000,0.018977500000,-0.008339430000,-0.034807300000,-0.008612640000,0.033846400000,0.005628020000,0.022148600000,0.006058790000,0.000000663324,-0.000000985565,0.000000626753,-0.000000035589,-0.000000069103,0.000000071403,0.000000003510,-0.006158550000,-0.034779100000,-0.010236000000,0.033849100000,0.010028800000,0.022144200000,0.002832050000,-0.006158550000,-0.034779100000,-0.010236000000,0.033849100000,0.010028800000,0.022144200000,0.002832050000,-0.006158550000,-0.034779100000,-0.010236000000,0.033849100000,0.010028800000,0.022144200000,0.002832050000,0.051798900000,0.728333000000,-0.019748300000,-2.096750000000,0.003141130000,2.914640000000,1.304570000000,-0.000476928000,0.000038120200,0.000517370000,-0.000999379000,-0.000163528000,-0.001189070000,-0.000684119000,0.294742000000,-0.954925000000,0.035299800000,0.000000000000,-0.951336000000,-0.296710000000,-0.083201500000,0.000000000000,0.089925000000,-0.009058990000,-0.995907000000,0.000000000000,0.567007000000,0.017448500000,0.076000800000,1.000000000000,-0.017448500000,0.567007000000,0.000000000000,0.000000000000,0.000000000000,1.000000000000,-0.256654000000,-0.013306300000,-0.567150000000,-0.051775700000,0.998659000000,0.000000000000,-0.021878600000,0.593985000000,-0.007942330000,0.664734000000,0.034463300000,0.746285000000,0.437667000000,0.020110800000,0.295216000000,0.037048500000,-0.999227000000,0.013144200000,0.002100740000,-0.061626700000,0.000750254000,0.311588000000,-0.000946651000,-0.950217000000,0.098590700000,0.004544380000,0.097222500000,0.034065800000,-0.999346000000,0.012166200000,-0.000000000000,-0.000000000000,-0.000000000000,0.089925000000,-0.009058990000,-0.995907000000,0.055650800000,0,0,0,600.000000000000,40.000000000000
1782249844.601348161697,0.470622768997,hold_measured_before,0.567008353380,0.567008299257,0.567008354094,0.000001230290,-0.014618400000,0.020216400000,-0.028107300000,0.005071920000,0.029831900000,0.011015600000,-0.024858400000,0.006440210000,-0.014659700000,0.006935760000,-0.000000127987,-0.000000259602,-0.000000196770,-0.000001257310,-0.000000021958,0.000000014661,0.000000004235,0.004685660000,0.029826500000,0.011303100000,-0.024860100000,0.005660770000,-0.014658900000,0.007507230000,0.004685660000,0.029826500000,0.011303100000,-0.024860100000,0.005660770000,-0.014658900000,0.007507230000,0.004685660000,0.029826500000,0.011303100000,-0.024860100000,0.005660770000,-0.014658900000,0.007507230000,0.051798100000,0.728327000000,-0.019752900000,-2.096750000000,0.003139550000,2.914640000000,1.304570000000,-0.000265837000,-0.001135230000,-0.000677856000,0.000055827900,-0.000197458000,0.000123355000,-0.001392740000,0.294738000000,-0.954926000000,0.035305600000,0.000000000000,-0.951337000000,-0.296707000000,-0.083210100000,0.000000000000,0.089934900000,-0.009062270000,-0.995906000000,0.000000000000,0.567010000000,0.017445600000,0.076005000000,1.000000000000,-0.017445600000,0.567010000000,0.000000000000,0.000000000000,0.000000000000,1.000000000000,-0.256650000000,-0.013305900000,-0.567152000000,-0.051774900000,0.998659000000,0.000000000000,-0.021876100000,0.593985000000,-0.007944010000,0.664729000000,0.034462500000,0.746289000000,0.437664000000,0.020109800000,0.295220000000,0.037044200000,-0.999227000000,0.013147100000,0.002100580000,-0.061626900000,0.000750467000,0.311596000000,-0.000950441000,-0.950214000000,0.098589800000,0.004544420000,0.097223500000,0.034063100000,-0.999346000000,0.012169600000,-0.000000000000,-0.000000000000,0.000000000000,0.089934900000,-0.009062270000,-0.995906000000,0.044279200000,0,0,0,600.000000000000,40.000000000000
1782249844.622287511826,0.491563037998,hold_measured_before,0.567008353380,0.567011100366,0.567008354094,-0.000000054837,-0.016538100000,0.010646100000,-0.018048700000,0.018520500000,0.023676000000,0.017451400000,-0.021560700000,-0.011741300000,-0.012563600000,-0.012069500000,-0.000000254790,-0.000000692266,-0.000000266001,-0.000000302120,0.000000000684,0.000000044185,0.000000001633,0.021108100000,0.023710100000,0.015523500000,-0.021557700000,-0.006517600000,-0.012568900000,-0.015899500000,0.021108100000,0.023710100000,0.015523500000,-0.021557700000,-0.006517600000,-0.012568900000,-0.015899500000,0.021108100000,0.023710100000,0.015523500000,-0.021557700000,-0.006517600000,-0.012568900000,-0.015899500000,0.051801400000,0.728331000000,-0.019753500000,-2.096750000000,0.003140370000,2.914640000000,1.304570000000,-0.000138721000,-0.000473366000,-0.000447490000,0.000630621000,-0.000319129000,0.000053189600,0.001391980000,0.294737000000,-0.954926000000,0.035304200000,0.000000000000,-0.951337000000,-0.296706000000,-0.083205300000,0.000000000000,0.089929900000,-0.009062520000,-0.995907000000,0.000000000000,0.567008000000,0.017446900000,0.076002600000,1.000000000000,-0.017446900000,0.567008000000,0.000000000000,0.000000000000,0.000000000000,1.000000000000,-0.256653000000,-0.013306900000,-0.567151000000,-0.051778200000,0.998659000000,0.000000000000,-0.021877800000,0.593985000000,-0.007944340000,0.664732000000,0.034464900000,0.746286000000,0.437666000000,0.020111200000,0.295218000000,0.037047100000,-0.999227000000,0.013147600000,0.002100700000,-0.061626800000,0.000750481000,0.311592000000,-0.000950198000,-0.950215000000,0.098590300000,0.004544660000,0.097223000000,0.034065100000,-0.999346000000,0.012169900000,-0.000000000000,0.000000000000,-0.000000000000,0.089929900000,-0.009062520000,-0.995907000000,0.046547700000,0,0,0,600.000000000000,40.000000000000
1782249844.642370462418,0.511646145998,hold_measured_before,0.567008353380,0.567008372155,0.567008353692,0.000002746520,-0.046388100000,-0.027926400000,-0.043999800000,-0.038567200000,0.064809900000,-0.031848100000,-0.061756900000,0.023930900000,-0.036861500000,0.023194500000,0.000002181680,-0.000004282090,0.000002251800,-0.000001198920,-0.000000217447,0.000000288031,0.000000015309,-0.041560100000,0.064765400000,-0.029614900000,-0.061761900000,0.017885000000,-0.036855100000,0.027627200000,-0.041560100000,0.064765400000,-0.029614900000,-0.061761900000,0.017885000000,-0.036855100000,0.027627200000,-0.041560100000,0.064765400000,-0.029614900000,-0.061761900000,0.017885000000,-0.036855100000,0.027627200000,0.051801600000,0.728328000000,-0.019751500000,-2.096750000000,0.003139610000,2.914640000000,1.304570000000,0.000576841000,-0.000711006000,0.000346435000,0.002017620000,-0.000805188000,0.000733574000,-0.001273200000,0.294743000000,-0.954924000000,0.035305500000,0.000000000000,-0.951335000000,-0.296712000000,-0.083213300000,0.000000000000,0.089938000000,-0.009060830000,-0.995906000000,0.000000000000,0.567011000000,0.017448500000,0.076005600000,1.000000000000,-0.017448500000,0.567011000000,0.000000000000,0.000000000000,0.000000000000,1.000000000000,-0.256650000000,-0.013306800000,-0.567154000000,-0.051778400000,0.998659000000,0.000000000000,-0.021878900000,0.593986000000,-0.007943480000,0.664730000000,0.034464900000,0.746288000000,0.437663000000,0.020111500000,0.295221000000,0.037048800000,-0.999227000000,0.013146200000,0.002100850000,-0.061626900000,0.000750409000,0.311599000000,-0.000948036000,-0.950213000000,0.098589500000,0.004544760000,0.097223800000,0.034067600000,-0.999345000000,0.012168700000,-0.000000000000,-0.000000000000,0.000000000000,0.089938000000,-0.009060830000,-0.995906000000,0.114258000000,0,0,0,600.000000000000,40.000000000000
1782249844.663271903992,0.532546894996,hold_measured_before,0.567008353380,0.567006104562,0.567008353692,0.000000018463,-0.023826900000,0.023360200000,-0.010753100000,0.012142300000,0.026882600000,0.016445200000,-0.028198100000,0.001136960000,-0.018365400000,0.001722920000,-0.000001054740,-0.000000636905,-0.000000985330,-0.000000818399,-0.000000001523,0.000000031659,0.000000002839,0.012820300000,0.026891000000,0.015938400000,-0.028198000000,0.002507730000,-0.018366700000,0.000717850000,0.012820300000,0.026891000000,0.015938400000,-0.028198000000,0.002507730000,-0.018366700000,0.000717850000,0.012820300000,0.026891000000,0.015938400000,-0.028198000000,0.002507730000,-0.018366700000,0.000717850000,0.051795300000,0.728332000000,-0.019750500000,-2.096750000000,0.003140370000,2.914640000000,1.304570000000,-0.000417870000,0.000342129000,-0.000659485000,0.001302460000,-0.000062895700,0.000928870000,-0.000993717000,0.294737000000,-0.954926000000,0.035302800000,0.000000000000,-0.951337000000,-0.296705000000,-0.083206500000,0.000000000000,0.089930500000,-0.009060850000,-0.995907000000,0.000000000000,0.567008000000,0.017445300000,0.076002200000,1.000000000000,-0.017445300000,0.567008000000,0.000000000000,0.000000000000,0.000000000000,1.000000000000,-0.256653000000,-0.013305300000,-0.567151000000,-0.051772200000,0.998659000000,0.000000000000,-0.021875600000,0.593985000000,-0.007943160000,0.664733000000,0.034460900000,0.746286000000,0.437666000000,0.020108900000,0.295218000000,0.037043300000,-0.999227000000,0.013145600000,0.002100470000,-0.061627000000,0.000750361000,0.311591000000,-0.000949510000,-0.950216000000,0.098590200000,0.004544090000,0.097223000000,0.034061400000,-0.999346000000,0.012167900000,0.000000000000,0.000000000000,0.000000000000,0.089930500000,-0.009060850000,-0.995907000000,0.047757600000,0,0,0,600.000000000000,40.000000000000
1782249844.683321237564,0.552596155001,hold_measured_before,0.567008353380,0.567008824045,0.567008353516,-0.000002249020,0.034945900000,-0.015080200000,0.023729300000,-0.018772100000,-0.042896600000,-0.017948900000,0.042555600000,0.010102500000,0.026255300000,0.009739660000,-0.000001124860,-0.000001730190,-0.000001058740,-0.000000447715,0.000000036665,0.000000115856,0.000000003123,-0.021203500000,-0.042930900000,-0.016139700000,0.042552100000,0.005196900000,0.026260400000,0.013336500000,-0.021203500000,-0.042930900000,-0.016139700000,0.042552100000,0.005196900000,0.026260400000,0.013336500000,-0.021203500000,-0.042930900000,-0.016139700000,0.042552100000,0.005196900000,0.026260400000,0.013336500000,0.051799400000,0.728332000000,-0.019750800000,-2.096760000000,0.003141120000,2.914630000000,1.304570000000,0.000365320000,-0.000082931300,0.000272770000,-0.001737310000,-0.000023641000,-0.000897055000,-0.000621861000,0.294738000000,-0.954926000000,0.035300300000,0.000000000000,-0.951338000000,-0.296706000000,-0.083197900000,0.000000000000,0.089921600000,-0.009060880000,-0.995908000000,0.000000000000,0.567006000000,0.017447300000,0.076000800000,1.000000000000,-0.017447300000,0.567006000000,0.000000000000,0.000000000000,0.000000000000,1.000000000000,-0.256654000000,-0.013306500000,-0.567149000000,-0.051776300000,0.998659000000,0.000000000000,-0.021877800000,0.593984000000,-0.007943310000,0.664733000000,0.034463600000,0.746286000000,0.437667000000,0.020110700000,0.295216000000,0.037047100000,-0.999227000000,0.013145800000,0.002100640000,-0.061626300000,0.000750352000,0.311588000000,-0.000948671000,-0.950217000000,0.098591100000,0.004544410000,0.097222200000,0.034064400000,-0.999346000000,0.012167900000,0.000000000000,0.000000000000,-0.000000000000,0.089921600000,-0.009060880000,-0.995908000000,0.072514200000,0,0,0,600.000000000000,40.000000000000
1782249844.704221725464,0.573496473997,hold_measured_before,0.567008353380,0.567009406205,0.567008353516,0.000000470529,-0.006319900000,-0.063766600000,-0.011586700000,-0.049844400000,0.015586800000,-0.056958800000,-0.013994400000,0.012693700000,-0.008510500000,0.012442300000,0.000000396776,-0.000001757710,0.000000486970,-0.000003251710,-0.000000182612,0.000000013912,0.000000011911,-0.055233800000,0.015512800000,-0.052943600000,-0.014004500000,0.001813980000,-0.008499420000,0.020419300000,-0.055233800000,0.015512800000,-0.052943600000,-0.014004500000,0.001813980000,-0.008499420000,0.020419300000,-0.055233800000,0.015512800000,-0.052943600000,-0.014004500000,0.001813980000,-0.008499420000,0.020419300000,0.051802600000,0.728332000000,-0.019748600000,-2.096750000000,0.003143410000,2.914640000000,1.304570000000,0.000664127000,-0.000437286000,0.002019900000,0.000162801000,0.001345030000,0.000207087000,-0.000792561000,0.294743000000,-0.954924000000,0.035300800000,0.000000000000,-0.951335000000,-0.296711000000,-0.083207200000,0.000000000000,0.089930700000,-0.009058140000,-0.995907000000,0.000000000000,0.567009000000,0.017450300000,0.076002600000,1.000000000000,-0.017450300000,0.567009000000,0.000000000000,0.000000000000,0.000000000000,1.000000000000,-0.256653000000,-0.013307200000,-0.567152000000,-0.051779400000,0.998659000000,0.000000000000,-0.021880500000,0.593985000000,-0.007942540000,0.664733000000,0.034465700000,0.746286000000,0.437665000000,0.020112300000,0.295219000000,0.037051900000,-0.999227000000,0.013144300000,0.002100820000,-0.061626800000,0.000750223000,0.311593000000,-0.000945571000,-0.950215000000,0.098590200000,0.004544440000,0.097223100000,0.034067100000,-0.999346000000,0.012165700000,-0.000000000000,0.000000000000,0.000000000000,0.089930700000,-0.009058140000,-0.995907000000,0.082359300000,0,0,0,600.000000000000,40.000000000000
1782249844.724373579025,0.593648438997,hold_measured_before,0.567008353380,0.567008047247,0.567008353439,0.000001052740,-0.035771500000,0.032544600000,-0.043109600000,0.016670600000,0.055036600000,0.024573900000,-0.049725700000,0.002564930000,-0.029590900000,0.002891200000,-0.000001627680,-0.000002648420,-0.000001796340,-0.000002427230,0.000000008451,0.000000148802,0.000000009218,0.020284200000,0.055082400000,0.021879200000,-0.049723600000,0.009862450000,-0.029598200000,-0.002459380000,0.020284200000,0.055082400000,0.021879200000,-0.049723600000,0.009862450000,-0.029598200000,-0.002459380000,0.020284200000,0.055082400000,0.021879200000,-0.049723600000,0.009862450000,-0.029598200000,-0.002459380000,0.051797100000,0.728327000000,-0.019750700000,-2.096750000000,0.003139610000,2.914640000000,1.304570000000,-0.000597035000,-0.001178270000,-0.001033410000,0.001151410000,-0.001121980000,0.000420878000,-0.000562386000,0.294737000000,-0.954926000000,0.035303800000,0.000000000000,-0.951337000000,-0.296706000000,-0.083209500000,0.000000000000,0.089933800000,-0.009060850000,-0.995907000000,0.000000000000,0.567009000000,0.017446200000,0.076004800000,1.000000000000,-0.017446200000,0.567009000000,0.000000000000,0.000000000000,0.000000000000,1.000000000000,-0.256651000000,-0.013305600000,-0.567152000000,-0.051773900000,0.998659000000,0.000000000000,-0.021876500000,0.593985000000,-0.007943170000,0.664730000000,0.034461900000,0.746289000000,0.437664000000,0.020109600000,0.295220000000,0.037044800000,-0.999227000000,0.013145700000,0.002100600000,-0.061626800000,0.000750378000,0.311596000000,-0.000948949000,-0.950214000000,0.098589900000,0.004544330000,0.097223400000,0.034063600000,-0.999346000000,0.012168200000,0.000000000000,0.000000000000,0.000000000000,0.089933800000,-0.009060850000,-0.995907000000,0.085883800000,0,0,0,600.000000000000,40.000000000000
1782249844.744402170181,0.613676786998,hold_measured_before,0.567008353380,0.567009242462,0.567008353419,-0.000000306192,-0.016118800000,-0.005593810000,-0.003914280000,-0.015220000000,0.014962700000,-0.012655400000,-0.017003100000,0.011637200000,-0.010660900000,0.012093000000,-0.000000110252,-0.000000232207,-0.000000065036,-0.000000132185,0.000000009752,0.000000015225,0.000000000719,-0.017038700000,0.014938100000,-0.011300900000,-0.017005500000,0.007966420000,-0.010657100000,0.014784500000,-0.017038700000,0.014938100000,-0.011300900000,-0.017005500000,0.007966420000,-0.010657100000,0.014784500000,-0.017038700000,0.014938100000,-0.011300900000,-0.017005500000,0.007966420000,-0.010657100000,0.014784500000,0.051799900000,0.728333000000,-0.019750400000,-2.096750000000,0.003140330000,2.914640000000,1.304570000000,-0.000122259000,0.000426403000,0.000262839000,0.001092200000,0.000312689000,0.000425411000,-0.001721200000,0.294740000000,-0.954925000000,0.035302200000,0.000000000000,-0.951336000000,-0.296709000000,-0.083204700000,0.000000000000,0.089928700000,-0.009060470000,-0.995907000000,0.000000000000,0.567008000000,0.017447900000,0.076001900000,1.000000000000,-0.017447900000,0.567008000000,0.000000000000,0.000000000000,0.000000000000,1.000000000000,-0.256653000000,-0.013306500000,-0.567151000000,-0.051776700000,0.998659000000,0.000000000000,-0.021878300000,0.593985000000,-0.007943130000,0.664733000000,0.034463900000,0.746285000000,0.437666000000,0.020110900000,0.295218000000,0.037047900000,-0.999227000000,0.013145500000,0.002100750000,-0.061626800000,0.000750357000,0.311591000000,-0.000948045000,-0.950216000000,0.098590400000,0.004544550000,0.097222900000,0.034066000000,-0.999346000000,0.012167900000,-0.000000000000,-0.000000000000,-0.000000000000,0.089928700000,-0.009060470000,-0.995907000000,0.036414000000,0,0,0,600.000000000000,40.000000000000
1782249844.765392303467,0.634667336999,hold_measured_before,0.567008353380,0.567007933513,0.567008353419,0.000000889042,-0.008145980000,0.050645900000,-0.012133600000,0.051745500000,0.017377500000,0.051399300000,-0.014993000000,-0.023197900000,-0.010656600000,-0.022385600000,0.000000098629,-0.000000191173,-0.000000006649,-0.000002870410,-0.000000104478,-0.000000047087,0.000000010271,0.057257400000,0.017451300000,0.047293700000,-0.014988900000,-0.012072100000,-0.010668000000,-0.030543200000,0.057257400000,0.017451300000,0.047293700000,-0.014988900000,-0.012072100000,-0.010668000000,-0.030543200000,0.057257400000,0.017451300000,0.047293700000,-0.014988900000,-0.012072100000,-0.010668000000,-0.030543200000,0.051796700000,0.728329000000,-0.019755300000,-2.096750000000,0.003141130000,2.914640000000,1.304570000000,-0.000952229000,-0.000407464000,-0.001212240000,-0.000079760400,-0.000046515700,0.000787274000,0.001068870000,0.294731000000,-0.954928000000,0.035306200000,0.000000000000,-0.951339000000,-0.296700000000,-0.083208800000,0.000000000000,0.089933700000,-0.009063920000,-0.995907000000,0.000000000000,0.567009000000,0.017443200000,0.076004000000,1.000000000000,-0.017443200000,0.567009000000,0.000000000000,0.000000000000,0.000000000000,1.000000000000,-0.256651000000,-0.013305600000,-0.567152000000,-0.051773600000,0.998659000000,0.000000000000,-0.021874200000,0.593985000000,-0.007945070000,0.664731000000,0.034461700000,0.746288000000,0.437665000000,0.020108900000,0.295219000000,0.037041000000,-0.999227000000,0.013148800000,0.002100290000,-0.061627000000,0.000750541000,0.311594000000,-0.000953103000,-0.950215000000,0.098589900000,0.004544070000,0.097223400000,0.034058400000,-0.999346000000,0.012170800000,0.000000000000,0.000000000000,-0.000000000000,0.089933700000,-0.009063920000,-0.995907000000,0.085069000000,0,0,0,600.000000000000,40.000000000000
1782249844.786332845688,0.655607676003,hold_measured_before,0.567008353380,0.567007691011,0.567008353406,-0.000000419892,0.017380900000,-0.004321170000,0.035219600000,-0.005712250000,-0.034456300000,-0.004775470000,0.027940200000,0.003621190000,0.015140300000,0.003173400000,-0.000000112288,-0.000000457433,-0.000000206266,-0.000001328480,-0.000000045883,0.000000034844,0.000000004432,-0.006395480000,-0.034465900000,-0.004266840000,0.027938000000,0.002242230000,0.015141800000,0.004184430000,-0.006395480000,-0.034465900000,-0.004266840000,0.027938000000,0.002242230000,0.015141800000,0.004184430000,-0.006395480000,-0.034465900000,-0.004266840000,0.027938000000,0.002242230000,0.015141800000,0.004184430000,0.051800700000,0.728334000000,-0.019752600000,-2.096750000000,0.003141110000,2.914640000000,1.304570000000,0.000202640000,0.001454710000,-0.000069337000,-0.000213816000,-0.000244775000,0.000418362000,0.000042130800,0.294739000000,-0.954926000000,0.035303300000,0.000000000000,-0.951337000000,-0.296707000000,-0.083204500000,0.000000000000,0.089928900000,-0.009061800000,-0.995907000000,0.000000000000,0.567008000000,0.017447000000,0.076001100000,1.000000000000,-0.017447000000,0.567008000000,0.000000000000,0.000000000000,0.000000000000,1.000000000000,-0.256654000000,-0.013306800000,-0.567151000000,-0.051777500000,0.998659000000,0.000000000000,-0.021877800000,0.593985000000,-0.007944020000,0.664735000000,0.034464500000,0.746284000000,0.437666000000,0.020111000000,0.295217000000,0.037047100000,-0.999227000000,0.013147000000,0.002100670000,-0.061627000000,0.000750433000,0.311590000000,-0.000949712000,-0.950216000000,0.098590400000,0.004544510000,0.097222900000,0.034064500000,-0.999346000000,0.012169100000,-0.000000000000,-0.000000000000,0.000000000000,0.089928900000,-0.009061800000,-0.995907000000,0.047742600000,0,0,0,600.000000000000,40.000000000000
1782249844.807404994965,0.676680140001,hold_measured_before,0.567008353380,0.567008728584,0.567008353397,-0.000000662386,0.011508400000,0.012856500000,-0.004091940000,-0.012106200000,-0.008766960000,-0.002548400000,0.011699900000,0.019641900000,0.008406700000,0.019810800000,-0.000000185937,-0.000000189480,-0.000000022085,-0.000000321640,0.000000024582,0.000000016431,0.000000000941,-0.017328100000,-0.008837180000,0.001341180000,0.011693000000,0.009101590000,0.008417430000,0.027539100000,-0.017328100000,-0.008837180000,0.001341180000,0.011693000000,0.009101590000,0.008417430000,0.027539100000,-0.017328100000,-0.008837180000,0.001341180000,0.011693000000,0.009101590000,0.008417430000,0.027539100000,0.051799300000,0.728330000000,-0.019750600000,-2.096750000000,0.003141130000,2.914640000000,1.304560000000,0.000295367000,-0.000838818000,-0.000886271000,-0.000975178000,-0.000053872200,-0.000815299000,-0.002711370000,0.294743000000,-0.954924000000,0.035302400000,0.000000000000,-0.951336000000,-0.296711000000,-0.083204700000,0.000000000000,0.089928800000,-0.009060430000,-0.995907000000,0.000000000000,0.567008000000,0.017447400000,0.076002500000,1.000000000000,-0.017447400000,0.567008000000,0.000000000000,0.000000000000,0.000000000000,1.000000000000,-0.256653000000,-0.013306300000,-0.567151000000,-0.051776100000,0.998659000000,0.000000000000,-0.021877800000,0.593985000000,-0.007943200000,0.664732000000,0.034463500000,0.746287000000,0.437666000000,0.020110600000,0.295218000000,0.037047100000,-0.999227000000,0.013145600000,0.002100660000,-0.061626800000,0.000750347000,0.311591000000,-0.000948365000,-0.950216000000,0.098590400000,0.004544380000,0.097222900000,0.034064500000,-0.999346000000,0.012167700000,-0.000000000000,0.000000000000,-0.000000000000,0.089928800000,-0.009060430000,-0.995907000000,0.037801800000,0,0,0,600.000000000000,40.000000000000
1782249844.828072786331,0.697347189998,hold_measured_before,0.567008353380,0.567008728584,0.567008353391,0.000000375194,-0.016252000000,0.044897500000,-0.021845000000,0.036631400000,0.023539600000,0.039776300000,-0.020189500000,-0.011214700000,-0.011082900000,-0.010352400000,-0.000000551084,-0.000002563380,-0.000000452576,-0.000001200140,-0.000000028603,0.000000179470,0.000000007793,0.032317900000,0.023479200000,0.042988500000,-0.020196200000,-0.019920500000,-0.011073800000,-0.003969180000,0.032317900000,0.023479200000,0.042988500000,-0.020196200000,-0.019920500000,-0.011073800000,-0.003969180000,0.032317900000,0.023479200000,0.042988500000,-0.020196200000,-0.019920500000,-0.011073800000,-0.003969180000,0.051798700000,0.728328000000,-0.019755600000,-2.096750000000,0.003141130000,2.914640000000,1.304570000000,-0.000078298300,-0.000730967000,-0.001701760000,0.000445857000,0.001338370000,-0.000238074000,-0.001250560000,0.294732000000,-0.954927000000,0.035305900000,0.000000000000,-0.951339000000,-0.296701000000,-0.083207400000,0.000000000000,0.089932300000,-0.009063970000,-0.995907000000,0.000000000000,0.567009000000,0.017444100000,0.076003900000,1.000000000000,-0.017444100000,0.567009000000,0.000000000000,0.000000000000,0.000000000000,1.000000000000,-0.256651000000,-0.013306100000,-0.567151000000,-0.051775500000,0.998659000000,0.000000000000,-0.021875200000,0.593985000000,-0.007945160000,0.664730000000,0.034463000000,0.746288000000,0.437665000000,0.020109700000,0.295219000000,0.037042800000,-0.999227000000,0.013148900000,0.002100390000,-0.061626900000,0.000750550000,0.311594000000,-0.000952725000,-0.950215000000,0.098590000000,0.004544260000,0.097223200000,0.034060100000,-0.999346000000,0.012171000000,-0.000000000000,-0.000000000000,-0.000000000000,0.089932300000,-0.009063970000,-0.995907000000,0.066233100000,0,0,0,600.000000000000,40.000000000000
1782249844.848100900650,0.717376109002,hold_measured_before,0.567008353380,0.567009944071,0.567008353387,0.000001590680,-0.019737400000,-0.021883500000,-0.041996800000,-0.000599824000,0.045585200000,-0.009148510000,-0.037611600000,-0.012455100000,-0.022249300000,-0.012376300000,-0.000000043601,-0.000001031130,-0.000000305378,-0.000001881380,-0.000000107197,0.000000064278,0.000000006675,0.002677910000,0.045628200000,-0.011590400000,-0.037609300000,-0.005838820000,-0.022256000000,-0.017227400000,0.002677910000,0.045628200000,-0.011590400000,-0.037609300000,-0.005838820000,-0.022256000000,-0.017227400000,0.002677910000,0.045628200000,-0.011590400000,-0.037609300000,-0.005838820000,-0.022256000000,-0.017227400000,0.051799400000,0.728328000000,-0.019749700000,-2.096750000000,0.003142110000,2.914640000000,1.304570000000,-0.000296045000,-0.001778900000,0.001114680000,0.000024994200,0.000468223000,0.000206090000,0.001546160000,0.294733000000,-0.954927000000,0.035302500000,0.000000000000,-0.951338000000,-0.296702000000,-0.083212200000,0.000000000000,0.089935900000,-0.009059240000,-0.995906000000,0.000000000000,0.567010000000,0.017448100000,0.076004800000,1.000000000000,-0.017448100000,0.567010000000,0.000000000000,0.000000000000,0.000000000000,1.000000000000,-0.256650000000,-0.013306300000,-0.567153000000,-0.051776300000,0.998659000000,0.000000000000,-0.021878200000,0.593985000000,-0.007942870000,0.664730000000,0.034463500000,0.746288000000,0.437664000000,0.020110800000,0.295220000000,0.037047900000,-0.999227000000,0.013145000000,0.002100660000,-0.061627000000,0.000750289000,0.311596000000,-0.000947279000,-0.950214000000,0.098589700000,0.004544260000,0.097223600000,0.034064400000,-0.999346000000,0.012166700000,-0.000000000000,-0.000000000000,-0.000000000000,0.089935900000,-0.009059240000,-0.995906000000,0.066813900000,0,0,0,600.000000000000,40.000000000000
1782249844.868434429169,0.737709889996,hold_measured_before,0.567008353380,0.567008584558,0.567008353384,0.000000231173,-0.013124800000,0.006649600000,-0.018250600000,0.003729370000,0.020125200000,0.004293870000,-0.017497600000,-0.000252443000,-0.009537280000,0.000195071000,-0.000000145059,-0.000000454891,-0.000000159022,-0.000000312932,-0.000000002875,0.000000030532,0.000000001366,0.002986050000,0.020114800000,0.004847290000,-0.017498900000,-0.001752580000,-0.009535730000,0.001294990000,0.002986050000,0.020114800000,0.004847290000,-0.017498900000,-0.001752580000,-0.009535730000,0.001294990000,0.002986050000,0.020114800000,0.004847290000,-0.017498900000,-0.001752580000,-0.009535730000,0.001294990000,0.051798900000,0.728330000000,-0.019754700000,-2.096750000000,0.003142000000,2.914640000000,1.304570000000,-0.000156127000,-0.000640780000,-0.000125859000,0.000402989000,0.000407045000,-0.000228338000,-0.000660392000,0.294732000000,-0.954927000000,0.035304700000,0.000000000000,-0.951339000000,-0.296701000000,-0.083206000000,0.000000000000,0.089930600000,-0.009063160000,-0.995907000000,0.000000000000,0.567009000000,0.017444700000,0.076003000000,1.000000000000,-0.017444700000,0.567009000000,0.000000000000,0.000000000000,0.000000000000,1.000000000000,-0.256652000000,-0.013306200000,-0.567151000000,-0.051775700000,0.998659000000,0.000000000000,-0.021875700000,0.593985000000,-0.007944850000,0.664732000000,0.034463200000,0.746287000000,0.437665000000,0.020109900000,0.295218000000,0.037043700000,-0.999227000000,0.013148300000,0.002100400000,-0.061626800000,0.000750496000,0.311593000000,-0.000951922000,-0.950215000000,0.098590200000,0.004544190000,0.097223000000,0.034060200000,-0.999346000000,0.012170100000,-0.000000000000,-0.000000000000,0.000000000000,0.089930600000,-0.009063160000,-0.995907000000,0.028963900000,0,0,0,600.000000000000,40.000000000000
1782249844.888988018036,0.758262711002,hold_measured_before,0.567008353380,0.567006865966,0.567008353383,-0.000001487420,0.007231740000,0.051293200000,0.006977510000,0.048707800000,-0.011066500000,0.049277800000,0.010991000000,-0.019827000000,0.006320240000,-0.019031900000,0.000000602975,-0.000000980697,0.000000627657,-0.000002363770,-0.000000133132,0.000000022930,0.000000010238,0.050921600000,-0.011037800000,0.047629900000,0.010991400000,-0.015359800000,0.006315720000,-0.022307300000,0.050921600000,-0.011037800000,0.047629900000,0.010991400000,-0.015359800000,0.006315720000,-0.022307300000,0.050921600000,-0.011037800000,0.047629900000,0.010991400000,-0.015359800000,0.006315720000,-0.022307300000,0.051796700000,0.728331000000,-0.019750400000,-2.096760000000,0.003141990000,2.914640000000,1.304570000000,-0.000693780000,0.000051916100,-0.001475040000,-0.000411745000,0.000461711000,-0.000104397000,0.000248604000,0.294736000000,-0.954926000000,0.035300800000,0.000000000000,-0.951338000000,-0.296704000000,-0.083201600000,0.000000000000,0.089925300000,-0.009060470000,-0.995907000000,0.000000000000,0.567007000000,0.017446000000,0.076001700000,1.000000000000,-0.017446000000,0.567007000000,0.000000000000,0.000000000000,0.000000000000,1.000000000000,-0.256654000000,-0.013305700000,-0.567150000000,-0.051773600000,0.998659000000,0.000000000000,-0.021876300000,0.593985000000,-0.007943170000,0.664732000000,0.034461800000,0.746287000000,0.437667000000,0.020109600000,0.295217000000,0.037044700000,-0.999227000000,0.013145500000,0.002100450000,-0.061626600000,0.000750320000,0.311589000000,-0.000949067000,-0.950216000000,0.098590700000,0.004544030000,0.097222500000,0.034061300000,-0.999346000000,0.012167300000,0.000000000000,0.000000000000,-0.000000000000,0.089925300000,-0.009060470000,-0.995907000000,0.076666100000,0,0,0,600.000000000000,40.000000000000
1782249844.909359216690,0.778634397997,hold_measured_before,0.567008353380,0.567009275569,0.567008353382,-0.000000599281,-0.022256200000,-0.014998000000,-0.018330400000,-0.001718070000,0.022453700000,-0.004430980000,-0.021493900000,-0.005754660000,-0.010086500000,-0.006580340000,-0.000000280811,-0.000001807570,-0.000000282397,-0.000000001545,0.000000029955,0.000000126186,0.000000003101,0.004245630000,0.022531900000,-0.008873740000,-0.021486400000,0.006283940000,-0.010098600000,-0.015407100000,0.004245630000,0.022531900000,-0.008873740000,-0.021486400000,0.006283940000,-0.010098600000,-0.015407100000,0.004245630000,0.022531900000,-0.008873740000,-0.021486400000,0.006283940000,-0.010098600000,-0.015407100000,0.051796700000,0.728333000000,-0.019748600000,-2.096750000000,0.003136410000,2.914640000000,1.304570000000,-0.000171230000,-0.000327992000,0.000541804000,0.001324830000,-0.001242150000,-0.000883886000,0.002257460000,0.294740000000,-0.954925000000,0.035301500000,0.000000000000,-0.951337000000,-0.296708000000,-0.083203200000,0.000000000000,0.089927100000,-0.009060380000,-0.995907000000,0.000000000000,0.567008000000,0.017447400000,0.076001500000,1.000000000000,-0.017447400000,0.567008000000,0.000000000000,0.000000000000,0.000000000000,1.000000000000,-0.256654000000,-0.013305700000,-0.567151000000,-0.051773600000,0.998659000000,0.000000000000,-0.021877400000,0.593985000000,-0.007942260000,0.664734000000,0.034461900000,0.746285000000,0.437666000000,0.020109800000,0.295217000000,0.037046100000,-0.999227000000,0.013144400000,0.002100870000,-0.061626600000,0.000750357000,0.311590000000,-0.000947501000,-0.950216000000,0.098590500000,0.004544740000,0.097222700000,0.034067900000,-0.999345000000,0.012167900000,0.000000000000,-0.000000000000,0.000000000000,0.089927100000,-0.009060380000,-0.995907000000,0.038012700000,0,0,0,600.000000000000,40.000000000000
1782249844.929383993149,0.798661494002,hold_measured_before,0.567008353380,0.567009275569,0.567008353380,0.000000922188,-0.034707700000,-0.017393200000,-0.020313900000,-0.003157960000,0.039148200000,-0.008574240000,-0.039859000000,-0.006863350000,-0.023786400000,-0.006825550000,-0.000000037492,-0.000002484920,0.000000075049,-0.000000067642,0.000000030549,0.000000169959,0.000000003710,-0.001421560000,0.039169000000,-0.009867610000,-0.039856900000,-0.003358230000,-0.023789700000,-0.009395510000,-0.001421560000,0.039169000000,-0.009867610000,-0.039856900000,-0.003358230000,-0.023789700000,-0.009395510000,-0.001421560000,0.039169000000,-0.009867610000,-0.039856900000,-0.003358230000,-0.023789700000,-0.009395510000,0.051797800000,0.728332000000,-0.019748600000,-2.096750000000,0.003139570000,2.914640000000,1.304570000000,-0.000181502000,0.000210514000,0.000791737000,0.001989780000,0.000416298000,0.000510301000,0.000845283000,0.294741000000,-0.954925000000,0.035302300000,0.000000000000,-0.951336000000,-0.296710000000,-0.083208600000,0.000000000000,0.089932500000,-0.009059360000,-0.995907000000,0.000000000000,0.567009000000,0.017447900000,0.076003100000,1.000000000000,-0.017447900000,0.567009000000,0.000000000000,0.000000000000,0.000000000000,1.000000000000,-0.256652000000,-0.013305900000,-0.567152000000,-0.051774600000,0.998659000000,0.000000000000,-0.021877900000,0.593985000000,-0.007942380000,0.664733000000,0.034462500000,0.746286000000,0.437665000000,0.020110200000,0.295219000000,0.037047100000,-0.999227000000,0.013144300000,0.002100750000,-0.061626900000,0.000750297000,0.311594000000,-0.000947025000,-0.950215000000,0.098590000000,0.004544440000,0.097223200000,0.034065900000,-0.999346000000,0.012166900000,-0.000000000000,0.000000000000,0.000000000000,0.089932500000,-0.009059360000,-0.995907000000,0.062351200000,0,0,0,600.000000000000,40.000000000000
1782249844.950282573700,0.819557714000,hold_measured_before,0.567008353380,0.567007421826,0.567008353380,0.000000351773,-0.004714430000,0.031756200000,0.006123790000,0.022183900000,-0.004723210000,0.028180600000,0.002336640000,-0.002918000000,0.002196460000,-0.003217850000,-0.000000330652,-0.000000923582,-0.000000353959,-0.000000718162,-0.000000042058,0.000000032798,0.000000002479,0.023212600000,-0.004710330000,0.027413700000,0.002337230000,-0.000840925000,0.002194380000,-0.004740800000,0.023212600000,-0.004710330000,0.027413700000,0.002337230000,-0.000840925000,0.002194380000,-0.004740800000,0.023212600000,-0.004710330000,0.027413700000,0.002337230000,-0.000840925000,0.002194380000,-0.004740800000,0.051801300000,0.728332000000,-0.019754600000,-2.096750000000,0.003141080000,2.914630000000,1.304570000000,-0.000083108400,0.000490805000,-0.001392330000,0.000539410000,-0.000793623000,-0.000281706000,0.000165777000,0.294735000000,-0.954927000000,0.035304000000,0.000000000000,-0.951338000000,-0.296704000000,-0.083202600000,0.000000000000,0.089927200000,-0.009063280000,-0.995907000000,0.000000000000,0.567009000000,0.017446200000,0.076002200000,1.000000000000,-0.017446200000,0.567009000000,0.000000000000,0.000000000000,0.000000000000,1.000000000000,-0.256653000000,-0.013306900000,-0.567151000000,-0.051778100000,0.998659000000,0.000000000000,-0.021877200000,0.593985000000,-0.007944820000,0.664733000000,0.034464900000,0.746285000000,0.437666000000,0.020111000000,0.295218000000,0.037046200000,-0.999227000000,0.013148300000,0.002100590000,-0.061626300000,0.000750508000,0.311593000000,-0.000951147000,-0.950215000000,0.098590500000,0.004544560000,0.097222700000,0.034063600000,-0.999346000000,0.012170400000,-0.000000000000,0.000000000000,0.000000000000,0.089927200000,-0.009063280000,-0.995907000000,0.036687600000,0,0,0,600.000000000000,40.000000000000
1782249844.970397710800,0.839675511001,hold_measured_before,0.567008353380,0.567006500207,0.567008353380,-0.000000931554,0.013375600000,-0.043304600000,-0.001322980000,-0.044501100000,0.003763350000,-0.046656700000,-0.001403560000,0.018551300000,-0.004956700000,0.018755300000,-0.000001532570,-0.000001273150,-0.000001510730,-0.000001399810,0.000000011629,0.000000041210,0.000000002440,-0.048723500000,0.003705480000,-0.043514200000,-0.001410310000,0.010031200000,-0.004948000000,0.025002300000,-0.048723500000,0.003705480000,-0.043514200000,-0.001410310000,0.010031200000,-0.004948000000,0.025002300000,-0.048723500000,0.003705480000,-0.043514200000,-0.001410310000,0.010031200000,-0.004948000000,0.025002300000,0.051798400000,0.728331000000,-0.019747300000,-2.096750000000,0.003142150000,2.914640000000,1.304570000000,0.000311462000,-0.000532072000,0.001519660000,-0.001302040000,0.000849360000,0.001519270000,-0.001799190000,0.294741000000,-0.954925000000,0.035299800000,0.000000000000,-0.951336000000,-0.296709000000,-0.083205700000,0.000000000000,0.089929000000,-0.009057860000,-0.995907000000,0.000000000000,0.567007000000,0.017448800000,0.076002000000,1.000000000000,-0.017448800000,0.567007000000,0.000000000000,0.000000000000,0.000000000000,1.000000000000,-0.256653000000,-0.013306100000,-0.567150000000,-0.051775300000,0.998659000000,0.000000000000,-0.021878700000,0.593985000000,-0.007941940000,0.664732000000,0.034462900000,0.746286000000,0.437666000000,0.020110700000,0.295217000000,0.037048800000,-0.999227000000,0.013143400000,0.002100710000,-0.061627000000,0.000750193000,0.311590000000,-0.000945800000,-0.950216000000,0.098590400000,0.004544200000,0.097222900000,0.034065200000,-0.999346000000,0.012165200000,0.000000000000,-0.000000000000,-0.000000000000,0.089929000000,-0.009057860000,-0.995907000000,0.070946500000,0,0,0,600.000000000000,40.000000000000
1782249844.990454673767,0.859731694996,hold_measured_before,0.567008353380,0.567009923569,0.567008353380,-0.000001853170,0.021031900000,0.016602400000,0.021397500000,0.002545090000,-0.036185800000,0.006984410000,0.034140400000,0.006747510000,0.022508000000,0.007077280000,0.000000457887,-0.000000628565,0.000000495068,-0.000000608122,-0.000000041154,0.000000033574,0.000000003872,0.003529730000,-0.036173300000,0.006251800000,0.034141000000,0.008734080000,0.022506000000,0.005620690000,0.003529730000,-0.036173300000,0.006251800000,0.034141000000,0.008734080000,0.022506000000,0.005620690000,0.003529730000,-0.036173300000,0.006251800000,0.034141000000,0.008734080000,0.022506000000,0.005620690000,0.051798600000,0.728331000000,-0.019751100000,-2.096760000000,0.003138240000,2.914640000000,1.304570000000,-0.000351282000,0.000318382000,-0.000432318000,-0.000705280000,-0.000444730000,-0.001240090000,-0.001056960000,0.294742000000,-0.954924000000,0.035302100000,0.000000000000,-0.951336000000,-0.296711000000,-0.083199700000,0.000000000000,0.089923900000,-0.009061700000,-0.995907000000,0.000000000000,0.567007000000,0.017446800000,0.076001500000,1.000000000000,-0.017446800000,0.567007000000,0.000000000000,0.000000000000,0.000000000000,1.000000000000,-0.256654000000,-0.013306200000,-0.567149000000,-0.051775400000,0.998659000000,0.000000000000,-0.021877300000,0.593984000000,-0.007943280000,0.664732000000,0.034463000000,0.746287000000,0.437667000000,0.020110300000,0.295216000000,0.037046000000,-0.999227000000,0.013146000000,0.002100750000,-0.061626500000,0.000750420000,0.311589000000,-0.000949121000,-0.950217000000,0.098590800000,0.004544670000,0.097222400000,0.034066100000,-0.999345000000,0.012168900000,-0.000000000000,0.000000000000,-0.000000000000,0.089923900000,-0.009061700000,-0.995907000000,0.056036200000,0,0,0,600.000000000000,40.000000000000
1782249845.010520458221,0.879795642002,hold_measured_before,0.567008353380,0.567008207077,0.567008353380,-0.000000146302,-0.000887750000,-0.012038900000,0.011338100000,-0.031719800000,-0.015715300000,-0.022502100000,0.011986900000,0.026129500000,0.010239600000,0.025383900000,0.000000564230,0.000000089281,0.000000314392,-0.000000435798,-0.000000025883,-0.000000026128,0.000000002678,-0.037818200000,-0.015797100000,-0.017958800000,0.011978700000,0.013818500000,0.010252100000,0.034410400000,-0.037818200000,-0.015797100000,-0.017958800000,0.011978700000,0.013818500000,0.010252100000,0.034410400000,-0.037818200000,-0.015797100000,-0.017958800000,0.011978700000,0.013818500000,0.010252100000,0.034410400000,0.051801300000,0.728331000000,-0.019752500000,-2.096750000000,0.003140770000,2.914640000000,1.304570000000,0.000823762000,0.000646011000,-0.000416198000,0.000731402000,-0.000546402000,-0.001252720000,-0.002058190000,0.294743000000,-0.954924000000,0.035303800000,0.000000000000,-0.951336000000,-0.296711000000,-0.083205000000,0.000000000000,0.089929600000,-0.009061710000,-0.995907000000,0.000000000000,0.567008000000,0.017447400000,0.076002400000,1.000000000000,-0.017447400000,0.567008000000,0.000000000000,0.000000000000,0.000000000000,1.000000000000,-0.256653000000,-0.013306800000,-0.567151000000,-0.051778100000,0.998659000000,0.000000000000,-0.021878200000,0.593985000000,-0.007943950000,0.664732000000,0.034464800000,0.746286000000,0.437666000000,0.020111300000,0.295218000000,0.037047700000,-0.999227000000,0.013146900000,0.002100720000,-0.061626800000,0.000750432000,0.311592000000,-0.000949367000,-0.950216000000,0.098590300000,0.004544600000,0.097222900000,0.034065400000,-0.999346000000,0.012169100000,0.000000000000,0.000000000000,-0.000000000000,0.089929600000,-0.009061710000,-0.995907000000,0.060215400000,0,0,0,600.000000000000,40.000000000000
1782249845.031337738037,0.900612448997,hold_measured_before,0.567008353380,0.567007647002,0.567008353380,-0.000000146302,-0.000887750000,-0.012038900000,0.011338100000,-0.031719800000,-0.015715300000,-0.022502100000,0.011986900000,0.026129500000,0.010239600000,0.025383900000,0.000000564230,0.000000089281,0.000000314392,-0.000000435798,-0.000000025883,-0.000000026128,0.000000002678,-0.037818200000,-0.015797100000,-0.017958800000,0.011978700000,0.013818500000,0.010252100000,0.034410400000,-0.037818200000,-0.015797100000,-0.017958800000,0.011978700000,0.013818500000,0.010252100000,0.034410400000,-0.037818200000,-0.015797100000,-0.017958800000,0.011978700000,0.013818500000,0.010252100000,0.034410400000,0.051801300000,0.728331000000,-0.019752500000,-2.096750000000,0.003140770000,2.914640000000,1.304570000000,0.000823762000,0.000646011000,-0.000416198000,0.000731402000,-0.000546402000,-0.001252720000,-0.002058190000,0.294743000000,-0.954924000000,0.035303800000,0.000000000000,-0.951336000000,-0.296711000000,-0.083205000000,0.000000000000,0.089929600000,-0.009061710000,-0.995907000000,0.000000000000,0.567008000000,0.017447400000,0.076002400000,1.000000000000,-0.017447400000,0.567008000000,0.000000000000,0.000000000000,0.000000000000,1.000000000000,-0.256653000000,-0.013306800000,-0.567151000000,-0.051778100000,0.998659000000,0.000000000000,-0.021878200000,0.593985000000,-0.007943950000,0.664732000000,0.034464800000,0.746286000000,0.437666000000,0.020111300000,0.295218000000,0.037047700000,-0.999227000000,0.013146900000,0.002100720000,-0.061626800000,0.000750432000,0.311592000000,-0.000949367000,-0.950216000000,0.098590300000,0.004544600000,0.097222900000,0.034065400000,-0.999346000000,0.012169100000,0.000000000000,0.000000000000,-0.000000000000,0.089929600000,-0.009061710000,-0.995907000000,0.060215400000,0,0,0,600.000000000000,40.000000000000
1782249845.052219390869,0.921495297996,hold_measured_before,0.567008353380,0.567007647002,0.567008353380,-0.000000706377,0.009899800000,0.023138600000,-0.000387616000,0.023460000000,-0.009851940000,0.023503000000,0.011996500000,-0.010277500000,0.008336200000,-0.010085400000,0.000000184399,-0.000000446396,0.000000231345,-0.000000388904,-0.000000010762,0.000000033320,0.000000002125,0.021953700000,-0.009872590000,0.024625400000,0.011994200000,-0.013318300000,0.008339320000,-0.007855850000,0.021953700000,-0.009872590000,0.024625400000,0.011994200000,-0.013318300000,0.008339320000,-0.007855850000,0.021953700000,-0.009872590000,0.024625400000,0.011994200000,-0.013318300000,0.008339320000,-0.007855850000,0.051796900000,0.728328000000,-0.019751200000,-2.096760000000,0.003141240000,2.914640000000,1.304570000000,0.000002974990,-0.000508160000,-0.000928220000,-0.000734796000,0.000610817000,-0.000682231000,0.000036900700,0.294733000000,-0.954927000000,0.035302200000,0.000000000000,-0.951339000000,-0.296701000000,-0.083205100000,0.000000000000,0.089929000000,-0.009061060000,-0.995907000000,0.000000000000,0.567008000000,0.017445600000,0.076003200000,1.000000000000,-0.017445600000,0.567008000000,0.000000000000,0.000000000000,0.000000000000,1.000000000000,-0.256652000000,-0.013305700000,-0.567150000000,-0.051773700000,0.998659000000,0.000000000000,-0.021876000000,0.593985000000,-0.007943440000,0.664730000000,0.034461800000,0.746288000000,0.437666000000,0.020109500000,0.295218000000,0.037044200000,-0.999227000000,0.013146000000,0.002100470000,-0.061626700000,0.000750368000,0.311592000000,-0.000949626000,-0.950216000000,0.098590400000,0.004544120000,0.097222900000,0.034061400000,-0.999346000000,0.012168000000,-0.000000000000,-0.000000000000,-0.000000000000,0.089929000000,-0.009061060000,-0.995907000000,0.040476400000,0,0,0,600.000000000000,40.000000000000
1782249845.073106765747,0.942381624001,hold_measured_before,0.567008353380,0.567006332917,0.567008353380,-0.000002020460,0.031996900000,-0.008351810000,0.027867300000,-0.012775600000,-0.039332500000,-0.008922810000,0.037331700000,0.009164430000,0.021090200000,0.008004040000,-0.000000746078,-0.000002225740,-0.000000644013,-0.000000329244,0.000000034006,0.000000123229,0.000000003886,-0.010375600000,-0.039302500000,-0.010711700000,0.037334400000,0.014010500000,0.021085400000,0.004450880000,-0.010375600000,-0.039302500000,-0.010711700000,0.037334400000,0.014010500000,0.021085400000,0.004450880000,-0.010375600000,-0.039302500000,-0.010711700000,0.037334400000,0.014010500000,0.021085400000,0.004450880000,0.051800700000,0.728333000000,-0.019754500000,-2.096760000000,0.003138490000,2.914640000000,1.304570000000,0.000274190000,0.000349338000,-0.000069084300,-0.001535090000,-0.001704830000,-0.000012616300,0.000916191000,0.294738000000,-0.954926000000,0.035304300000,0.000000000000,-0.951337000000,-0.296707000000,-0.083200600000,0.000000000000,0.089925400000,-0.009063930000,-0.995907000000,0.000000000000,0.567006000000,0.017446000000,0.076000500000,1.000000000000,-0.017446000000,0.567006000000,0.000000000000,0.000000000000,0.000000000000,1.000000000000,-0.256655000000,-0.013306800000,-0.567149000000,-0.051777500000,0.998659000000,0.000000000000,-0.021877000000,0.593985000000,-0.007944670000,0.664734000000,0.034464500000,0.746285000000,0.437667000000,0.020110800000,0.295216000000,0.037045700000,-0.999227000000,0.013148300000,0.002100730000,-0.061626900000,0.000750563000,0.311587000000,-0.000951518000,-0.950217000000,0.098590700000,0.004544830000,0.097222500000,0.034065500000,-0.999345000000,0.012171200000,-0.000000000000,-0.000000000000,-0.000000000000,0.089925400000,-0.009063930000,-0.995907000000,0.061819400000,0,0,0,600.000000000000,40.000000000000
1782249845.093336105347,0.962611010997,hold_measured_before,0.567008353380,0.567008973034,0.567008353380,-0.000001255510,0.015169600000,0.002493040000,0.025816000000,-0.010194500000,-0.035823300000,-0.008298460000,0.031430600000,0.010607900000,0.021150700000,0.011429200000,0.000000200609,-0.000000255378,0.000000383756,-0.000000565416,-0.000000059584,0.000000018543,0.000000003511,-0.008912740000,-0.035806300000,-0.009252680000,0.031431700000,0.013194700000,0.021148100000,0.009532510000,-0.008912740000,-0.035806300000,-0.009252680000,0.031431700000,0.013194700000,0.021148100000,0.009532510000,-0.008912740000,-0.035806300000,-0.009252680000,0.031431700000,0.013194700000,0.021148100000,0.009532510000,0.051796700000,0.728331000000,-0.019751400000,-2.096750000000,0.003141990000,2.914640000000,1.304570000000,-0.000559330000,0.000847542000,0.000425489000,-0.000053141200,-0.000056338500,-0.001216710000,-0.001603400000,0.294738000000,-0.954926000000,0.035301400000,0.000000000000,-0.951337000000,-0.296706000000,-0.083200500000,0.000000000000,0.089924500000,-0.009061220000,-0.995907000000,0.000000000000,0.567007000000,0.017445400000,0.076001500000,1.000000000000,-0.017445400000,0.567007000000,0.000000000000,0.000000000000,0.000000000000,1.000000000000,-0.256654000000,-0.013305700000,-0.567150000000,-0.051773600000,0.998659000000,0.000000000000,-0.021875900000,0.593985000000,-0.007943560000,0.664733000000,0.034461800000,0.746286000000,0.437667000000,0.020109400000,0.295217000000,0.037044000000,-0.999227000000,0.013146200000,0.002100400000,-0.061626400000,0.000750359000,0.311590000000,-0.000949896000,-0.950216000000,0.098590800000,0.004544030000,0.097222400000,0.034060500000,-0.999346000000,0.012168000000,-0.000000000000,0.000000000000,0.000000000000,0.089924500000,-0.009061220000,-0.995907000000,0.056100800000,0,0,0,600.000000000000,40.000000000000
1782249845.113534450531,0.982810818998,hold_measured_before,0.567008353380,0.567008193538,0.567008353380,0.000000619655,-0.026383300000,-0.006470050000,-0.050844400000,-0.015333900000,0.061948400000,-0.008959810000,-0.053161600000,0.012758400000,-0.034048400000,0.012112500000,0.000000434939,-0.000000751795,0.000001123320,-0.000002581260,-0.000000193758,0.000000068131,0.000000012913,-0.022246000000,0.061855000000,-0.003809670000,-0.053172900000,-0.001195050000,-0.034034100000,0.022343100000,-0.022246000000,0.061855000000,-0.003809670000,-0.053172900000,-0.001195050000,-0.034034100000,0.022343100000,-0.022246000000,0.061855000000,-0.003809670000,-0.053172900000,-0.001195050000,-0.034034100000,0.022343100000,0.051799800000,0.728329000000,-0.019748700000,-2.096750000000,0.003140370000,2.914640000000,1.304570000000,0.000887737000,-0.001974900000,-0.000725733000,0.000037960600,0.000211252000,0.001277820000,-0.001329960000,0.294740000000,-0.954925000000,0.035302100000,0.000000000000,-0.951336000000,-0.296708000000,-0.083209800000,0.000000000000,0.089933500000,-0.009058980000,-0.995907000000,0.000000000000,0.567009000000,0.017448900000,0.076004000000,1.000000000000,-0.017448900000,0.567009000000,0.000000000000,0.000000000000,0.000000000000,1.000000000000,-0.256651000000,-0.013306400000,-0.567152000000,-0.051776700000,0.998659000000,0.000000000000,-0.021879000000,0.593985000000,-0.007942420000,0.664731000000,0.034463800000,0.746288000000,0.437665000000,0.020111100000,0.295219000000,0.037049100000,-0.999227000000,0.013144300000,0.002100830000,-0.061627000000,0.000750284000,0.311594000000,-0.000946410000,-0.950215000000,0.098589900000,0.004544530000,0.097223300000,0.034067100000,-0.999345000000,0.012166600000,0.000000000000,0.000000000000,-0.000000000000,0.089933500000,-0.009058980000,-0.995907000000,0.093924200000,0,0,0,600.000000000000,40.000000000000
1782249845.134624719620,1.003899600997,hold_measured_before,0.567008353380,0.567008770326,0.567008353380,0.000000416947,-0.016050000000,-0.037488000000,-0.010974100000,-0.043832900000,0.022003500000,-0.046162100000,-0.022316700000,0.020396000000,-0.014062900000,0.021633800000,-0.000000657861,-0.000005055800,-0.000000531646,0.000001448610,0.000000092190,0.000000365559,0.000000000158,-0.040238400000,0.022046600000,-0.048840600000,-0.022310700000,0.027653200000,-0.014069900000,0.016312900000,-0.040238400000,0.022046600000,-0.048840600000,-0.022310700000,0.027653200000,-0.014069900000,0.016312900000,-0.040238400000,0.022046600000,-0.048840600000,-0.022310700000,0.027653200000,-0.014069900000,0.016312900000,0.051795000000,0.728331000000,-0.019746600000,-2.096750000000,0.003141010000,2.914640000000,1.304570000000,-0.000902290000,0.000017207000,0.002329920000,0.000863590000,0.000031036000,0.000574211000,-0.002009980000,0.294740000000,-0.954925000000,0.035300500000,0.000000000000,-0.951336000000,-0.296708000000,-0.083208500000,0.000000000000,0.089931800000,-0.009057810000,-0.995907000000,0.000000000000,0.567009000000,0.017447400000,0.076002800000,1.000000000000,-0.017447400000,0.567009000000,0.000000000000,0.000000000000,0.000000000000,1.000000000000,-0.256653000000,-0.013305200000,-0.567152000000,-0.051771900000,0.998659000000,0.000000000000,-0.021877100000,0.593985000000,-0.007941630000,0.664733000000,0.034460700000,0.746286000000,0.437665000000,0.020109300000,0.295219000000,0.037045900000,-0.999227000000,0.013143000000,0.002100600000,-0.061627000000,0.000750187000,0.311593000000,-0.000946155000,-0.950215000000,0.098590100000,0.004544010000,0.097223200000,0.034063400000,-0.999346000000,0.012165100000,0.000000000000,0.000000000000,-0.000000000000,0.089931800000,-0.009057810000,-0.995907000000,0.078848700000,0,0,0,600.000000000000,40.000000000000
1782249845.154339790344,1.023614475998,hold_measured_before,0.567008353380,0.567007715245,0.567008353380,0.000000416947,-0.016050000000,-0.037488000000,-0.010974100000,-0.043832900000,0.022003500000,-0.046162100000,-0.022316700000,0.020396000000,-0.014062900000,0.021633800000,-0.000000657861,-0.000005055800,-0.000000531646,0.000001448610,0.000000092190,0.000000365559,0.000000000158,-0.040238400000,0.022046600000,-0.048840600000,-0.022310700000,0.027653200000,-0.014069900000,0.016312900000,-0.040238400000,0.022046600000,-0.048840600000,-0.022310700000,0.027653200000,-0.014069900000,0.016312900000,-0.040238400000,0.022046600000,-0.048840600000,-0.022310700000,0.027653200000,-0.014069900000,0.016312900000,0.051795000000,0.728331000000,-0.019746600000,-2.096750000000,0.003141010000,2.914640000000,1.304570000000,-0.000902290000,0.000017207000,0.002329920000,0.000863590000,0.000031036000,0.000574211000,-0.002009980000,0.294740000000,-0.954925000000,0.035300500000,0.000000000000,-0.951336000000,-0.296708000000,-0.083208500000,0.000000000000,0.089931800000,-0.009057810000,-0.995907000000,0.000000000000,0.567009000000,0.017447400000,0.076002800000,1.000000000000,-0.017447400000,0.567009000000,0.000000000000,0.000000000000,0.000000000000,1.000000000000,-0.256653000000,-0.013305200000,-0.567152000000,-0.051771900000,0.998659000000,0.000000000000,-0.021877100000,0.593985000000,-0.007941630000,0.664733000000,0.034460700000,0.746286000000,0.437665000000,0.020109300000,0.295219000000,0.037045900000,-0.999227000000,0.013143000000,0.002100600000,-0.061627000000,0.000750187000,0.311593000000,-0.000946155000,-0.950215000000,0.098590100000,0.004544010000,0.097223200000,0.034063400000,-0.999346000000,0.012165100000,0.000000000000,0.000000000000,-0.000000000000,0.089931800000,-0.009057810000,-0.995907000000,0.078848700000,0,0,0,600.000000000000,40.000000000000
1782249845.175338506699,1.044614029001,hold_measured_before,0.567008353380,0.567008587104,0.567008353380,-0.000000638135,-0.011668400000,-0.028596200000,-0.038034900000,-0.026289900000,0.037134700000,-0.026889300000,-0.029169500000,0.009964600000,-0.017214200000,0.009695700000,-0.000000074491,0.000000025664,-0.000000203848,-0.000002404420,-0.000000151716,0.000000002402,0.000000007779,-0.024418400000,0.037159800000,-0.028283600000,-0.029169500000,0.013742200000,-0.017218000000,0.006925790000,-0.024418400000,0.037159800000,-0.028283600000,-0.029169500000,0.013742200000,-0.017218000000,0.006925790000,-0.024418400000,0.037159800000,-0.028283600000,-0.029169500000,0.013742200000,-0.017218000000,0.006925790000,0.051798400000,0.728327000000,-0.019749700000,-2.096760000000,0.003141130000,2.914640000000,1.304570000000,-0.000022977600,-0.001858640000,0.001051350000,-0.000353358000,-0.000617803000,0.000028506500,0.000080488800,0.294736000000,-0.954926000000,0.035301700000,0.000000000000,-0.951337000000,-0.296705000000,-0.083207000000,0.000000000000,0.089930800000,-0.009059720000,-0.995907000000,0.000000000000,0.567008000000,0.017447500000,0.076003800000,1.000000000000,-0.017447500000,0.567008000000,0.000000000000,0.000000000000,0.000000000000,1.000000000000,-0.256651000000,-0.013306100000,-0.567151000000,-0.051775300000,0.998659000000,0.000000000000,-0.021877700000,0.593985000000,-0.007942810000,0.664729000000,0.034462800000,0.746289000000,0.437665000000,0.020110300000,0.295218000000,0.037046900000,-0.999227000000,0.013145000000,0.002100650000,-0.061626900000,0.000750307000,0.311592000000,-0.000947745000,-0.950215000000,0.098590200000,0.004544290000,0.097223100000,0.034064300000,-0.999346000000,0.012167000000,-0.000000000000,-0.000000000000,0.000000000000,0.089930800000,-0.009059720000,-0.995907000000,0.064507400000,0,0,0,600.000000000000,40.000000000000
