WindOilSpirit/serl/Code/spacemouse_franka_teleop_test/debug_output/fixed_offset_k2000.csv
time_unix_s,time_since_start_s,phase,target_x,measured_x,limited_reference_x,position_error_x,cartesian_force_x,cartesian_force_y,cartesian_force_z,tau_task_1,tau_task_2,tau_task_3,tau_task_4,tau_task_5,tau_task_6,tau_task_7,coriolis_1,coriolis_2,coriolis_3,coriolis_4,coriolis_5,coriolis_6,coriolis_7,tau_before_saturation_1,tau_before_saturation_2,tau_before_saturation_3,tau_before_saturation_4,tau_before_saturation_5,tau_before_saturation_6,tau_before_saturation_7,tau_after_saturation_1,tau_after_saturation_2,tau_after_saturation_3,tau_after_saturation_4,tau_after_saturation_5,tau_after_saturation_6,tau_after_saturation_7,tau_command_1,tau_command_2,tau_command_3,tau_command_4,tau_command_5,tau_command_6,tau_command_7,q_1,q_2,q_3,q_4,q_5,q_6,q_7,dq_1,dq_2,dq_3,dq_4,dq_5,dq_6,dq_7,O_T_EE_0,O_T_EE_1,O_T_EE_2,O_T_EE_3,O_T_EE_4,O_T_EE_5,O_T_EE_6,O_T_EE_7,O_T_EE_8,O_T_EE_9,O_T_EE_10,O_T_EE_11,O_T_EE_12,O_T_EE_13,O_T_EE_14,O_T_EE_15,zero_jacobian_0,zero_jacobian_1,zero_jacobian_2,zero_jacobian_3,zero_jacobian_4,zero_jacobian_5,zero_jacobian_6,zero_jacobian_7,zero_jacobian_8,zero_jacobian_9,zero_jacobian_10,zero_jacobian_11,zero_jacobian_12,zero_jacobian_13,zero_jacobian_14,zero_jacobian_15,zero_jacobian_16,zero_jacobian_17,zero_jacobian_18,zero_jacobian_19,zero_jacobian_20,zero_jacobian_21,zero_jacobian_22,zero_jacobian_23,zero_jacobian_24,zero_jacobian_25,zero_jacobian_26,zero_jacobian_27,zero_jacobian_28,zero_jacobian_29,zero_jacobian_30,zero_jacobian_31,zero_jacobian_32,zero_jacobian_33,zero_jacobian_34,zero_jacobian_35,zero_jacobian_36,zero_jacobian_37,zero_jacobian_38,zero_jacobian_39,zero_jacobian_40,zero_jacobian_41,commanded_torque_norm,tau_rate_limited,torque_rate_limited,reference_clipped,translational_stiffness,translational_damping
1782250302.185514926910,0.000424555001,hold_measured_before,0.566976140491,0.566976140491,0.566986516930,-0.000010376400,0.028099000000,-0.004422830000,0.058363300000,-0.005502790000,-0.055750700000,-0.008171210000,0.044954800000,0.001807390000,0.023955800000,0.002359100000,0.000000306051,0.000000275495,0.000000277362,-0.000000592919,-0.000000062491,-0.000000032616,0.000000002441,-0.009092930000,-0.055798600000,-0.005496800000,0.044949700000,-0.005441340000,0.023963100000,0.007673890000,-0.009092930000,-0.055798600000,-0.005496800000,0.044949700000,-0.005441340000,0.023963100000,0.007673890000,-0.009092930000,-0.055798600000,-0.005496800000,0.044949700000,-0.005441340000,0.023963100000,0.007673890000,0.051800900000,0.728481000000,-0.019749100000,-2.096740000000,0.003144370000,2.914640000000,1.304570000000,0.000167197000,0.000630223000,0.000324782000,0.000311355000,0.001078740000,-0.001525090000,-0.000942357000,0.294744000000,-0.954925000000,0.035267300000,0.000000000000,-0.951348000000,-0.296708000000,-0.083075000000,0.000000000000,0.089794500000,-0.009065620000,-0.995919000000,0.000000000000,0.566976000000,0.017447300000,0.075921800000,1.000000000000,-0.017447300000,0.566976000000,0.000000000000,0.000000000000,0.000000000000,1.000000000000,-0.256733000000,-0.013310900000,-0.567119000000,-0.051777700000,0.998659000000,0.000000000000,-0.021880500000,0.593987000000,-0.007944110000,0.664844000000,0.034470400000,0.746186000000,0.437705000000,0.020113800000,0.295159000000,0.037051900000,-0.999227000000,0.013146800000,0.002100750000,-0.061626700000,0.000750382000,0.311464000000,-0.000953308000,-0.950258000000,0.098603500000,0.004544870000,0.097209600000,0.034066000000,-0.999346000000,0.012168300000,-0.000000000000,0.000000000000,0.000000000000,0.089794500000,-0.009065620000,-0.995919000000,0.076873800000,0,0,0,2000.000000000000,40.000000000000
1782250302.205693006516,0.020603445002,hold_measured_before,0.566976140491,0.566975664618,0.566983067885,-0.000010376400,0.028099000000,-0.004422830000,0.058363300000,-0.005502790000,-0.055750700000,-0.008171210000,0.044954800000,0.001807390000,0.023955800000,0.002359100000,0.000000306051,0.000000275495,0.000000277362,-0.000000592919,-0.000000062491,-0.000000032616,0.000000002441,-0.009092930000,-0.055798600000,-0.005496800000,0.044949700000,-0.005441340000,0.023963100000,0.007673890000,-0.009092930000,-0.055798600000,-0.005496800000,0.044949700000,-0.005441340000,0.023963100000,0.007673890000,-0.009092930000,-0.055798600000,-0.005496800000,0.044949700000,-0.005441340000,0.023963100000,0.007673890000,0.051800900000,0.728481000000,-0.019749100000,-2.096740000000,0.003144370000,2.914640000000,1.304570000000,0.000167197000,0.000630223000,0.000324782000,0.000311355000,0.001078740000,-0.001525090000,-0.000942357000,0.294744000000,-0.954925000000,0.035267300000,0.000000000000,-0.951348000000,-0.296708000000,-0.083075000000,0.000000000000,0.089794500000,-0.009065620000,-0.995919000000,0.000000000000,0.566976000000,0.017447300000,0.075921800000,1.000000000000,-0.017447300000,0.566976000000,0.000000000000,0.000000000000,0.000000000000,1.000000000000,-0.256733000000,-0.013310900000,-0.567119000000,-0.051777700000,0.998659000000,0.000000000000,-0.021880500000,0.593987000000,-0.007944110000,0.664844000000,0.034470400000,0.746186000000,0.437705000000,0.020113800000,0.295159000000,0.037051900000,-0.999227000000,0.013146800000,0.002100750000,-0.061626700000,0.000750382000,0.311464000000,-0.000953308000,-0.950258000000,0.098603500000,0.004544870000,0.097209600000,0.034066000000,-0.999346000000,0.012168300000,-0.000000000000,0.000000000000,0.000000000000,0.089794500000,-0.009065620000,-0.995919000000,0.076873800000,0,0,0,2000.000000000000,40.000000000000
1782250302.225656509399,0.040566615004,hold_measured_before,0.566976140491,0.566976673595,0.566980765274,-0.000007403270,0.024952300000,0.019725100000,0.044562200000,0.003427940000,-0.026393300000,0.007099530000,0.018790200000,0.006547150000,0.001200240000,0.007448390000,0.000000940719,-0.000000921714,0.000001063460,-0.000000533473,-0.000000112649,0.000000054783,0.000000004757,0.006870380000,-0.026348000000,0.004537400000,0.018794000000,0.013495000000,0.001193240000,0.002354050000,0.006870380000,-0.026348000000,0.004537400000,0.018794000000,0.013495000000,0.001193240000,0.002354050000,0.006870380000,-0.026348000000,0.004537400000,0.018794000000,0.013495000000,0.001193240000,0.002354050000,0.051797200000,0.728483000000,-0.019748600000,-2.096740000000,0.003137570000,2.914640000000,1.304570000000,-0.000667212000,0.000629274000,-0.000003367010,-0.000713339000,-0.000674828000,0.002128200000,-0.000919015000,0.294748000000,-0.954924000000,0.035269000000,0.000000000000,-0.951347000000,-0.296712000000,-0.083073900000,0.000000000000,0.089794000000,-0.009067220000,-0.995919000000,0.000000000000,0.566976000000,0.017445900000,0.075920600000,1.000000000000,-0.017445900000,0.566976000000,0.000000000000,0.000000000000,0.000000000000,1.000000000000,-0.256735000000,-0.013310000000,-0.567118000000,-0.051774000000,0.998659000000,0.000000000000,-0.021878800000,0.593987000000,-0.007943670000,0.664846000000,0.034467900000,0.746185000000,0.437706000000,0.020112200000,0.295158000000,0.037048500000,-0.999227000000,0.013146600000,0.002100950000,-0.061626900000,0.000750500000,0.311461000000,-0.000954216000,-0.950258000000,0.098603500000,0.004545360000,0.097209500000,0.034069100000,-0.999345000000,0.012170100000,-0.000000000000,0.000000000000,0.000000000000,0.089794000000,-0.009067220000,-0.995919000000,0.036115200000,0,0,0,2000.000000000000,40.000000000000
1782250302.246591567993,0.061501775002,hold_measured_before,0.566976140491,0.566976475647,0.566980765274,-0.000004091680,0.004673160000,-0.031211400000,0.026575600000,-0.026917900000,-0.015769000000,-0.028214100000,0.009110950000,0.009450200000,0.002771900000,0.008761250000,0.000000670234,0.000000221771,0.000000534092,-0.000001361410,-0.000000062202,-0.000000036306,0.000000004819,-0.029460800000,-0.015802900000,-0.026319200000,0.009106360000,0.004315080000,0.002777080000,0.012526300000,-0.029460800000,-0.015802900000,-0.026319200000,0.009106360000,0.004315080000,0.002777080000,0.012526300000,-0.029460800000,-0.015802900000,-0.026319200000,0.009106360000,0.004315080000,0.002777080000,0.012526300000,0.051801500000,0.728482000000,-0.019748600000,-2.096740000000,0.003141990000,2.914640000000,1.304570000000,0.000598685000,0.000686586000,0.000742549000,0.000641936000,-0.000028251100,0.000099377200,0.000052963000,0.294746000000,-0.954925000000,0.035267600000,0.000000000000,-0.951347000000,-0.296710000000,-0.083074900000,0.000000000000,0.089794600000,-0.009065790000,-0.995919000000,0.000000000000,0.566977000000,0.017448100000,0.075921700000,1.000000000000,-0.017448100000,0.566977000000,0.000000000000,0.000000000000,0.000000000000,1.000000000000,-0.256733000000,-0.013311100000,-0.567120000000,-0.051778300000,0.998659000000,0.000000000000,-0.021881200000,0.593987000000,-0.007943850000,0.664845000000,0.034470800000,0.746186000000,0.437705000000,0.020114100000,0.295159000000,0.037052800000,-0.999227000000,0.013146600000,0.002100940000,-0.061626500000,0.000750409000,0.311465000000,-0.000952701000,-0.950257000000,0.098603500000,0.004545240000,0.097209600000,0.034069200000,-0.999345000000,0.012168700000,0.000000000000,0.000000000000,-0.000000000000,0.089794600000,-0.009065790000,-0.995919000000,0.045569000000,0,0,0,2000.000000000000,40.000000000000
1782250302.267508268356,0.082420061000,hold_measured_before,0.566976140491,0.566976475647,0.566979166282,-0.000002690640,-0.006767060000,-0.011618200000,-0.023463300000,-0.021150700000,0.012876600000,-0.018074500000,-0.007980490000,0.014416800000,-0.000843577000,0.014579300000,0.000000136810,-0.000000474914,0.000000154371,-0.000001853730,-0.000000115940,0.000000037154,0.000000006955,-0.023261200000,0.012847900000,-0.016502300000,-0.007985030000,0.010155600000,-0.000839211000,0.017703600000,-0.023261200000,0.012847900000,-0.016502300000,-0.007985030000,0.010155600000,-0.000839211000,0.017703600000,-0.023261200000,0.012847900000,-0.016502300000,-0.007985030000,0.010155600000,-0.000839211000,0.017703600000,0.051802700000,0.728479000000,-0.019748600000,-2.096740000000,0.003141130000,2.914630000000,1.304570000000,0.000076571200,-0.001747480000,0.000309229000,0.000174218000,0.000009553700,-0.002161190000,-0.001553050000,0.294749000000,-0.954924000000,0.035267800000,0.000000000000,-0.951346000000,-0.296713000000,-0.083074300000,0.000000000000,0.089794100000,-0.009065780000,-0.995919000000,0.000000000000,0.566976000000,0.017448900000,0.075923000000,1.000000000000,-0.017448900000,0.566976000000,0.000000000000,0.000000000000,0.000000000000,1.000000000000,-0.256732000000,-0.013311300000,-0.567119000000,-0.051779500000,0.998659000000,0.000000000000,-0.021882000000,0.593987000000,-0.007943740000,0.664842000000,0.034471400000,0.746188000000,0.437705000000,0.020114600000,0.295160000000,0.037054000000,-0.999227000000,0.013146500000,0.002101060000,-0.061626300000,0.000750415000,0.311466000000,-0.000952174000,-0.950257000000,0.098603500000,0.004545450000,0.097209500000,0.034071200000,-0.999345000000,0.012168900000,0.000000000000,0.000000000000,-0.000000000000,0.089794100000,-0.009065780000,-0.995919000000,0.038203400000,0,0,0,2000.000000000000,40.000000000000
1782250302.288144826889,0.103053705003,hold_measured_before,0.566976140491,0.566975757291,0.566978120133,-0.000002362840,0.015140800000,0.023005700000,0.020938600000,0.020779500000,-0.021459300000,0.022707300000,0.018686500000,-0.007212280000,0.009025200000,-0.007415020000,0.000000398193,-0.000000282251,0.000000472027,-0.000000632865,-0.000000059832,-0.000000018359,0.000000003051,0.027249700000,-0.021372800000,0.017889100000,0.018694000000,0.005849460000,0.009011900000,-0.016992000000,0.027249700000,-0.021372800000,0.017889100000,0.018694000000,0.005849460000,0.009011900000,-0.016992000000,0.027249700000,-0.021372800000,0.017889100000,0.018694000000,0.005849460000,0.009011900000,-0.016992000000,0.051799600000,0.728480000000,-0.019752500000,-2.096740000000,0.003143610000,2.914640000000,1.304570000000,-0.000386931000,0.000407595000,-0.000481894000,-0.000429270000,-0.001627740000,0.000185435000,0.001783340000,0.294736000000,-0.954928000000,0.035269200000,0.000000000000,-0.951350000000,-0.296700000000,-0.083074400000,0.000000000000,0.089794400000,-0.009068390000,-0.995919000000,0.000000000000,0.566976000000,0.017444600000,0.075922000000,1.000000000000,-0.017444600000,0.566976000000,0.000000000000,0.000000000000,0.000000000000,1.000000000000,-0.256733000000,-0.013310600000,-0.567118000000,-0.051776400000,0.998659000000,0.000000000000,-0.021878300000,0.593987000000,-0.007945410000,0.664843000000,0.034469400000,0.746187000000,0.437706000000,0.020112700000,0.295159000000,0.037048000000,-0.999227000000,0.013149100000,0.002100560000,-0.061626700000,0.000750536000,0.311463000000,-0.000956680000,-0.950258000000,0.098603500000,0.004544800000,0.097209500000,0.034062800000,-0.999346000000,0.012170800000,-0.000000000000,-0.000000000000,-0.000000000000,0.089794400000,-0.009068390000,-0.995919000000,0.047675900000,0,0,0,2000.000000000000,40.000000000000
1782250302.308581113815,0.123489853999,hold_measured_before,0.566976140491,0.566976414597,0.566977435683,-0.000001627820,0.041049600000,-0.012279800000,0.053282400000,-0.022207700000,-0.071331000000,-0.018279600000,0.063962500000,0.015764500000,0.039694300000,0.015048900000,-0.000001575560,-0.000002413390,-0.000001782780,-0.000001821650,0.000000072895,0.000000155398,0.000000008483,-0.026095400000,-0.071385500000,-0.015387100000,0.063955700000,0.007919060000,0.039702400000,0.020801400000,-0.026095400000,-0.071385500000,-0.015387100000,0.063955700000,0.007919060000,0.039702400000,0.020801400000,-0.026095400000,-0.071385500000,-0.015387100000,0.063955700000,0.007919060000,0.039702400000,0.020801400000,0.051801500000,0.728482000000,-0.019751300000,-2.096740000000,0.003141870000,2.914630000000,1.304570000000,0.000733290000,0.001247780000,-0.000065547000,-0.001061630000,-0.000486193000,-0.001495280000,-0.000702895000,0.294745000000,-0.954925000000,0.035268600000,0.000000000000,-0.951348000000,-0.296709000000,-0.083071400000,0.000000000000,0.089791500000,-0.009067870000,-0.995919000000,0.000000000000,0.566976000000,0.017446500000,0.075921100000,1.000000000000,-0.017446500000,0.566976000000,0.000000000000,0.000000000000,0.000000000000,1.000000000000,-0.256734000000,-0.013311100000,-0.567119000000,-0.051778300000,0.998659000000,0.000000000000,-0.021880000000,0.593987000000,-0.007944890000,0.664845000000,0.034470800000,0.746186000000,0.437706000000,0.020113700000,0.295158000000,0.037050800000,-0.999227000000,0.013148300000,0.002100820000,-0.061626400000,0.000750518000,0.311463000000,-0.000955074000,-0.950258000000,0.098603800000,0.004545230000,0.097209200000,0.034067300000,-0.999345000000,0.012170500000,0.000000000000,0.000000000000,0.000000000000,0.089791500000,-0.009067870000,-0.995919000000,0.110343000000,0,0,0,2000.000000000000,40.000000000000
1782250302.328605413437,0.143513761999,hold_measured_before,0.566976140491,0.566976834665,0.566977005172,-0.000000590574,0.005797950000,-0.004629570000,0.001596180000,-0.000282856000,0.003829090000,-0.003097590000,-0.003167130000,-0.003077040000,-0.005370170000,-0.002789780000,-0.000000385384,-0.000000047370,-0.000000365849,-0.000000171757,0.000000032858,-0.000000006211,0.000000000292,-0.002891380000,0.003794060000,-0.001155430000,-0.003170610000,-0.008342530000,-0.005364820000,0.001070950000,-0.002891380000,0.003794060000,-0.001155430000,-0.003170610000,-0.008342530000,-0.005364820000,0.001070950000,-0.002891380000,0.003794060000,-0.001155430000,-0.003170610000,-0.008342530000,-0.005364820000,0.001070950000,0.051798600000,0.728481000000,-0.019748700000,-2.096740000000,0.003143610000,2.914640000000,1.304570000000,0.000206596000,-0.000159946000,0.000200215000,-0.000618605000,0.000891015000,0.001221020000,-0.000190330000,0.294740000000,-0.954926000000,0.035267400000,0.000000000000,-0.951349000000,-0.296704000000,-0.083076400000,0.000000000000,0.089795900000,-0.009065680000,-0.995919000000,0.000000000000,0.566976000000,0.017446300000,0.075922200000,1.000000000000,-0.017446300000,0.566976000000,0.000000000000,0.000000000000,0.000000000000,1.000000000000,-0.256733000000,-0.013310300000,-0.567119000000,-0.051775400000,0.998659000000,0.000000000000,-0.021879400000,0.593987000000,-0.007943930000,0.664844000000,0.034468800000,0.746187000000,0.437705000000,0.020112800000,0.295159000000,0.037049800000,-0.999227000000,0.013146600000,0.002100670000,-0.061626800000,0.000750382000,0.311464000000,-0.000953687000,-0.950257000000,0.098603400000,0.004544740000,0.097209700000,0.034064700000,-0.999346000000,0.012168300000,-0.000000000000,-0.000000000000,0.000000000000,0.089795900000,-0.009065680000,-0.995919000000,0.011561500000,0,0,0,2000.000000000000,40.000000000000
1782250302.349291324615,0.164200108004,hold_measured_before,0.566976140491,0.566976834665,0.566976717759,0.000000116906,-0.007996600000,-0.058092100000,-0.030917500000,-0.062673100000,0.029951200000,-0.055817200000,-0.023788700000,0.032027900000,-0.014025400000,0.029697600000,-0.000000613163,0.000001320970,0.000000629486,-0.000006186180,-0.000000338900,-0.000000238765,0.000000019705,-0.074494500000,0.029794000000,-0.047012600000,-0.023809800000,0.008162880000,-0.014001400000,0.047195400000,-0.074494500000,0.029794000000,-0.047012600000,-0.023809800000,0.008162880000,-0.014001400000,0.047195400000,-0.074494500000,0.029794000000,-0.047012600000,-0.023809800000,0.008162880000,-0.014001400000,0.047195400000,0.051802600000,0.728478000000,-0.019750400000,-2.096740000000,0.003140420000,2.914640000000,1.304570000000,0.002268330000,-0.001460200000,0.000180686000,-0.000330721000,-0.000464847000,0.000085759900,-0.000885468000,0.294748000000,-0.954924000000,0.035270300000,0.000000000000,-0.951346000000,-0.296713000000,-0.083078000000,0.000000000000,0.089798300000,-0.009067150000,-0.995919000000,0.000000000000,0.566977000000,0.017447800000,0.075923700000,1.000000000000,-0.017447800000,0.566977000000,0.000000000000,0.000000000000,0.000000000000,1.000000000000,-0.256731000000,-0.013311300000,-0.567120000000,-0.051779400000,0.998659000000,0.000000000000,-0.021881100000,0.593987000000,-0.007944440000,0.664841000000,0.034471400000,0.746189000000,0.437705000000,0.020114300000,0.295160000000,0.037052500000,-0.999227000000,0.013147700000,0.002101030000,-0.061626800000,0.000750511000,0.311466000000,-0.000953787000,-0.950257000000,0.098603100000,0.004545500000,0.097209900000,0.034070400000,-0.999345000000,0.012170300000,0.000000000000,0.000000000000,0.000000000000,0.089798300000,-0.009067150000,-0.995919000000,0.108186000000,0,0,0,2000.000000000000,40.000000000000
1782250302.369622468948,0.184530172002,hold_measured_before,0.566976140491,0.566976344235,0.566976392634,-0.000000173937,0.027326300000,-0.065425800000,0.037308500000,-0.067698000000,-0.054123000000,-0.064436300000,0.048124200000,0.032175300000,0.032529500000,0.030076100000,-0.000001834290,-0.000000626555,-0.000002102050,-0.000005558820,-0.000000006932,-0.000000060147,0.000000022044,-0.071502700000,-0.054174700000,-0.061606000000,0.048113900000,0.024497900000,0.032537300000,0.035705300000,-0.071502700000,-0.054174700000,-0.061606000000,0.048113900000,0.024497900000,0.032537300000,0.035705300000,-0.071502700000,-0.054174700000,-0.061606000000,0.048113900000,0.024497900000,0.032537300000,0.035705300000,0.051800800000,0.728481000000,-0.019746600000,-2.096740000000,0.003138790000,2.914630000000,1.304570000000,0.001312680000,0.001037120000,0.001258030000,-0.000383050000,-0.001447490000,-0.001897080000,-0.000156737000,0.294748000000,-0.954924000000,0.035266600000,0.000000000000,-0.951347000000,-0.296712000000,-0.083073000000,0.000000000000,0.089792400000,-0.009065120000,-0.995919000000,0.000000000000,0.566976000000,0.017449100000,0.075921800000,1.000000000000,-0.017449100000,0.566976000000,0.000000000000,0.000000000000,0.000000000000,1.000000000000,-0.256733000000,-0.013310900000,-0.567119000000,-0.051777600000,0.998659000000,0.000000000000,-0.021881800000,0.593987000000,-0.007942880000,0.664844000000,0.034470300000,0.746186000000,0.437705000000,0.020114000000,0.295159000000,0.037053600000,-0.999227000000,0.013145200000,0.002101170000,-0.061626200000,0.000750381000,0.311465000000,-0.000951122000,-0.950257000000,0.098603700000,0.004545580000,0.097209300000,0.034073000000,-0.999345000000,0.012168300000,0.000000000000,-0.000000000000,0.000000000000,0.089792400000,-0.009065120000,-0.995919000000,0.130734000000,0,0,0,2000.000000000000,40.000000000000
1782250302.390144586563,0.205051527002,hold_measured_before,0.566976140491,0.566975753919,0.566976392634,-0.000000638715,0.034378300000,0.055567500000,0.040379400000,0.043118100000,-0.058961200000,0.044199200000,0.054664700000,-0.013001100000,0.034121800000,-0.011376700000,0.000002541630,-0.000002072580,0.000002784990,-0.000003050530,-0.000000302154,0.000000092836,0.000000017335,0.048767800000,-0.058887500000,0.039995900000,0.054668800000,-0.001600330000,0.034110300000,-0.019736000000,0.048767800000,-0.058887500000,0.039995900000,0.054668800000,-0.001600330000,0.034110300000,-0.019736000000,0.048767800000,-0.058887500000,0.039995900000,0.054668800000,-0.001600330000,0.034110300000,-0.019736000000,0.051797100000,0.728482000000,-0.019755000000,-2.096740000000,0.003142270000,2.914640000000,1.304570000000,-0.001076630000,0.000836630000,-0.000801100000,-0.001196120000,-0.000309476000,-0.001266030000,0.000084160400,0.294732000000,-0.954929000000,0.035270500000,0.000000000000,-0.951352000000,-0.296697000000,-0.083071200000,0.000000000000,0.089791700000,-0.009070870000,-0.995919000000,0.000000000000,0.566976000000,0.017441800000,0.075921000000,1.000000000000,-0.017441800000,0.566976000000,0.000000000000,0.000000000000,0.000000000000,1.000000000000,-0.256734000000,-0.013310000000,-0.567118000000,-0.051773900000,0.998659000000,0.000000000000,-0.021875800000,0.593987000000,-0.007946370000,0.664845000000,0.034467900000,0.746186000000,0.437706000000,0.020111300000,0.295158000000,0.037043700000,-0.999227000000,0.013150800000,0.002100360000,-0.061626500000,0.000750664000,0.311463000000,-0.000959669000,-0.950258000000,0.098603800000,0.004544710000,0.097209300000,0.034059800000,-0.999346000000,0.012172900000,-0.000000000000,0.000000000000,0.000000000000,0.089791700000,-0.009070870000,-0.995919000000,0.109499000000,0,0,0,2000.000000000000,40.000000000000
1782250302.410613059998,0.225523184999,hold_measured_before,0.566976140491,0.566975706409,0.566976305457,0.000000454707,0.002850490000,0.011925900000,-0.015323500000,0.011251200000,0.007285140000,0.009432220000,-0.002436920000,-0.005558050000,-0.000555414000,-0.004660770000,0.000000693045,0.000000414029,0.000000333444,-0.000000692553,-0.000000066771,-0.000000030465,0.000000002092,0.016644800000,0.007357890000,0.005415920000,-0.002430770000,0.005329480000,-0.000566504000,-0.012643600000,0.016644800000,0.007357890000,0.005415920000,-0.002430770000,0.005329480000,-0.000566504000,-0.012643600000,0.016644800000,0.007357890000,0.005415920000,-0.002430770000,0.005329480000,-0.000566504000,-0.012643600000,0.051795000000,0.728479000000,-0.019748800000,-2.096740000000,0.003140370000,2.914630000000,1.304570000000,-0.000741106000,-0.001053510000,0.000412510000,-0.000759041000,-0.000414905000,-0.000357624000,0.000512125000,0.294743000000,-0.954926000000,0.035268300000,0.000000000000,-0.951348000000,-0.296707000000,-0.083074800000,0.000000000000,0.089794600000,-0.009066790000,-0.995919000000,0.000000000000,0.566977000000,0.017444500000,0.075923100000,1.000000000000,-0.017444500000,0.566977000000,0.000000000000,0.000000000000,0.000000000000,1.000000000000,-0.256732000000,-0.013309400000,-0.567120000000,-0.051771900000,0.998659000000,0.000000000000,-0.021877400000,0.593987000000,-0.007943800000,0.664842000000,0.034466400000,0.746188000000,0.437705000000,0.020111200000,0.295160000000,0.037046200000,-0.999227000000,0.013146600000,0.002100620000,-0.061626300000,0.000750440000,0.311466000000,-0.000954747000,-0.950257000000,0.098603500000,0.004544790000,0.097209600000,0.034064100000,-0.999346000000,0.012169300000,-0.000000000000,0.000000000000,0.000000000000,0.089794600000,-0.009066790000,-0.995919000000,0.023558700000,0,0,0,2000.000000000000,40.000000000000
1782250302.431440830231,0.246350665002,hold_measured_before,0.566976140491,0.566975706409,0.566976250624,-0.000000544215,0.012029500000,0.026788200000,0.004371840000,0.034140100000,0.000436725000,0.027581700000,0.001038270000,-0.021028100000,-0.004331470000,-0.019482900000,0.000000896471,-0.000000324069,0.000000812576,-0.000000888883,-0.000000032091,-0.000000025641,0.000000008138,0.035918500000,0.000460243000,0.026258600000,0.001039640000,-0.017439500000,-0.004335140000,-0.022114200000,0.035918500000,0.000460243000,0.026258600000,0.001039640000,-0.017439500000,-0.004335140000,-0.022114200000,0.035918500000,0.000460243000,0.026258600000,0.001039640000,-0.017439500000,-0.004335140000,-0.022114200000,0.051798400000,0.728481000000,-0.019748600000,-2.096740000000,0.003144370000,2.914640000000,1.304570000000,-0.000833650000,-0.000111977000,-0.000051014700,-0.001137980000,0.001546150000,0.001794210000,0.000050157400,0.294740000000,-0.954926000000,0.035266900000,0.000000000000,-0.951349000000,-0.296704000000,-0.083075500000,0.000000000000,0.089794800000,-0.009065500000,-0.995919000000,0.000000000000,0.566976000000,0.017446200000,0.075921700000,1.000000000000,-0.017446200000,0.566976000000,0.000000000000,0.000000000000,0.000000000000,1.000000000000,-0.256733000000,-0.013310300000,-0.567119000000,-0.051775300000,0.998659000000,0.000000000000,-0.021879300000,0.593987000000,-0.007943920000,0.664844000000,0.034468700000,0.746187000000,0.437706000000,0.020112700000,0.295158000000,0.037049700000,-0.999227000000,0.013146500000,0.002100620000,-0.061626900000,0.000750366000,0.311463000000,-0.000953726000,-0.950258000000,0.098603500000,0.004544630000,0.097209600000,0.034063900000,-0.999346000000,0.012168000000,0.000000000000,0.000000000000,0.000000000000,0.089794800000,-0.009065500000,-0.995919000000,0.052848000000,0,0,0,2000.000000000000,40.000000000000
1782250302.451601505280,0.266509476001,hold_measured_before,0.566976140491,0.566974839800,0.566976212546,0.000001415180,-0.010590400000,-0.024823800000,-0.011697900000,-0.021190500000,0.014797400000,-0.017628800000,-0.013846100000,0.009395080000,-0.007555550000,0.007500900000,0.000001044750,-0.000000633396,0.000001082170,-0.000001043580,-0.000000139251,-0.000000011844,0.000000006042,-0.029640100000,0.014683500000,-0.011333700000,-0.013857900000,-0.007665760000,-0.007538220000,0.020009900000,-0.029640100000,0.014683500000,-0.011333700000,-0.013857900000,-0.007665760000,-0.007538220000,0.020009900000,-0.029640100000,0.014683500000,-0.011333700000,-0.013857900000,-0.007665760000,-0.007538220000,0.020009900000,0.051801300000,0.728479000000,-0.019751800000,-2.096740000000,0.003141480000,2.914640000000,1.304570000000,0.001786390000,-0.000133303000,-0.000600237000,0.000382283000,-0.000201138000,0.000110602000,0.000620666000,0.294742000000,-0.954926000000,0.035270500000,0.000000000000,-0.951348000000,-0.296706000000,-0.083077800000,0.000000000000,0.089798100000,-0.009068040000,-0.995919000000,0.000000000000,0.566978000000,0.017446200000,0.075923700000,1.000000000000,-0.017446200000,0.566978000000,0.000000000000,0.000000000000,0.000000000000,1.000000000000,-0.256731000000,-0.013310900000,-0.567120000000,-0.051778100000,0.998659000000,0.000000000000,-0.021879700000,0.593987000000,-0.007945040000,0.664842000000,0.034470500000,0.746188000000,0.437704000000,0.020113500000,0.295161000000,0.037050200000,-0.999227000000,0.013148600000,0.002100810000,-0.061626600000,0.000750544000,0.311468000000,-0.000955330000,-0.950256000000,0.098603100000,0.004545230000,0.097209900000,0.034067100000,-0.999345000000,0.012170900000,0.000000000000,-0.000000000000,0.000000000000,0.089798100000,-0.009068040000,-0.995919000000,0.043938800000,0,0,0,2000.000000000000,40.000000000000
1782250302.472587585449,0.287495254001,hold_measured_before,0.566976140491,0.566976650174,0.566976188596,-0.000001348800,0.005573310000,0.060616400000,0.010480100000,0.042702600000,-0.000489791000,0.044105300000,-0.000871716000,-0.010919300000,-0.005796730000,-0.008233130000,0.000001227470,0.000000235033,0.000001408580,-0.000003644090,-0.000000225316,-0.000000112278,0.000000015705,0.050003900000,-0.000391624000,0.038669800000,-0.000866097000,0.003818440000,-0.005811820000,-0.019039100000,0.050003900000,-0.000391624000,0.038669800000,-0.000866097000,0.003818440000,-0.005811820000,-0.019039100000,0.050003900000,-0.000391624000,0.038669800000,-0.000866097000,0.003818440000,-0.005811820000,-0.019039100000,0.051795100000,0.728484000000,-0.019752600000,-2.096740000000,0.003142340000,2.914640000000,1.304570000000,-0.001748400000,0.000379600000,-0.000411953000,-0.000437587000,0.000083695900,0.001799280000,-0.001084980000,0.294738000000,-0.954927000000,0.035269600000,0.000000000000,-0.951350000000,-0.296703000000,-0.083071700000,0.000000000000,0.089792000000,-0.009069330000,-0.995919000000,0.000000000000,0.566975000000,0.017442000000,0.075920000000,1.000000000000,-0.017442000000,0.566975000000,0.000000000000,0.000000000000,0.000000000000,1.000000000000,-0.256735000000,-0.013309500000,-0.567117000000,-0.051771900000,0.998659000000,0.000000000000,-0.021875600000,0.593987000000,-0.007945440000,0.664846000000,0.034466600000,0.746185000000,0.437707000000,0.020110800000,0.295157000000,0.037043400000,-0.999227000000,0.013149200000,0.002100360000,-0.061627000000,0.000750573000,0.311459000000,-0.000958407000,-0.950259000000,0.098603700000,0.004544530000,0.097209300000,0.034059500000,-0.999346000000,0.012171300000,0.000000000000,0.000000000000,-0.000000000000,0.089792000000,-0.009069330000,-0.995919000000,0.066388900000,0,0,0,2000.000000000000,40.000000000000
1782250302.492627143860,0.307535384003,hold_measured_before,0.566976140491,0.566977630418,0.566976171964,0.000000478210,0.012852600000,0.051502000000,0.003383770000,0.031832800000,-0.021682600000,0.037230600000,0.023366500000,-0.003339640000,0.017511700000,-0.001983370000,0.000000749534,-0.000000556377,0.000000712342,-0.000001736240,-0.000000058260,0.000000015953,0.000000006410,0.031771100000,-0.021684000000,0.037277900000,0.023364700000,-0.003465830000,0.017511800000,-0.001890880000,0.031771100000,-0.021684000000,0.037277900000,0.023364700000,-0.003465830000,0.017511800000,-0.001890880000,0.031771100000,-0.021684000000,0.037277900000,0.023364700000,-0.003465830000,0.017511800000,-0.001890880000,0.051798600000,0.728482000000,-0.019755300000,-2.096740000000,0.003142630000,2.914630000000,1.304570000000,-0.000447281000,-0.000582373000,-0.001288200000,-0.000828581000,0.000092448000,-0.001706240000,-0.001189220000,0.294739000000,-0.954927000000,0.035271300000,0.000000000000,-0.951350000000,-0.296704000000,-0.083071700000,0.000000000000,0.089792500000,-0.009070870000,-0.995919000000,0.000000000000,0.566977000000,0.017442400000,0.075921500000,1.000000000000,-0.017442400000,0.566977000000,0.000000000000,0.000000000000,0.000000000000,1.000000000000,-0.256734000000,-0.013310300000,-0.567119000000,-0.051775400000,0.998659000000,0.000000000000,-0.021876500000,0.593987000000,-0.007946520000,0.664845000000,0.034468800000,0.746186000000,0.437706000000,0.020111900000,0.295159000000,0.037044900000,-0.999227000000,0.013151000000,0.002100410000,-0.061626300000,0.000750668000,0.311465000000,-0.000959414000,-0.950257000000,0.098603700000,0.004544810000,0.097209300000,0.034060700000,-0.999346000000,0.012173000000,-0.000000000000,-0.000000000000,-0.000000000000,0.089792500000,-0.009070870000,-0.995919000000,0.061134300000,0,0,0,2000.000000000000,40.000000000000
1782250302.512692213058,0.327600511999,hold_measured_before,0.566976140491,0.566977354014,0.566976154519,0.000001468910,-0.012914500000,-0.013568500000,-0.010607100000,-0.003268580000,0.008750560000,-0.007283020000,-0.008180010000,-0.004448510000,-0.001481680000,-0.004536510000,0.000000254839,-0.000000572118,0.000000268233,-0.000000037169,-0.000000027824,0.000000033761,0.000000001222,-0.003466940000,0.008747320000,-0.007134820000,-0.008180300000,-0.004849520000,-0.001481240000,-0.004242510000,-0.003466940000,0.008747320000,-0.007134820000,-0.008180300000,-0.004849520000,-0.001481240000,-0.004242510000,-0.003466940000,0.008747320000,-0.007134820000,-0.008180300000,-0.004849520000,-0.001481240000,-0.004242510000,0.051800500000,0.728479000000,-0.019746600000,-2.096740000000,0.003142010000,2.914640000000,1.304570000000,0.000020946800,-0.000065269300,0.000461258000,0.000768463000,0.000513914000,-0.000956569000,0.000406197000,0.294746000000,-0.954925000000,0.035267600000,0.000000000000,-0.951347000000,-0.296710000000,-0.083080400000,0.000000000000,0.089799800000,-0.009064140000,-0.995919000000,0.000000000000,0.566978000000,0.017448800000,0.075923800000,1.000000000000,-0.017448800000,0.566978000000,0.000000000000,0.000000000000,0.000000000000,1.000000000000,-0.256731000000,-0.013310700000,-0.567121000000,-0.051777300000,0.998659000000,0.000000000000,-0.021881500000,0.593987000000,-0.007943000000,0.664842000000,0.034470000000,0.746188000000,0.437704000000,0.020113900000,0.295161000000,0.037053300000,-0.999227000000,0.013145100000,0.002100980000,-0.061626800000,0.000750324000,0.311468000000,-0.000951090000,-0.950256000000,0.098602900000,0.004545130000,0.097210100000,0.034069700000,-0.999345000000,0.012167300000,0.000000000000,-0.000000000000,0.000000000000,0.089799800000,-0.009064140000,-0.995919000000,0.015813600000,0,0,0,2000.000000000000,40.000000000000
1782250302.533546924591,0.348454844003,hold_measured_before,0.566976140491,0.566978043191,0.566976154519,0.000001199500,0.009803270000,-0.005684260000,0.025335600000,-0.019328300000,-0.035363400000,-0.010713600000,0.029885400000,0.018169800000,0.021627000000,0.016789500000,-0.000000004440,-0.000001043920,-0.000000715041,-0.000000664691,0.000000024871,0.000000038271,0.000000003096,-0.028390400000,-0.035486000000,-0.003964860000,0.029873200000,-0.000125533000,0.021645700000,0.030203800000,-0.028390400000,-0.035486000000,-0.003964860000,0.029873200000,-0.000125533000,0.021645700000,0.030203800000,-0.028390400000,-0.035486000000,-0.003964860000,0.029873200000,-0.000125533000,0.021645700000,0.030203800000,0.051801500000,0.728481000000,-0.019753500000,-2.096740000000,0.003141130000,2.914640000000,1.304570000000,0.001565690000,0.001132270000,-0.001104890000,0.000311446000,-0.000425200000,-0.001487320000,-0.000862962000,0.294745000000,-0.954925000000,0.035271900000,0.000000000000,-0.951347000000,-0.296709000000,-0.083077000000,0.000000000000,0.089797800000,-0.009069370000,-0.995919000000,0.000000000000,0.566977000000,0.017445300000,0.075922900000,1.000000000000,-0.017445300000,0.566977000000,0.000000000000,0.000000000000,0.000000000000,1.000000000000,-0.256732000000,-0.013311000000,-0.567120000000,-0.051778400000,0.998659000000,0.000000000000,-0.021879100000,0.593987000000,-0.007945710000,0.664844000000,0.034470700000,0.746187000000,0.437705000000,0.020113400000,0.295160000000,0.037049200000,-0.999227000000,0.013149700000,0.002100780000,-0.061626700000,0.000750624000,0.311467000000,-0.000956788000,-0.950257000000,0.098603200000,0.004545290000,0.097209900000,0.034066400000,-0.999345000000,0.012172200000,0.000000000000,0.000000000000,0.000000000000,0.089797800000,-0.009069370000,-0.995919000000,0.065986500000,0,0,0,2000.000000000000,40.000000000000
1782250302.553678750992,0.368586181001,hold_measured_before,0.566976140491,0.566976163805,0.566976146618,0.000001893520,-0.013391800000,-0.030317900000,0.001524320000,-0.016536700000,0.004699600000,-0.022195800000,-0.007632250000,-0.000819818000,-0.002899730000,-0.001081750000,0.000001603570,0.000000304427,0.000001388350,-0.000001841870,-0.000000130181,-0.000000069283,0.000000007146,-0.021857400000,0.004628510000,-0.018230400000,-0.007640850000,-0.011565000000,-0.002888870000,0.006796580000,-0.021857400000,0.004628510000,-0.018230400000,-0.007640850000,-0.011565000000,-0.002888870000,0.006796580000,-0.021857400000,0.004628510000,-0.018230400000,-0.007640850000,-0.011565000000,-0.002888870000,0.006796580000,0.051797800000,0.728481000000,-0.019749500000,-2.096730000000,0.003143610000,2.914640000000,1.304570000000,0.000813067000,0.000674292000,0.000764519000,0.001054130000,0.001208930000,-0.000200761000,0.000287213000,0.294739000000,-0.954927000000,0.035268800000,0.000000000000,-0.951349000000,-0.296703000000,-0.083079500000,0.000000000000,0.089799200000,-0.009066180000,-0.995919000000,0.000000000000,0.566978000000,0.017445500000,0.075922900000,1.000000000000,-0.017445500000,0.566978000000,0.000000000000,0.000000000000,0.000000000000,1.000000000000,-0.256732000000,-0.013310100000,-0.567121000000,-0.051774600000,0.998659000000,0.000000000000,-0.021878600000,0.593987000000,-0.007944240000,0.664844000000,0.034468300000,0.746186000000,0.437704000000,0.020112300000,0.295161000000,0.037048400000,-0.999227000000,0.013147100000,0.002100590000,-0.061626800000,0.000750413000,0.311467000000,-0.000954470000,-0.950256000000,0.098603000000,0.004544650000,0.097210000000,0.034063300000,-0.999346000000,0.012168800000,0.000000000000,-0.000000000000,-0.000000000000,0.089799200000,-0.009066180000,-0.995919000000,0.032835700000,0,0,0,2000.000000000000,40.000000000000
1782250302.574585676193,0.389493266004,hold_measured_before,0.566976140491,0.566976163805,0.566976144500,0.000000017186,0.003478980000,0.041822500000,0.031527500000,0.031713700000,-0.037515600000,0.036567500000,0.029824300000,-0.007076790000,0.021717100000,-0.006970990000,-0.000000690924,-0.000000216714,-0.000000836467,-0.000002175820,-0.000000096439,-0.000000004590,0.000000005092,0.031375300000,-0.037520400000,0.036818200000,0.029821700000,-0.007758580000,0.021717700000,-0.006471170000,0.031375300000,-0.037520400000,0.036818200000,0.029821700000,-0.007758580000,0.021717700000,-0.006471170000,0.031375300000,-0.037520400000,0.036818200000,0.029821700000,-0.007758580000,0.021717700000,-0.006471170000,0.051802600000,0.728484000000,-0.019755500000,-2.096740000000,0.003141130000,2.914630000000,1.304570000000,0.000012101900,0.001550890000,-0.001570080000,0.001022600000,-0.000337992000,-0.001731130000,0.000154502000,0.294741000000,-0.954926000000,0.035271100000,0.000000000000,-0.951349000000,-0.296706000000,-0.083069800000,0.000000000000,0.089790600000,-0.009071060000,-0.995919000000,0.000000000000,0.566976000000,0.017444700000,0.075920700000,1.000000000000,-0.017444700000,0.566976000000,0.000000000000,0.000000000000,0.000000000000,1.000000000000,-0.256734000000,-0.013311400000,-0.567119000000,-0.051779400000,0.998659000000,0.000000000000,-0.021878900000,0.593987000000,-0.007946540000,0.664846000000,0.034471600000,0.746185000000,0.437706000000,0.020113700000,0.295158000000,0.037048800000,-0.999227000000,0.013151200000,0.002100730000,-0.061626200000,0.000750705000,0.311464000000,-0.000958364000,-0.950258000000,0.098603900000,0.004545400000,0.097209100000,0.034066000000,-0.999345000000,0.012173600000,-0.000000000000,0.000000000000,-0.000000000000,0.089790600000,-0.009071060000,-0.995919000000,0.072186100000,0,0,0,2000.000000000000,40.000000000000
1782250302.594613313675,0.409520521003,hold_measured_before,0.566976140491,0.566976904234,0.566976143167,0.000000073302,0.016979500000,0.003567440000,0.034553600000,0.009271550000,-0.042946900000,0.007783890000,0.036727300000,-0.006686500000,0.024063000000,-0.007163530000,-0.000000078759,0.000000039766,-0.000000155319,-0.000001372100,-0.000000042739,0.000000000173,0.000000004761,0.010153600000,-0.042935100000,0.007126720000,0.036727000000,-0.004905590000,0.024061200000,-0.008469330000,0.010153600000,-0.042935100000,0.007126720000,0.036727000000,-0.004905590000,0.024061200000,-0.008469330000,0.010153600000,-0.042935100000,0.007126720000,0.036727000000,-0.004905590000,0.024061200000,-0.008469330000,0.051799600000,0.728481000000,-0.019748700000,-2.096740000000,0.003141130000,2.914640000000,1.304570000000,0.000140695000,0.001374950000,-0.000249573000,0.000062981600,-0.000255045000,-0.001066850000,0.001132410000,0.294744000000,-0.954925000000,0.035267800000,0.000000000000,-0.951348000000,-0.296708000000,-0.083074600000,0.000000000000,0.089794300000,-0.009066170000,-0.995919000000,0.000000000000,0.566976000000,0.017447100000,0.075921800000,1.000000000000,-0.017447100000,0.566976000000,0.000000000000,0.000000000000,0.000000000000,1.000000000000,-0.256733000000,-0.013310600000,-0.567119000000,-0.051776400000,0.998659000000,0.000000000000,-0.021880100000,0.593987000000,-0.007943810000,0.664844000000,0.034469500000,0.746186000000,0.437705000000,0.020113200000,0.295159000000,0.037050900000,-0.999227000000,0.013146600000,0.002100880000,-0.061626600000,0.000750427000,0.311464000000,-0.000953347000,-0.950258000000,0.098603500000,0.004545150000,0.097209500000,0.034068100000,-0.999345000000,0.012169000000,-0.000000000000,0.000000000000,-0.000000000000,0.089794300000,-0.009066170000,-0.995919000000,0.063410700000,0,0,0,2000.000000000000,40.000000000000
1782250302.614650964737,0.429558025004,hold_measured_before,0.566976140491,0.566977438709,0.566976142278,0.000000761067,-0.015401700000,0.031967000000,-0.020124300000,0.052279600000,0.022089900000,0.044788900000,-0.018740100000,-0.034331700000,-0.010064400000,-0.033843500000,-0.000000638742,-0.000000415372,-0.000000718042,-0.000001175040,0.000000000688,0.000000002382,0.000000003196,0.058088400000,0.022167400000,0.040461300000,-0.018733900000,-0.022603100000,-0.010076300000,-0.042443000000,0.058088400000,0.022167400000,0.040461300000,-0.018733900000,-0.022603100000,-0.010076300000,-0.042443000000,0.058088400000,0.022167400000,0.040461300000,-0.018733900000,-0.022603100000,-0.010076300000,-0.042443000000,0.051801300000,0.728479000000,-0.019752500000,-2.096740000000,0.003142750000,2.914640000000,1.304580000000,-0.000674967000,-0.000561865000,-0.000544441000,0.000444278000,0.000384816000,-0.000164479000,0.002781540000,0.294736000000,-0.954928000000,0.035270000000,0.000000000000,-0.951350000000,-0.296700000000,-0.083077300000,0.000000000000,0.089797400000,-0.009068350000,-0.995919000000,0.000000000000,0.566977000000,0.017445600000,0.075923100000,1.000000000000,-0.017445600000,0.566977000000,0.000000000000,0.000000000000,0.000000000000,1.000000000000,-0.256732000000,-0.013311000000,-0.567120000000,-0.051778100000,0.998659000000,0.000000000000,-0.021879300000,0.593987000000,-0.007945390000,0.664843000000,0.034470500000,0.746188000000,0.437705000000,0.020113400000,0.295160000000,0.037049600000,-0.999227000000,0.013149100000,0.002100710000,-0.061626700000,0.000750554000,0.311466000000,-0.000956072000,-0.950257000000,0.098603200000,0.004545070000,0.097209800000,0.034065300000,-0.999345000000,0.012171100000,0.000000000000,0.000000000000,-0.000000000000,0.089797400000,-0.009068350000,-0.995919000000,0.090926200000,0,0,0,2000.000000000000,40.000000000000
1782250302.635606765747,0.450513905002,hold_measured_before,0.566976140491,0.566976072494,0.566976142278,0.000001296430,0.015521900000,0.065656500000,0.004443260000,0.055793300000,-0.014851600000,0.057687800000,0.017034300000,-0.019444900000,0.009827960000,-0.017988100000,0.000002918410,-0.000001077090,0.000002799770,-0.000003738810,-0.000000290191,-0.000000006816,0.000000017975,0.061233300000,-0.014779700000,0.053641000000,0.017037400000,-0.008468360000,0.009816800000,-0.026036400000,0.061233300000,-0.014779700000,0.053641000000,0.017037400000,-0.008468360000,0.009816800000,-0.026036400000,0.061233300000,-0.014779700000,0.053641000000,0.017037400000,-0.008468360000,0.009816800000,-0.026036400000,0.051798900000,0.728476000000,-0.019752500000,-2.096740000000,0.003142750000,2.914630000000,1.304570000000,-0.001128470000,-0.000188532000,-0.001406220000,-0.001297160000,-0.000119570000,0.000165353000,0.000265000000,0.294740000000,-0.954926000000,0.035270600000,0.000000000000,-0.951349000000,-0.296704000000,-0.083077200000,0.000000000000,0.089797500000,-0.009068490000,-0.995919000000,0.000000000000,0.566977000000,0.017444300000,0.075924500000,1.000000000000,-0.017444300000,0.566977000000,0.000000000000,0.000000000000,0.000000000000,1.000000000000,-0.256731000000,-0.013310300000,-0.567120000000,-0.051775700000,0.998659000000,0.000000000000,-0.021877900000,0.593987000000,-0.007945360000,0.664840000000,0.034468800000,0.746190000000,0.437704000000,0.020112400000,0.295161000000,0.037047200000,-0.999227000000,0.013149100000,0.002100550000,-0.061626400000,0.000750545000,0.311469000000,-0.000956646000,-0.950256000000,0.098603200000,0.004544830000,0.097209800000,0.034062900000,-0.999346000000,0.012171000000,-0.000000000000,-0.000000000000,0.000000000000,0.089797500000,-0.009068490000,-0.995919000000,0.089339600000,0,0,0,2000.000000000000,40.000000000000
1782250302.656352996826,0.471261440005,hold_measured_before,0.566976140491,0.566976072494,0.566976141660,-0.000000069166,0.014992800000,0.054516900000,0.006472780000,0.035819600000,-0.011634300000,0.042990400000,0.012867600000,-0.004849400000,0.005616310000,-0.004148570000,0.000001430660,-0.000002222120,0.000001451200,-0.000001451940,-0.000000138506,0.000000115971,0.000000009757,0.036615300000,-0.011625800000,0.042400300000,0.012867100000,-0.003246030000,0.005614800000,-0.005324260000,0.036615300000,-0.011625800000,0.042400300000,0.012867100000,-0.003246030000,0.005614800000,-0.005324260000,0.036615300000,-0.011625800000,0.042400300000,0.012867100000,-0.003246030000,0.005614800000,-0.005324260000,0.051800600000,0.728479000000,-0.019754600000,-2.096740000000,0.003142000000,2.914640000000,1.304570000000,-0.000335633000,-0.000122166000,-0.001711030000,-0.001157180000,-0.000472151000,0.000623510000,-0.000534506000,0.294741000000,-0.954926000000,0.035271900000,0.000000000000,-0.951349000000,-0.296706000000,-0.083075100000,0.000000000000,0.089796000000,-0.009070160000,-0.995919000000,0.000000000000,0.566976000000,0.017444000000,0.075922500000,1.000000000000,-0.017444000000,0.566976000000,0.000000000000,0.000000000000,0.000000000000,1.000000000000,-0.256733000000,-0.013310800000,-0.567119000000,-0.051777400000,0.998659000000,0.000000000000,-0.021878000000,0.593987000000,-0.007946180000,0.664843000000,0.034470100000,0.746188000000,0.437705000000,0.020112900000,0.295159000000,0.037047400000,-0.999227000000,0.013150500000,0.002100620000,-0.061626800000,0.000750656000,0.311464000000,-0.000958177000,-0.950257000000,0.098603300000,0.004545080000,0.097209700000,0.034063800000,-0.999346000000,0.012172700000,-0.000000000000,0.000000000000,0.000000000000,0.089796000000,-0.009070160000,-0.995919000000,0.059241900000,0,0,0,2000.000000000000,40.000000000000
1782250302.676636457443,0.491544472003,hold_measured_before,0.566976140491,0.566976890272,0.566976141256,0.000000797125,-0.004045520000,0.021045300000,-0.000867123000,0.023470800000,-0.003775720000,0.017411300000,0.003655180000,-0.013865900000,0.004876450000,-0.011853800000,-0.000000546294,-0.000000553655,-0.000000403307,-0.000000239223,-0.000000017996,-0.000000001862,0.000000000636,0.029167100000,-0.003699870000,0.013167900000,0.003662170000,-0.002364650000,0.004864760000,-0.020286600000,0.029167100000,-0.003699870000,0.013167900000,0.003662170000,-0.002364650000,0.004864760000,-0.020286600000,0.029167100000,-0.003699870000,0.013167900000,0.003662170000,-0.002364650000,0.004864760000,-0.020286600000,0.051795400000,0.728479000000,-0.019749400000,-2.096740000000,0.003142190000,2.914640000000,1.304570000000,-0.001296630000,0.000142068000,0.000693708000,0.000408397000,0.000777205000,-0.000913530000,-0.000108277000,0.294737000000,-0.954927000000,0.035268600000,0.000000000000,-0.951350000000,-0.296701000000,-0.083077500000,0.000000000000,0.089797200000,-0.009066700000,-0.995919000000,0.000000000000,0.566977000000,0.017444200000,0.075923300000,1.000000000000,-0.017444200000,0.566977000000,0.000000000000,0.000000000000,0.000000000000,1.000000000000,-0.256732000000,-0.013309400000,-0.567120000000,-0.051772200000,0.998659000000,0.000000000000,-0.021877200000,0.593987000000,-0.007944120000,0.664842000000,0.034466600000,0.746188000000,0.437705000000,0.020111300000,0.295160000000,0.037046100000,-0.999227000000,0.013147000000,0.002100520000,-0.061626700000,0.000750434000,0.311466000000,-0.000955170000,-0.950257000000,0.098603200000,0.004544580000,0.097209800000,0.034062300000,-0.999346000000,0.012169100000,0.000000000000,-0.000000000000,-0.000000000000,0.089797200000,-0.009066700000,-0.995919000000,0.038626700000,0,0,0,2000.000000000000,40.000000000000
1782250302.697276115417,0.512184297004,hold_measured_before,0.566976140491,0.566976890272,0.566976141002,0.000000749270,-0.007330740000,-0.022812000000,-0.014275700000,-0.036801800000,0.013678600000,-0.029477500000,-0.011630600000,0.024920000000,-0.005947790000,0.024079700000,0.000000106191,0.000000110022,0.000000230452,-0.000000883357,-0.000000054000,-0.000000038618,0.000000004164,-0.039908200000,0.013637100000,-0.027163600000,-0.011635400000,0.018648300000,-0.005941460000,0.028678100000,-0.039908200000,0.013637100000,-0.027163600000,-0.011635400000,0.018648300000,-0.005941460000,0.028678100000,-0.039908200000,0.013637100000,-0.027163600000,-0.011635400000,0.018648300000,-0.005941460000,0.028678100000,0.051800900000,0.728479000000,-0.019750400000,-2.096740000000,0.003137930000,2.914640000000,1.304570000000,0.000710866000,-0.000474356000,0.000184024000,0.000132849000,-0.001082240000,-0.000156414000,-0.001118720000,0.294748000000,-0.954924000000,0.035270800000,0.000000000000,-0.951347000000,-0.296712000000,-0.083077200000,0.000000000000,0.089797700000,-0.009067900000,-0.995919000000,0.000000000000,0.566977000000,0.017447000000,0.075923100000,1.000000000000,-0.017447000000,0.566977000000,0.000000000000,0.000000000000,0.000000000000,1.000000000000,-0.256732000000,-0.013310900000,-0.567120000000,-0.051777800000,0.998659000000,0.000000000000,-0.021880300000,0.593987000000,-0.007944350000,0.664843000000,0.034470300000,0.746188000000,0.437705000000,0.020113600000,0.295160000000,0.037050900000,-0.999227000000,0.013147700000,0.002101070000,-0.061626800000,0.000750560000,0.311466000000,-0.000954340000,-0.950257000000,0.098603200000,0.004545650000,0.097209900000,0.034071100000,-0.999345000000,0.012171100000,-0.000000000000,-0.000000000000,0.000000000000,0.089797700000,-0.009067900000,-0.995919000000,0.062107700000,0,0,0,2000.000000000000,40.000000000000
1782250302.717627048492,0.532535311002,hold_measured_before,0.566976140491,0.566977247112,0.566976140825,0.000001568990,-0.017584000000,0.026877800000,-0.033570900000,0.021905100000,0.034138900000,0.022657700000,-0.027951300000,-0.007342720000,-0.015773200000,-0.006309450000,-0.000000270802,-0.000000268479,-0.000000352559,-0.000001670990,-0.000000018826,0.000000006665,0.000000006072,0.020626800000,0.034121500000,0.023609200000,-0.027954600000,-0.009922810000,-0.015770600000,-0.004417720000,0.020626800000,0.034121500000,0.023609200000,-0.027954600000,-0.009922810000,-0.015770600000,-0.004417720000,0.020626800000,0.034121500000,0.023609200000,-0.027954600000,-0.009922810000,-0.015770600000,-0.004417720000,0.051798400000,0.728477000000,-0.019746800000,-2.096740000000,0.003142750000,2.914630000000,1.304570000000,-0.000398074000,-0.001194880000,-0.000689386000,0.000041142800,0.001000150000,0.000124224000,-0.001080840000,0.294740000000,-0.954926000000,0.035266400000,0.000000000000,-0.951349000000,-0.296704000000,-0.083077400000,0.000000000000,0.089796500000,-0.009064390000,-0.995919000000,0.000000000000,0.566978000000,0.017447500000,0.075924400000,1.000000000000,-0.017447500000,0.566978000000,0.000000000000,0.000000000000,0.000000000000,1.000000000000,-0.256731000000,-0.013310200000,-0.567121000000,-0.051775300000,0.998659000000,0.000000000000,-0.021880200000,0.593987000000,-0.007943100000,0.664841000000,0.034468600000,0.746189000000,0.437704000000,0.020112900000,0.295161000000,0.037051100000,-0.999227000000,0.013145300000,0.002100780000,-0.061626200000,0.000750308000,0.311470000000,-0.000951801000,-0.950256000000,0.098603300000,0.004544840000,0.097209800000,0.034066700000,-0.999345000000,0.012167200000,-0.000000000000,-0.000000000000,-0.000000000000,0.089796500000,-0.009064390000,-0.995919000000,0.057404500000,0,0,0,2000.000000000000,40.000000000000
1782250302.737671136856,0.552579319003,hold_measured_before,0.566976140491,0.566976151357,0.566976140714,0.000001106400,0.004843560000,-0.024987300000,0.014086800000,-0.011443200000,-0.019953100000,-0.017847500000,0.016971400000,-0.003200660000,0.012948300000,-0.003299960000,0.000000225872,-0.000000357822,0.000000265845,-0.000000633242,-0.000000046676,0.000000015521,0.000000003435,-0.011108600000,-0.019949000000,-0.018096300000,0.016971200000,-0.002525710000,0.012947600000,-0.003794870000,-0.011108600000,-0.019949000000,-0.018096300000,0.016971200000,-0.002525710000,0.012947600000,-0.003794870000,-0.011108600000,-0.019949000000,-0.018096300000,0.016971200000,-0.002525710000,0.012947600000,-0.003794870000,0.051800700000,0.728479000000,-0.019746600000,-2.096740000000,0.003143610000,2.914630000000,1.304570000000,-0.000010368600,0.000738307000,0.001009960000,0.000293087000,0.000577043000,-0.000957792000,0.000538557000,0.294744000000,-0.954925000000,0.035266000000,0.000000000000,-0.951348000000,-0.296707000000,-0.083076900000,0.000000000000,0.089796000000,-0.009063870000,-0.995919000000,0.000000000000,0.566977000000,0.017448800000,0.075923400000,1.000000000000,-0.017448800000,0.566977000000,0.000000000000,0.000000000000,0.000000000000,1.000000000000,-0.256732000000,-0.013310800000,-0.567120000000,-0.051777500000,0.998659000000,0.000000000000,-0.021881600000,0.593987000000,-0.007943060000,0.664842000000,0.034470100000,0.746188000000,0.437704000000,0.020114000000,0.295160000000,0.037053500000,-0.999227000000,0.013145100000,0.002100880000,-0.061626300000,0.000750286000,0.311468000000,-0.000950999000,-0.950256000000,0.098603300000,0.004544960000,0.097209700000,0.034068400000,-0.999345000000,0.012166800000,-0.000000000000,0.000000000000,0.000000000000,0.089796000000,-0.009063870000,-0.995919000000,0.036404400000,0,0,0,2000.000000000000,40.000000000000
1782250302.758639097214,0.573547312000,hold_measured_before,0.566976140491,0.566976449946,0.566976140640,0.000000010717,0.021682700000,-0.005758320000,0.009386500000,-0.001648470000,-0.028077600000,-0.003864770000,0.029463100000,-0.001839580000,0.020345700000,-0.001935370000,0.000000079828,-0.000000363605,0.000000041457,-0.000000272331,-0.000000029295,0.000000027953,0.000000002615,0.000422442000,-0.028050200000,-0.005407070000,0.029465500000,0.002341120000,0.020341500000,-0.005000700000,0.000422442000,-0.028050200000,-0.005407070000,0.029465500000,0.002341120000,0.020341500000,-0.005000700000,0.000422442000,-0.028050200000,-0.005407070000,0.029465500000,0.002341120000,0.020341500000,-0.005000700000,0.051799800000,0.728481000000,-0.019748700000,-2.096740000000,0.003141990000,2.914630000000,1.304570000000,-0.000108300000,-0.000417613000,0.000376913000,-0.001146890000,-0.000298286000,-0.001428290000,0.000676654000,0.294745000000,-0.954925000000,0.035267200000,0.000000000000,-0.951348000000,-0.296709000000,-0.083072900000,0.000000000000,0.089792400000,-0.009066070000,-0.995919000000,0.000000000000,0.566976000000,0.017447100000,0.075922000000,1.000000000000,-0.017447100000,0.566976000000,0.000000000000,0.000000000000,0.000000000000,1.000000000000,-0.256733000000,-0.013310600000,-0.567119000000,-0.051776700000,0.998659000000,0.000000000000,-0.021880200000,0.593987000000,-0.007943870000,0.664844000000,0.034469600000,0.746187000000,0.437705000000,0.020113300000,0.295159000000,0.037051000000,-0.999227000000,0.013146600000,0.002100820000,-0.061626300000,0.000750408000,0.311465000000,-0.000953303000,-0.950257000000,0.098603700000,0.004545070000,0.097209300000,0.034067400000,-0.999345000000,0.012168800000,-0.000000000000,0.000000000000,0.000000000000,0.089792400000,-0.009066070000,-0.995919000000,0.046137900000,0,0,0,2000.000000000000,40.000000000000
1782250302.779533386230,0.594441271001,hold_measured_before,0.566976140491,0.566976449946,0.566976140555,0.000000309357,0.004572100000,-0.033269000000,-0.002627980000,-0.032577400000,-0.000606125000,-0.029959000000,0.001741160000,0.015063900000,0.001241950000,0.013605400000,-0.000000763428,0.000000305701,-0.000000581801,-0.000001614690,-0.000000030945,-0.000000070228,0.000000003971,-0.038258500000,-0.000682013000,-0.025729000000,0.001732340000,0.003596100000,0.001253530000,0.022013700000,-0.038258500000,-0.000682013000,-0.025729000000,0.001732340000,0.003596100000,0.001253530000,0.022013700000,-0.038258500000,-0.000682013000,-0.025729000000,0.001732340000,0.003596100000,0.001253530000,0.022013700000,0.051802600000,0.728481000000,-0.019750400000,-2.096740000000,0.003141120000,2.914640000000,1.304570000000,0.001240080000,-0.000291743000,0.000153818000,-0.000394115000,-0.000372081000,-0.000064709800,-0.000002248370,0.294744000000,-0.954925000000,0.035269100000,0.000000000000,-0.951348000000,-0.296708000000,-0.083075600000,0.000000000000,0.089795600000,-0.009067130000,-0.995919000000,0.000000000000,0.566976000000,0.017447700000,0.075922300000,1.000000000000,-0.017447700000,0.566976000000,0.000000000000,0.000000000000,0.000000000000,1.000000000000,-0.256733000000,-0.013311300000,-0.567119000000,-0.051779400000,0.998659000000,0.000000000000,-0.021881100000,0.593987000000,-0.007944500000,0.664844000000,0.034471500000,0.746187000000,0.437705000000,0.020114300000,0.295159000000,0.037052500000,-0.999227000000,0.013147700000,0.002100980000,-0.061626700000,0.000750499000,0.311465000000,-0.000953899000,-0.950257000000,0.098603400000,0.004545430000,0.097209700000,0.034069800000,-0.999345000000,0.012170200000,0.000000000000,0.000000000000,0.000000000000,0.089795600000,-0.009067130000,-0.995919000000,0.051266600000,0,0,0,2000.000000000000,40.000000000000
1782250302.799602985382,0.614510378000,hold_measured_before,0.566976140491,0.566976695791,0.566976140534,0.000001629520,-0.027109600000,0.063607100000,-0.016294400000,0.065028600000,0.029983300000,0.065711400000,-0.029779400000,-0.028535500000,-0.018405300000,-0.027779200000,-0.000001128820,-0.000003941890,-0.000001119180,-0.000001508380,-0.000000093238,0.000000261743,0.000000011388,0.063659700000,0.029961000000,0.066729000000,-0.029782700000,-0.031296900000,-0.018402200000,-0.025754600000,0.063659700000,0.029961000000,0.066729000000,-0.029782700000,-0.031296900000,-0.018402200000,-0.025754600000,0.063659700000,0.029961000000,0.066729000000,-0.029782700000,-0.031296900000,-0.018402200000,-0.025754600000,0.051799500000,0.728483000000,-0.019753600000,-2.096730000000,0.003143620000,2.914640000000,1.304570000000,-0.000128463000,0.000058225100,-0.002209130000,0.001110050000,0.001021680000,0.000736507000,0.000823614000,0.294738000000,-0.954927000000,0.035271500000,0.000000000000,-0.951349000000,-0.296702000000,-0.083078800000,0.000000000000,0.089799300000,-0.009069040000,-0.995919000000,0.000000000000,0.566978000000,0.017444000000,0.075922200000,1.000000000000,-0.017444000000,0.566978000000,0.000000000000,0.000000000000,0.000000000000,1.000000000000,-0.256733000000,-0.013310500000,-0.567120000000,-0.051776300000,0.998659000000,0.000000000000,-0.021877800000,0.593987000000,-0.007945880000,0.664845000000,0.034469500000,0.746185000000,0.437705000000,0.020112600000,0.295160000000,0.037047200000,-0.999227000000,0.013149900000,0.002100510000,-0.061627000000,0.000750586000,0.311466000000,-0.000957557000,-0.950257000000,0.098603000000,0.004544780000,0.097210000000,0.034062000000,-0.999346000000,0.012171500000,0.000000000000,-0.000000000000,0.000000000000,0.089799300000,-0.009069040000,-0.995919000000,0.110776000000,0,0,0,2000.000000000000,40.000000000000
1782250302.820529460907,0.635437060999,hold_measured_before,0.566976140491,0.566976236696,0.566976140534,0.000000555257,-0.017157800000,0.062400800000,-0.031682300000,0.043059100000,0.029514800000,0.047178500000,-0.023568600000,-0.009195580000,-0.012475000000,-0.006925970000,-0.000000823957,0.000000300316,-0.000001486760,-0.000005127770,-0.000000056731,-0.000000113007,0.000000012163,0.050093300000,0.029609400000,0.041937400000,-0.023564800000,0.005007300000,-0.012489600000,-0.017339700000,0.050093300000,0.029609400000,0.041937400000,-0.023564800000,0.005007300000,-0.012489600000,-0.017339700000,0.050093300000,0.029609400000,0.041937400000,-0.023564800000,0.005007300000,-0.012489600000,-0.017339700000,0.051796700000,0.728481000000,-0.019752500000,-2.096740000000,0.003142750000,2.914640000000,1.304570000000,-0.001579020000,-0.001344310000,-0.000827925000,0.000129869000,-0.000352494000,-0.000463520000,-0.000965989000,0.294737000000,-0.954927000000,0.035270300000,0.000000000000,-0.951350000000,-0.296701000000,-0.083076300000,0.000000000000,0.089796600000,-0.009068770000,-0.995919000000,0.000000000000,0.566977000000,0.017443100000,0.075922400000,1.000000000000,-0.017443100000,0.566977000000,0.000000000000,0.000000000000,0.000000000000,1.000000000000,-0.256733000000,-0.013309800000,-0.567119000000,-0.051773600000,0.998659000000,0.000000000000,-0.021876600000,0.593987000000,-0.007945390000,0.664844000000,0.034467600000,0.746187000000,0.437705000000,0.020111500000,0.295159000000,0.037045200000,-0.999227000000,0.013149100000,0.002100440000,-0.061626800000,0.000750555000,0.311465000000,-0.000957510000,-0.950257000000,0.098603300000,0.004544630000,0.097209800000,0.034060800000,-0.999346000000,0.012171100000,0.000000000000,0.000000000000,0.000000000000,0.089796600000,-0.009068770000,-0.995919000000,0.078624600000,0,0,0,2000.000000000000,40.000000000000
1782250302.841589450836,0.656497764001,hold_measured_before,0.566976140491,0.566976203563,0.566976140519,0.000000096177,-0.002739810000,0.035109400000,0.001137640000,0.041080200000,-0.001350520000,0.037746300000,0.001037870000,-0.021724800000,0.001169690000,-0.020882800000,-0.000000307568,0.000000129942,-0.000000241062,-0.000001308030,-0.000000043075,-0.000000041999,0.000000003527,0.046199800000,-0.001281720000,0.033932700000,0.001043050000,-0.011388300000,0.001159150000,-0.028461600000,0.046199800000,-0.001281720000,0.033932700000,0.001043050000,-0.011388300000,0.001159150000,-0.028461600000,0.046199800000,-0.001281720000,0.033932700000,0.001043050000,-0.011388300000,0.001159150000,-0.028461600000,0.051799300000,0.728481000000,-0.019750500000,-2.096740000000,0.003139150000,2.914640000000,1.304570000000,-0.000832518000,0.000161467000,-0.000544757000,0.000223605000,0.000179626000,-0.000198298000,0.001240000000,0.294746000000,-0.954925000000,0.035269600000,0.000000000000,-0.951348000000,-0.296710000000,-0.083073700000,0.000000000000,0.089794000000,-0.009068000000,-0.995919000000,0.000000000000,0.566976000000,0.017445900000,0.075922000000,1.000000000000,-0.017445900000,0.566976000000,0.000000000000,0.000000000000,0.000000000000,1.000000000000,-0.256733000000,-0.013310500000,-0.567119000000,-0.051776100000,0.998659000000,0.000000000000,-0.021879200000,0.593987000000,-0.007944460000,0.664844000000,0.034469300000,0.746187000000,0.437705000000,0.020112900000,0.295159000000,0.037049200000,-0.999227000000,0.013147800000,0.002100880000,-0.061626500000,0.000750539000,0.311464000000,-0.000955030000,-0.950257000000,0.098603500000,0.004545350000,0.097209500000,0.034068300000,-0.999345000000,0.012170900000,0.000000000000,0.000000000000,0.000000000000,0.089794000000,-0.009068000000,-0.995919000000,0.065036000000,0,0,0,2000.000000000000,40.000000000000
1782250302.862176179886,0.677084447001,hold_measured_before,0.566976140491,0.566976203563,0.566976140509,0.000000063054,-0.012133100000,0.018687600000,-0.033773100000,0.016579400000,0.028794000000,0.016694800000,-0.021617200000,-0.006451240000,-0.011117200000,-0.005740550000,-0.000000015758,0.000000317765,-0.000000169299,-0.000002082180,-0.000000054949,-0.000000023149,0.000000005675,0.016873400000,0.028798300000,0.016475700000,-0.021618900000,-0.005857740000,-0.011117800000,-0.006175740000,0.016873400000,0.028798300000,0.016475700000,-0.021618900000,-0.005857740000,-0.011117800000,-0.006175740000,0.016873400000,0.028798300000,0.016475700000,-0.021618900000,-0.005857740000,-0.011117800000,-0.006175740000,0.051799700000,0.728481000000,-0.019748900000,-2.096740000000,0.003142750000,2.914640000000,1.304570000000,-0.000340566000,-0.001664240000,-0.000400742000,-0.000183146000,0.000467664000,-0.000635072000,-0.000375125000,0.294744000000,-0.954925000000,0.035267400000,0.000000000000,-0.951348000000,-0.296708000000,-0.083074000000,0.000000000000,0.089793600000,-0.009065960000,-0.995919000000,0.000000000000,0.566976000000,0.017446900000,0.075922000000,1.000000000000,-0.017446900000,0.566976000000,0.000000000000,0.000000000000,0.000000000000,1.000000000000,-0.256733000000,-0.013310600000,-0.567119000000,-0.051776500000,0.998659000000,0.000000000000,-0.021880000000,0.593987000000,-0.007943950000,0.664844000000,0.034469500000,0.746187000000,0.437705000000,0.020113300000,0.295159000000,0.037050800000,-0.999227000000,0.013146700000,0.002100770000,-0.061626500000,0.000750401000,0.311464000000,-0.000953467000,-0.950257000000,0.098603600000,0.004544960000,0.097209500000,0.034066500000,-0.999345000000,0.012168600000,-0.000000000000,-0.000000000000,0.000000000000,0.089793600000,-0.009065960000,-0.995919000000,0.045265100000,0,0,0,2000.000000000000,40.000000000000
1782250302.883188247681,0.698096405999,hold_measured_before,0.566976140491,0.566977300992,0.566976140503,0.000001160490,-0.022777800000,0.024398800000,-0.007720700000,0.006529620000,0.016943700000,0.016673000000,-0.019063100000,0.009082370000,-0.010215900000,0.008560570000,-0.000000714017,-0.000000910248,-0.000000750324,-0.000000672237,-0.000000030234,0.000000002457,0.000000002577,0.008889450000,0.016974400000,0.014914100000,-0.019060800000,0.013848000000,-0.010220700000,0.005066390000,0.008889450000,0.016974400000,0.014914100000,-0.019060800000,0.013848000000,-0.010220700000,0.005066390000,0.008889450000,0.016974400000,0.014914100000,-0.019060800000,0.013848000000,-0.010220700000,0.005066390000,0.051801500000,0.728482000000,-0.019750400000,-2.096730000000,0.003140210000,2.914630000000,1.304570000000,-0.000068605700,0.000394487000,-0.001174220000,0.001357560000,-0.001808220000,-0.000046667500,-0.000168570000,0.294746000000,-0.954925000000,0.035269000000,0.000000000000,-0.951347000000,-0.296710000000,-0.083073400000,0.000000000000,0.089793500000,-0.009067530000,-0.995919000000,0.000000000000,0.566977000000,0.017447200000,0.075922000000,1.000000000000,-0.017447200000,0.566977000000,0.000000000000,0.000000000000,0.000000000000,1.000000000000,-0.256733000000,-0.013311100000,-0.567120000000,-0.051778400000,0.998659000000,0.000000000000,-0.021880500000,0.593987000000,-0.007944480000,0.664845000000,0.034470800000,0.746186000000,0.437705000000,0.020113900000,0.295160000000,0.037051500000,-0.999227000000,0.013147800000,0.002100950000,-0.061626200000,0.000750511000,0.311467000000,-0.000954165000,-0.950257000000,0.098603600000,0.004545440000,0.097209400000,0.034069600000,-0.999345000000,0.012170500000,0.000000000000,0.000000000000,-0.000000000000,0.089793500000,-0.009067530000,-0.995919000000,0.035704300000,0,0,0,2000.000000000000,40.000000000000
1782250302.903550624847,0.718458732001,hold_measured_before,0.566976140491,0.566976282878,0.566976140499,0.000001053350,-0.024200900000,0.025232000000,-0.031911400000,0.030536400000,0.042522600000,0.027592300000,-0.037841200000,-0.016956300000,-0.023725500000,-0.015994400000,-0.000000578777,-0.000000747342,-0.000000643414,-0.000001159980,0.000000013884,0.000000041418,0.000000005219,0.031872800000,0.042539800000,0.026595800000,-0.037840600000,-0.014257000000,-0.023728200000,-0.017973600000,0.031872800000,0.042539800000,0.026595800000,-0.037840600000,-0.014257000000,-0.023728200000,-0.017973600000,0.031872800000,0.042539800000,0.026595800000,-0.037840600000,-0.014257000000,-0.023728200000,-0.017973600000,0.051796800000,0.728481000000,-0.019750400000,-2.096740000000,0.003143410000,2.914640000000,1.304570000000,-0.000402250000,-0.000923372000,-0.000393582000,0.000480286000,0.000742615000,0.000891296000,0.000581980000,0.294740000000,-0.954927000000,0.035268700000,0.000000000000,-0.951349000000,-0.296704000000,-0.083075900000,0.000000000000,0.089795700000,-0.009067120000,-0.995919000000,0.000000000000,0.566977000000,0.017444400000,0.075922600000,1.000000000000,-0.017444400000,0.566977000000,0.000000000000,0.000000000000,0.000000000000,1.000000000000,-0.256733000000,-0.013309800000,-0.567120000000,-0.051773700000,0.998659000000,0.000000000000,-0.021877600000,0.593987000000,-0.007944590000,0.664844000000,0.034467600000,0.746187000000,0.437705000000,0.020111800000,0.295160000000,0.037046800000,-0.999227000000,0.013147700000,0.002100490000,-0.061626500000,0.000750452000,0.311466000000,-0.000955610000,-0.950257000000,0.098603400000,0.004544580000,0.097209700000,0.034061900000,-0.999346000000,0.012169500000,0.000000000000,-0.000000000000,-0.000000000000,0.089795700000,-0.009067120000,-0.995919000000,0.077808100000,0,0,0,2000.000000000000,40.000000000000
1782250302.923587560654,0.738495565005,hold_measured_before,0.566976140491,0.566975045217,0.566976140495,0.000000142382,0.029877500000,-0.009130810000,0.047294500000,-0.008601100000,-0.059520400000,-0.008617450000,0.051959900000,0.003849880000,0.032610600000,0.003235990000,-0.000000639742,-0.000001316960,-0.000000820587,-0.000001983270,-0.000000010325,0.000000092200,0.000000008268,-0.009780800000,-0.059537600000,-0.007740110000,0.051956500000,0.001469480000,0.032613100000,0.004981310000,-0.009780800000,-0.059537600000,-0.007740110000,0.051956500000,0.001469480000,0.032613100000,0.004981310000,-0.009780800000,-0.059537600000,-0.007740110000,0.051956500000,0.001469480000,0.032613100000,0.004981310000,0.051802200000,0.728484000000,-0.019752500000,-2.096740000000,0.003139550000,2.914640000000,1.304570000000,0.000438891000,0.001531950000,0.000072684600,-0.000567224000,-0.000339516000,-0.001039660000,0.000432928000,0.294744000000,-0.954925000000,0.035270100000,0.000000000000,-0.951348000000,-0.296708000000,-0.083072100000,0.000000000000,0.089792500000,-0.009069180000,-0.995919000000,0.000000000000,0.566976000000,0.017446400000,0.075920900000,1.000000000000,-0.017446400000,0.566976000000,0.000000000000,0.000000000000,0.000000000000,1.000000000000,-0.256734000000,-0.013311300000,-0.567119000000,-0.051779100000,0.998659000000,0.000000000000,-0.021880100000,0.593987000000,-0.007945280000,0.664846000000,0.034471300000,0.746185000000,0.437706000000,0.020113900000,0.295159000000,0.037050700000,-0.999227000000,0.013149100000,0.002100950000,-0.061626400000,0.000750614000,0.311464000000,-0.000955876000,-0.950258000000,0.098603700000,0.004545590000,0.097209300000,0.034069400000,-0.999345000000,0.012172100000,-0.000000000000,0.000000000000,0.000000000000,0.089792500000,-0.009069180000,-0.995919000000,0.086546800000,0,0,0,2000.000000000000,40.000000000000
1782250302.943839311600,0.758748338005,hold_measured_before,0.566976140491,0.566975638622,0.566976140494,-0.000001095280,0.029342600000,-0.033419300000,0.046982200000,-0.037960200000,-0.061224500000,-0.035223600000,0.053293700000,0.019947700000,0.034583300000,0.018727500000,-0.000001040800,-0.000000280824,-0.000001465460,-0.000003532750,0.000000014950,-0.000000023033,0.000000012834,-0.042083300000,-0.061280100000,-0.032155000000,0.053284900000,0.011625900000,0.034591700000,0.024829200000,-0.042083300000,-0.061280100000,-0.032155000000,0.053284900000,0.011625900000,0.034591700000,0.024829200000,-0.042083300000,-0.061280100000,-0.032155000000,0.053284900000,0.011625900000,0.034591700000,0.024829200000,0.051799900000,0.728484000000,-0.019750400000,-2.096740000000,0.003139560000,2.914630000000,1.304570000000,0.001038700000,0.001456020000,0.000488288000,-0.000243986000,-0.000735497000,-0.001702210000,-0.000237316000,0.294744000000,-0.954925000000,0.035267400000,0.000000000000,-0.951349000000,-0.296708000000,-0.083067200000,0.000000000000,0.089787100000,-0.009068100000,-0.995920000000,0.000000000000,0.566975000000,0.017446200000,0.075919600000,1.000000000000,-0.017446200000,0.566975000000,0.000000000000,0.000000000000,0.000000000000,1.000000000000,-0.256736000000,-0.013310800000,-0.567118000000,-0.051776700000,0.998659000000,0.000000000000,-0.021879600000,0.593987000000,-0.007944480000,0.664846000000,0.034469800000,0.746184000000,0.437707000000,0.020113200000,0.295157000000,0.037049900000,-0.999227000000,0.013147800000,0.002100890000,-0.061626100000,0.000750527000,0.311461000000,-0.000954940000,-0.950258000000,0.098604200000,0.004545390000,0.097208800000,0.034068600000,-0.999345000000,0.012170700000,-0.000000000000,-0.000000000000,0.000000000000,0.089787100000,-0.009068100000,-0.995920000000,0.106526000000,0,0,0,2000.000000000000,40.000000000000
1782250302.964719772339,0.779630063000,hold_measured_before,0.566976140491,0.566976661569,0.566976140493,-0.000000501872,0.020273800000,0.014634600000,0.024559100000,0.010859800000,-0.027821600000,0.012014100000,0.024908200000,-0.002633200000,0.012932900000,-0.002548550000,-0.000000416540,-0.000001462730,-0.000000477836,-0.000000008994,0.000000023153,0.000000105046,0.000000001050,0.008428580000,-0.027855700000,0.013824000000,0.024905100000,-0.007540620000,0.012938000000,0.001049620000,0.008428580000,-0.027855700000,0.013824000000,0.024905100000,-0.007540620000,0.012938000000,0.001049620000,0.008428580000,-0.027855700000,0.013824000000,0.024905100000,-0.007540620000,0.012938000000,0.001049620000,0.051797300000,0.728484000000,-0.019753600000,-2.096740000000,0.003141990000,2.914640000000,1.304570000000,0.000425672000,0.000593033000,-0.000582001000,-0.000852420000,0.000114382000,0.000386016000,0.000223763000,0.294738000000,-0.954927000000,0.035270000000,0.000000000000,-0.951350000000,-0.296702000000,-0.083071200000,0.000000000000,0.089791600000,-0.009069910000,-0.995919000000,0.000000000000,0.566976000000,0.017442700000,0.075920400000,1.000000000000,-0.017442700000,0.566976000000,0.000000000000,0.000000000000,0.000000000000,1.000000000000,-0.256735000000,-0.013310100000,-0.567118000000,-0.051774100000,0.998659000000,0.000000000000,-0.021876500000,0.593987000000,-0.007945810000,0.664846000000,0.034468000000,0.746185000000,0.437706000000,0.020111600000,0.295158000000,0.037044900000,-0.999227000000,0.013149900000,0.002100460000,-0.061626600000,0.000750614000,0.311462000000,-0.000958448000,-0.950258000000,0.098603800000,0.004544780000,0.097209300000,0.034061300000,-0.999346000000,0.012172100000,-0.000000000000,-0.000000000000,-0.000000000000,0.089791600000,-0.009069910000,-0.995919000000,0.043401700000,0,0,0,2000.000000000000,40.000000000000
1782250302.985649108887,0.800559531999,hold_measured_before,0.566976140491,0.566975906808,0.566976140493,0.000000521077,-0.002528650000,-0.014119700000,0.009147110000,-0.018814900000,-0.004924850000,-0.015547600000,0.001719580000,0.011641400000,0.000992515000,0.010945100000,-0.000000008226,0.000000204134,0.000000027540,-0.000000420528,-0.000000011397,-0.000000024965,0.000000001752,-0.016135100000,-0.004888700000,-0.017543400000,0.001722560000,0.017051600000,0.000986994000,0.006978300000,-0.016135100000,-0.004888700000,-0.017543400000,0.001722560000,0.017051600000,0.000986994000,0.006978300000,-0.016135100000,-0.004888700000,-0.017543400000,0.001722560000,0.017051600000,0.000986994000,0.006978300000,0.051801300000,0.728483000000,-0.019748300000,-2.096740000000,0.003140630000,2.914640000000,1.304570000000,0.000010913200,0.000637920000,0.000358101000,0.000454769000,-0.001382010000,0.000129945000,0.000240852000,0.294743000000,-0.954925000000,0.035267700000,0.000000000000,-0.951348000000,-0.296707000000,-0.083075600000,0.000000000000,0.089795200000,-0.009065860000,-0.995919000000,0.000000000000,0.566977000000,0.017448300000,0.075921600000,1.000000000000,-0.017448300000,0.566977000000,0.000000000000,0.000000000000,0.000000000000,1.000000000000,-0.256734000000,-0.013311000000,-0.567120000000,-0.051778200000,0.998659000000,0.000000000000,-0.021881300000,0.593987000000,-0.007943670000,0.664845000000,0.034470700000,0.746185000000,0.437705000000,0.020114100000,0.295159000000,0.037052900000,-0.999227000000,0.013146300000,0.002101030000,-0.061626700000,0.000750424000,0.311464000000,-0.000952500000,-0.950257000000,0.098603400000,0.004545390000,0.097209600000,0.034070600000,-0.999345000000,0.012169000000,-0.000000000000,0.000000000000,0.000000000000,0.089795200000,-0.009065860000,-0.995919000000,0.030584400000,0,0,0,2000.000000000000,40.000000000000
1782250303.005720615387,0.820632084004,hold_measured_before,0.566976140491,0.566976387205,0.566976140492,-0.000000233684,0.006438930000,-0.004471000000,0.014334300000,-0.021499500000,-0.010263300000,-0.014993800000,0.007207870000,0.019150300000,0.002266080000,0.019048600000,0.000000008033,-0.000000114186,0.000000011312,-0.000000287209,-0.000000022510,-0.000000001877,0.000000001050,-0.021896900000,-0.010268700000,-0.014697800000,0.007207080000,0.018348100000,0.002266890000,0.019636800000,-0.021896900000,-0.010268700000,-0.014697800000,0.007207080000,0.018348100000,0.002266890000,0.019636800000,-0.021896900000,-0.010268700000,-0.014697800000,0.007207080000,0.018348100000,0.002266890000,0.019636800000,0.051799900000,0.728484000000,-0.019750400000,-2.096740000000,0.003141510000,2.914640000000,1.304570000000,0.000112814000,0.000582270000,0.000090342700,-0.000141261000,-0.000990683000,0.000690203000,-0.001229570000,0.294746000000,-0.954925000000,0.035269100000,0.000000000000,-0.951347000000,-0.296710000000,-0.083074400000,0.000000000000,0.089794500000,-0.009067370000,-0.995919000000,0.000000000000,0.566976000000,0.017446200000,0.075920700000,1.000000000000,-0.017446200000,0.566976000000,0.000000000000,0.000000000000,0.000000000000,1.000000000000,-0.256734000000,-0.013310700000,-0.567119000000,-0.051776800000,0.998659000000,0.000000000000,-0.021879500000,0.593987000000,-0.007944540000,0.664846000000,0.034469800000,0.746185000000,0.437706000000,0.020113200000,0.295158000000,0.037049900000,-0.999227000000,0.013147800000,0.002100800000,-0.061626900000,0.000750497000,0.311462000000,-0.000954873000,-0.950258000000,0.098603500000,0.004545130000,0.097209500000,0.034066800000,-0.999345000000,0.012170100000,-0.000000000000,0.000000000000,-0.000000000000,0.089794500000,-0.009067370000,-0.995919000000,0.039752800000,0,0,0,2000.000000000000,40.000000000000
1782250303.025694608688,0.840603118006,hold_measured_before,0.566976140491,0.566977910822,0.566976140492,0.000000246713,-0.003098190000,-0.018160500000,-0.000505314000,-0.031366500000,0.004021440000,-0.026138600000,-0.004852930000,0.021297800000,-0.003400350000,0.021046200000,0.000000098206,-0.000000011406,0.000000094912,-0.000000323832,-0.000000020615,-0.000000008218,0.000000001337,-0.033861400000,0.003987960000,-0.024280200000,-0.004856420000,0.016260700000,-0.003395240000,0.024739500000,-0.033861400000,0.003987960000,-0.024280200000,-0.004856420000,0.016260700000,-0.003395240000,0.024739500000,-0.033861400000,0.003987960000,-0.024280200000,-0.004856420000,0.016260700000,-0.003395240000,0.024739500000,0.051800600000,0.728483000000,-0.019748600000,-2.096740000000,0.003140770000,2.914640000000,1.304570000000,0.000328862000,0.000069136400,0.000364713000,0.000161111000,-0.000512130000,0.000275282000,-0.001545780000,0.294747000000,-0.954924000000,0.035268100000,0.000000000000,-0.951347000000,-0.296711000000,-0.083074800000,0.000000000000,0.089794500000,-0.009066160000,-0.995919000000,0.000000000000,0.566976000000,0.017447700000,0.075921400000,1.000000000000,-0.017447700000,0.566976000000,0.000000000000,0.000000000000,0.000000000000,1.000000000000,-0.256734000000,-0.013310900000,-0.567119000000,-0.051777400000,0.998659000000,0.000000000000,-0.021880700000,0.593987000000,-0.007943800000,0.664845000000,0.034470200000,0.746185000000,0.437705000000,0.020113700000,0.295159000000,0.037051900000,-0.999227000000,0.013146600000,0.002100960000,-0.061626700000,0.000750435000,0.311464000000,-0.000953042000,-0.950258000000,0.098603500000,0.004545300000,0.097209600000,0.034069400000,-0.999345000000,0.012169100000,-0.000000000000,-0.000000000000,0.000000000000,0.089794500000,-0.009066160000,-0.995919000000,0.051609900000,0,0,0,2000.000000000000,40.000000000000
1782250303.046559810638,0.861468159004,hold_measured_before,0.566976140491,0.566976998266,0.566976140492,0.000001770330,-0.004621910000,0.034382400000,0.015444300000,0.030736100000,-0.002677920000,0.035484500000,-0.002126610000,-0.009659070000,-0.004192810000,-0.010284100000,0.000000495255,-0.000002685650,-0.000000010527,0.000000145985,-0.000000152662,0.000000192457,0.000000003699,0.026536600000,-0.002736960000,0.038612600000,-0.002131800000,-0.018138500000,-0.004184000000,-0.004066960000,0.026536600000,-0.002736960000,0.038612600000,-0.002131800000,-0.018138500000,-0.004184000000,-0.004066960000,0.026536600000,-0.002736960000,0.038612600000,-0.002131800000,-0.018138500000,-0.004184000000,-0.004066960000,0.051801500000,0.728482000000,-0.019755200000,-2.096730000000,0.003141990000,2.914640000000,1.304570000000,0.000775669000,0.001228630000,-0.001929160000,0.000379590000,-0.000030239200,0.001497920000,0.000768495000,0.294737000000,-0.954927000000,0.035272600000,0.000000000000,-0.951350000000,-0.296702000000,-0.083077900000,0.000000000000,0.089798800000,-0.009070430000,-0.995919000000,0.000000000000,0.566978000000,0.017444300000,0.075922500000,1.000000000000,-0.017444300000,0.566978000000,0.000000000000,0.000000000000,0.000000000000,1.000000000000,-0.256733000000,-0.013311000000,-0.567121000000,-0.051778300000,0.998659000000,0.000000000000,-0.021878300000,0.593987000000,-0.007946450000,0.664845000000,0.034470800000,0.746186000000,0.437704000000,0.020113200000,0.295160000000,0.037047900000,-0.999227000000,0.013150900000,0.002100650000,-0.061626800000,0.000750681000,0.311467000000,-0.000958301000,-0.950257000000,0.098603100000,0.004545170000,0.097210000000,0.034064300000,-0.999346000000,0.012173100000,0.000000000000,0.000000000000,-0.000000000000,0.089798800000,-0.009070430000,-0.995919000000,0.050697300000,0,0,0,2000.000000000000,40.000000000000
1782250303.066654205322,0.881561950999,hold_measured_before,0.566976140491,0.566976407960,0.566976140491,0.000000857774,0.012179900000,-0.016624400000,-0.006053430000,-0.035150800000,-0.004550850000,-0.031171800000,0.007997080000,0.024422200000,0.005357850000,0.025204600000,0.000000665776,-0.000001457050,0.000000396398,0.000000389512,-0.000000082856,0.000000115423,0.000000001981,-0.031975900000,-0.004509730000,-0.033535600000,0.008001490000,0.030830700000,0.005351450000,0.020505800000,-0.031975900000,-0.004509730000,-0.033535600000,0.008001490000,0.030830700000,0.005351450000,0.020505800000,-0.031975900000,-0.004509730000,-0.033535600000,0.008001490000,0.030830700000,0.005351450000,0.020505800000,0.051800600000,0.728475000000,-0.019748900000,-2.096740000000,0.003141130000,2.914640000000,1.304570000000,-0.000672054000,-0.000618075000,0.001254490000,-0.001084820000,-0.000908978000,-0.000137971000,-0.002082760000,0.294745000000,-0.954925000000,0.035269400000,0.000000000000,-0.951347000000,-0.296709000000,-0.083080100000,0.000000000000,0.089800000000,-0.009065950000,-0.995919000000,0.000000000000,0.566977000000,0.017447500000,0.075924700000,1.000000000000,-0.017447500000,0.566977000000,0.000000000000,0.000000000000,0.000000000000,1.000000000000,-0.256730000000,-0.013310700000,-0.567120000000,-0.051777400000,0.998659000000,0.000000000000,-0.021880500000,0.593987000000,-0.007943840000,0.664840000000,0.034469900000,0.746190000000,0.437704000000,0.020113600000,0.295161000000,0.037051600000,-0.999227000000,0.013146600000,0.002100930000,-0.061626900000,0.000750432000,0.311468000000,-0.000953012000,-0.950256000000,0.098602900000,0.004545220000,0.097210100000,0.034068800000,-0.999345000000,0.012169100000,0.000000000000,0.000000000000,0.000000000000,0.089800000000,-0.009065950000,-0.995919000000,0.060258700000,0,0,0,2000.000000000000,40.000000000000
1782250303.087646484375,0.902554380998,hold_measured_before,0.566976140491,0.566975836181,0.566976140491,0.000000267469,0.000363511000,0.027264000000,-0.007556690000,0.043525500000,0.002536990000,0.040004200000,0.000076065400,-0.027027900000,0.000984118000,-0.027565000000,-0.000000018775,-0.000000706589,0.000000058015,-0.000000087336,0.000000006054,0.000000043780,0.000000001039,0.046076100000,0.002570500000,0.038104500000,0.000079214300,-0.021878300000,0.000978928000,-0.031340700000,0.046076100000,0.002570500000,0.038104500000,0.000079214300,-0.021878300000,0.000978928000,-0.031340700000,0.046076100000,0.002570500000,0.038104500000,0.000079214300,-0.021878300000,0.000978928000,-0.031340700000,0.051798500000,0.728481000000,-0.019752800000,-2.096740000000,0.003141990000,2.914640000000,1.304570000000,0.000208902000,-0.000512159000,-0.001088550000,-0.000304318000,-0.000289488000,-0.000408814000,0.003160700000,0.294735000000,-0.954928000000,0.035269900000,0.000000000000,-0.951351000000,-0.296699000000,-0.083074700000,0.000000000000,0.089794900000,-0.009069040000,-0.995919000000,0.000000000000,0.566976000000,0.017443900000,0.075922200000,1.000000000000,-0.017443900000,0.566976000000,0.000000000000,0.000000000000,0.000000000000,1.000000000000,-0.256733000000,-0.013310300000,-0.567119000000,-0.051775300000,0.998659000000,0.000000000000,-0.021877600000,0.593987000000,-0.007945460000,0.664844000000,0.034468700000,0.746187000000,0.437705000000,0.020112200000,0.295159000000,0.037046700000,-0.999227000000,0.013149300000,0.002100570000,-0.061626600000,0.000750578000,0.311465000000,-0.000957212000,-0.950257000000,0.098603500000,0.004544900000,0.097209600000,0.034063100000,-0.999346000000,0.012171500000,0.000000000000,-0.000000000000,0.000000000000,0.089794900000,-0.009069040000,-0.995919000000,0.071017200000,0,0,0,2000.000000000000,40.000000000000
1782250303.108568906784,0.923477504999,hold_measured_before,0.566976140491,0.566977357411,0.566976140491,-0.000000304310,0.002458700000,0.048020300000,0.011665000000,0.050109200000,-0.012433700000,0.048033800000,0.010277000000,-0.023461800000,0.006352610000,-0.022428200000,-0.000000109758,-0.000000009279,0.000000011016,-0.000002017170,-0.000000095890,-0.000000044321,0.000000006274,0.055260800000,-0.012364600000,0.044196800000,0.010281600000,-0.013061200000,0.006342000000,-0.030054000000,0.055260800000,-0.012364600000,0.044196800000,0.010281600000,-0.013061200000,0.006342000000,-0.030054000000,0.055260800000,-0.012364600000,0.044196800000,0.010281600000,-0.013061200000,0.006342000000,-0.030054000000,0.051800500000,0.728484000000,-0.019754400000,-2.096740000000,0.003141990000,2.914630000000,1.304570000000,-0.000857648000,0.000394049000,-0.000914589000,0.000109635000,0.000084307800,-0.000286207000,0.001238260000,0.294741000000,-0.954926000000,0.035269600000,0.000000000000,-0.951350000000,-0.296705000000,-0.083067700000,0.000000000000,0.089788200000,-0.009070320000,-0.995920000000,0.000000000000,0.566976000000,0.017444100000,0.075920200000,1.000000000000,-0.017444100000,0.566976000000,0.000000000000,0.000000000000,0.000000000000,1.000000000000,-0.256735000000,-0.013310900000,-0.567119000000,-0.051777400000,0.998659000000,0.000000000000,-0.021878100000,0.593987000000,-0.007946130000,0.664846000000,0.034470200000,0.746184000000,0.437706000000,0.020113000000,0.295158000000,0.037047600000,-0.999227000000,0.013150400000,0.002100600000,-0.061626000000,0.000750640000,0.311463000000,-0.000958063000,-0.950258000000,0.098604100000,0.004545110000,0.097208900000,0.034064000000,-0.999346000000,0.012172600000,-0.000000000000,-0.000000000000,-0.000000000000,0.089788200000,-0.009070320000,-0.995920000000,0.079873500000,0,0,0,2000.000000000000,40.000000000000
1782250303.128692150116,0.943600013001,hold_measured_before,0.566976140491,0.566974421477,0.566976140491,0.000001216920,-0.010928600000,-0.068755400000,-0.021172100000,-0.074301300000,0.024996600000,-0.067154800000,-0.022144300000,0.037677400000,-0.013140800000,0.035207000000,0.000000323476,0.000000582601,0.000000756306,-0.000005204900,-0.000000290222,-0.000000178668,0.000000019575,-0.080154200000,0.024918700000,-0.062794600000,-0.022156900000,0.025860100000,-0.013129000000,0.043871300000,-0.080154200000,0.024918700000,-0.062794600000,-0.022156900000,0.025860100000,-0.013129000000,0.043871300000,-0.080154200000,0.024918700000,-0.062794600000,-0.022156900000,0.025860100000,-0.013129000000,0.043871300000,0.051805300000,0.728480000000,-0.019749400000,-2.096740000000,0.003136510000,2.914640000000,1.304570000000,0.001619990000,-0.000687845000,0.000915278000,0.000113267000,-0.001609780000,0.000384184000,-0.000574603000,0.294755000000,-0.954922000000,0.035270700000,0.000000000000,-0.951344000000,-0.296719000000,-0.083077700000,0.000000000000,0.089798200000,-0.009067060000,-0.995919000000,0.000000000000,0.566977000000,0.017450200000,0.075923300000,1.000000000000,-0.017450200000,0.566977000000,0.000000000000,0.000000000000,0.000000000000,1.000000000000,-0.256732000000,-0.013312000000,-0.567120000000,-0.051782200000,0.998658000000,0.000000000000,-0.021883400000,0.593987000000,-0.007943900000,0.664843000000,0.034473300000,0.746187000000,0.437704000000,0.020115600000,0.295160000000,0.037056100000,-0.999227000000,0.013147000000,0.002101470000,-0.061626600000,0.000750544000,0.311467000000,-0.000952029000,-0.950256000000,0.098603100000,0.004546270000,0.097209900000,0.034077700000,-0.999345000000,0.012170900000,0.000000000000,0.000000000000,-0.000000000000,0.089798200000,-0.009067060000,-0.995919000000,0.119355000000,0,0,0,2000.000000000000,40.000000000000
1782250303.149682998657,0.964590898999,hold_measured_before,0.566976140491,0.566975930231,0.566976140491,-0.000001719010,0.028601100000,-0.027372000000,0.040499500000,-0.018508000000,-0.043992400000,-0.022638800000,0.038011500000,0.002713080000,0.020740200000,0.002193020000,-0.000000447930,-0.000002009520,-0.000000417465,-0.000001240570,-0.000000019281,0.000000144043,0.000000006345,-0.017616900000,-0.043982500000,-0.023303300000,0.038011400000,0.004512960000,0.020738500000,0.000873319000,-0.017616900000,-0.043982500000,-0.023303300000,0.038011400000,0.004512960000,0.020738500000,0.000873319000,-0.017616900000,-0.043982500000,-0.023303300000,0.038011400000,0.004512960000,0.020738500000,0.000873319000,0.051801600000,0.728484000000,-0.019746500000,-2.096740000000,0.003142750000,2.914640000000,1.304570000000,0.000082906400,0.001224120000,0.000952727000,-0.000709769000,-0.000074464500,0.000185782000,0.000554783000,0.294747000000,-0.954924000000,0.035264600000,0.000000000000,-0.951348000000,-0.296711000000,-0.083069900000,0.000000000000,0.089788800000,-0.009064310000,-0.995920000000,0.000000000000,0.566974000000,0.017449300000,0.075919400000,1.000000000000,-0.017449300000,0.566974000000,0.000000000000,0.000000000000,0.000000000000,1.000000000000,-0.256736000000,-0.013311200000,-0.567117000000,-0.051778400000,0.998659000000,0.000000000000,-0.021882200000,0.593987000000,-0.007943050000,0.664846000000,0.034470900000,0.746184000000,0.437707000000,0.020114500000,0.295157000000,0.037054500000,-0.999227000000,0.013145200000,0.002101000000,-0.061626600000,0.000750311000,0.311459000000,-0.000951101000,-0.950259000000,0.098604000000,0.004545190000,0.097209000000,0.034070200000,-0.999345000000,0.012167100000,0.000000000000,-0.000000000000,0.000000000000,0.089788800000,-0.009064310000,-0.995920000000,0.068439300000,0,0,0,2000.000000000000,40.000000000000
1782250303.170730829239,0.985640049003,hold_measured_before,0.566976140491,0.566979146431,0.566976140491,-0.000000210261,0.004658100000,-0.027693100000,0.005852800000,-0.041941300000,-0.009868460000,-0.034654100000,0.008553880000,0.027359400000,0.006265690000,0.026326400000,-0.000000323222,0.000000055462,-0.000000279988,-0.000000817569,0.000000003176,-0.000000040551,0.000000004530,-0.041685700000,-0.009864980000,-0.034845000000,0.008553390000,0.027876100000,0.006265120000,0.025947600000,-0.041685700000,-0.009864980000,-0.034845000000,0.008553390000,0.027876100000,0.006265120000,0.025947600000,-0.041685700000,-0.009864980000,-0.034845000000,0.008553390000,0.027876100000,0.006265120000,0.025947600000,0.051803600000,0.728483000000,-0.019751100000,-2.096740000000,0.003137690000,2.914640000000,1.304570000000,0.000410717000,0.000085013400,0.000530767000,-0.000010679200,-0.001815970000,-0.000576482000,-0.000732786000,0.294750000000,-0.954923000000,0.035270300000,0.000000000000,-0.951346000000,-0.296714000000,-0.083073300000,0.000000000000,0.089793800000,-0.009068420000,-0.995919000000,0.000000000000,0.566976000000,0.017448100000,0.075921100000,1.000000000000,-0.017448100000,0.566976000000,0.000000000000,0.000000000000,0.000000000000,1.000000000000,-0.256734000000,-0.013311700000,-0.567119000000,-0.051780400000,0.998658000000,0.000000000000,-0.021881600000,0.593987000000,-0.007944660000,0.664845000000,0.034472200000,0.746185000000,0.437706000000,0.020114700000,0.295158000000,0.037053100000,-0.999227000000,0.013148200000,0.002101220000,-0.061626700000,0.000750596000,0.311463000000,-0.000954289000,-0.950258000000,0.098603500000,0.004545960000,0.097209500000,0.034073500000,-0.999345000000,0.012171800000,-0.000000000000,0.000000000000,-0.000000000000,0.089793800000,-0.009068420000,-0.995919000000,0.067911400000,0,0,0,2000.000000000000,40.000000000000
1782250303.190695285797,1.005603748003,hold_measured_before,0.566976140491,0.566977659763,0.566976140491,0.000003005940,-0.026289900000,0.021240600000,-0.015412900000,0.017436500000,0.017716600000,0.018711800000,-0.018110800000,-0.005306780000,-0.006487930000,-0.004719290000,-0.000001137530,-0.000001039960,-0.000001076440,-0.000000352777,0.000000043110,0.000000063057,0.000000000258,0.019723300000,0.017746300000,0.017006600000,-0.018108200000,-0.000687626000,-0.006492560000,-0.008106060000,0.019723300000,0.017746300000,0.017006600000,-0.018108200000,-0.000687626000,-0.006492560000,-0.008106060000,0.019723300000,0.017746300000,0.017006600000,-0.018108200000,-0.000687626000,-0.006492560000,-0.008106060000,0.051798600000,0.728479000000,-0.019750500000,-2.096730000000,0.003140600000,2.914640000000,1.304570000000,-0.000418784000,0.000138999000,-0.000397216000,0.001426400000,-0.000178953000,-0.000987039000,0.000073273400,0.294742000000,-0.954926000000,0.035270700000,0.000000000000,-0.951348000000,-0.296706000000,-0.083080400000,0.000000000000,0.089800700000,-0.009067470000,-0.995918000000,0.000000000000,0.566979000000,0.017445500000,0.075924500000,1.000000000000,-0.017445500000,0.566979000000,0.000000000000,0.000000000000,0.000000000000,1.000000000000,-0.256731000000,-0.013310200000,-0.567122000000,-0.051775400000,0.998659000000,0.000000000000,-0.021878700000,0.593988000000,-0.007944520000,0.664843000000,0.034468700000,0.746188000000,0.437703000000,0.020112500000,0.295162000000,0.037048400000,-0.999227000000,0.013147800000,0.002100750000,-0.061626500000,0.000750508000,0.311471000000,-0.000954963000,-0.950255000000,0.098602900000,0.004545080000,0.097210200000,0.034066100000,-0.999345000000,0.012170400000,0.000000000000,0.000000000000,0.000000000000,0.089800700000,-0.009067470000,-0.995918000000,0.037807500000,0,0,0,2000.000000000000,40.000000000000
1782250303.211487531662,1.026395607005,hold_measured_before,0.566976140491,0.566977659763,0.566976140491,0.000001519270,-0.006441970000,0.033290500000,0.001506590000,0.018783300000,-0.009174240000,0.021669500000,0.007778100000,-0.000810943000,0.009137360000,0.000590953000,-0.000001127840,0.000000190777,-0.000000949924,-0.000001237530,0.000000014228,-0.000000045242,0.000000001302,0.024572700000,-0.009096370000,0.017355800000,0.007784210000,0.010879400000,0.009125430000,-0.007980500000,0.024572700000,-0.009096370000,0.017355800000,0.007784210000,0.010879400000,0.009125430000,-0.007980500000,0.024572700000,-0.009096370000,0.017355800000,0.007784210000,0.010879400000,0.009125430000,-0.007980500000,0.051797800000,0.728479000000,-0.019752500000,-2.096740000000,0.003142750000,2.914640000000,1.304570000000,-0.001063360000,0.000327462000,-0.000156969000,0.000685963000,-0.000691207000,-0.001537720000,-0.000568068000,0.294742000000,-0.954926000000,0.035270800000,0.000000000000,-0.951348000000,-0.296706000000,-0.083077100000,0.000000000000,0.089797500000,-0.009068610000,-0.995919000000,0.000000000000,0.566978000000,0.017443700000,0.075923700000,1.000000000000,-0.017443700000,0.566978000000,0.000000000000,0.000000000000,0.000000000000,1.000000000000,-0.256732000000,-0.013310000000,-0.567120000000,-0.051774600000,0.998659000000,0.000000000000,-0.021877300000,0.593987000000,-0.007945370000,0.664842000000,0.034468200000,0.746188000000,0.437704000000,0.020111900000,0.295161000000,0.037046200000,-0.999227000000,0.013149100000,0.002100490000,-0.061626500000,0.000750548000,0.311468000000,-0.000957026000,-0.950256000000,0.098603200000,0.004544720000,0.097209800000,0.034061900000,-0.999346000000,0.012171000000,0.000000000000,0.000000000000,-0.000000000000,0.089797500000,-0.009068610000,-0.995919000000,0.036245000000,0,0,0,2000.000000000000,40.000000000000
1782250303.231644153595,1.046551660002,hold_measured_before,0.566976140491,0.566976079649,0.566976140491,-0.000001418430,0.033934800000,-0.006684230000,0.039802900000,-0.001515090000,-0.046865000000,-0.005820030000,0.042235500000,-0.003312240000,0.022963000000,-0.003032920000,0.000000642099,-0.000003359750,0.000000820049,-0.000000264247,-0.000000091300,0.000000249861,0.000000007394,0.003261420000,-0.046804300000,-0.009376250000,0.042241300000,0.006329550000,0.022953500000,-0.010102400000,0.003261420000,-0.046804300000,-0.009376250000,0.042241300000,0.006329550000,0.022953500000,-0.010102400000,0.003261420000,-0.046804300000,-0.009376250000,0.042241300000,0.006329550000,0.022953500000,-0.010102400000,0.051798500000,0.728483000000,-0.019748600000,-2.096740000000,0.003141130000,2.914630000000,1.304570000000,-0.000512262000,0.000997709000,0.000872260000,-0.001228340000,-0.000379380000,0.000276833000,0.000841913000,0.294742000000,-0.954926000000,0.035266200000,0.000000000000,-0.951349000000,-0.296706000000,-0.083069200000,0.000000000000,0.089788700000,-0.009066480000,-0.995920000000,0.000000000000,0.566975000000,0.017446400000,0.075920000000,1.000000000000,-0.017446400000,0.566975000000,0.000000000000,0.000000000000,0.000000000000,1.000000000000,-0.256735000000,-0.013310400000,-0.567118000000,-0.051775400000,0.998659000000,0.000000000000,-0.021879500000,0.593987000000,-0.007943810000,0.664845000000,0.034468900000,0.746185000000,0.437707000000,0.020112800000,0.295157000000,0.037049900000,-0.999227000000,0.013146600000,0.002100810000,-0.061626400000,0.000750425000,0.311460000000,-0.000953814000,-0.950259000000,0.098604000000,0.004545070000,0.097209000000,0.034067100000,-0.999345000000,0.012169000000,-0.000000000000,-0.000000000000,0.000000000000,0.089788700000,-0.009066480000,-0.995920000000,0.068865800000,0,0,0,2000.000000000000,40.000000000000
