WindOilSpirit/serl/Code/spacemouse_franka_teleop_test/debug_output/fixed_offset_k2000_jacobian_verify.csv
time_unix_s,time_since_start_s,phase,target_x,measured_x,limited_reference_x,position_error_x,cartesian_force_x,cartesian_force_y,cartesian_force_z,cartesian_torque_x,cartesian_torque_y,cartesian_torque_z,tau_task_1,tau_task_2,tau_task_3,tau_task_4,tau_task_5,tau_task_6,tau_task_7,coriolis_1,coriolis_2,coriolis_3,coriolis_4,coriolis_5,coriolis_6,coriolis_7,tau_before_saturation_1,tau_before_saturation_2,tau_before_saturation_3,tau_before_saturation_4,tau_before_saturation_5,tau_before_saturation_6,tau_before_saturation_7,tau_after_saturation_1,tau_after_saturation_2,tau_after_saturation_3,tau_after_saturation_4,tau_after_saturation_5,tau_after_saturation_6,tau_after_saturation_7,tau_command_1,tau_command_2,tau_command_3,tau_command_4,tau_command_5,tau_command_6,tau_command_7,q_1,q_2,q_3,q_4,q_5,q_6,q_7,dq_1,dq_2,dq_3,dq_4,dq_5,dq_6,dq_7,O_T_EE_0,O_T_EE_1,O_T_EE_2,O_T_EE_3,O_T_EE_4,O_T_EE_5,O_T_EE_6,O_T_EE_7,O_T_EE_8,O_T_EE_9,O_T_EE_10,O_T_EE_11,O_T_EE_12,O_T_EE_13,O_T_EE_14,O_T_EE_15,zero_jacobian_0,zero_jacobian_1,zero_jacobian_2,zero_jacobian_3,zero_jacobian_4,zero_jacobian_5,zero_jacobian_6,zero_jacobian_7,zero_jacobian_8,zero_jacobian_9,zero_jacobian_10,zero_jacobian_11,zero_jacobian_12,zero_jacobian_13,zero_jacobian_14,zero_jacobian_15,zero_jacobian_16,zero_jacobian_17,zero_jacobian_18,zero_jacobian_19,zero_jacobian_20,zero_jacobian_21,zero_jacobian_22,zero_jacobian_23,zero_jacobian_24,zero_jacobian_25,zero_jacobian_26,zero_jacobian_27,zero_jacobian_28,zero_jacobian_29,zero_jacobian_30,zero_jacobian_31,zero_jacobian_32,zero_jacobian_33,zero_jacobian_34,zero_jacobian_35,zero_jacobian_36,zero_jacobian_37,zero_jacobian_38,zero_jacobian_39,zero_jacobian_40,zero_jacobian_41,commanded_torque_norm,tau_rate_limited,torque_rate_limited,reference_clipped,translational_stiffness,translational_damping
1782251246.857330083847,0.000544198003,hold_measured_before,0.567050898248,0.567050898248,0.567059852224,-0.000008953980,0.012460200000,0.005053580000,0.015762100000,0.003443910000,0.009455280000,0.007245120000,0.009893360000,-0.002941660000,0.010625700000,0.000983268000,-0.006093640000,-0.006459730000,-0.006991390000,0.000000023010,-0.000000878747,0.000000261148,-0.000000056528,-0.000000057051,0.000000040587,0.000000001720,0.004580930000,-0.003013810000,0.014583200000,0.000976471000,-0.016819000000,-0.006448790000,0.000872395000,0.004580930000,-0.003013810000,0.014583200000,0.000976471000,-0.016819000000,-0.006448790000,0.000872395000,0.004580930000,-0.003013810000,0.014583200000,0.000976471000,-0.016819000000,-0.006448790000,0.000872395000,0.051797900000,0.728518000000,-0.019753300000,-2.096540000000,0.003141990000,2.914630000000,1.304570000000,0.001397070000,-0.000412475000,-0.000876420000,-0.000125408000,-0.000127082000,0.000919624000,0.001747790000,0.294733000000,-0.954927000000,0.035310400000,0.000000000000,-0.951337000000,-0.296703000000,-0.083220800000,0.000000000000,0.089946400000,-0.009064170000,-0.995905000000,0.000000000000,0.567051000000,0.017446700000,0.075957600000,1.000000000000,-0.017446700000,0.567051000000,0.000000000000,0.000000000000,0.000000000000,1.000000000000,-0.256698000000,-0.013308300000,-0.567194000000,-0.051774700000,0.998659000000,0.000000000000,-0.021878200000,0.594012000000,-0.007946330000,0.664872000000,0.034469800000,0.746162000000,0.437660000000,0.020111500000,0.295227000000,0.037046200000,-0.999227000000,0.013150200000,0.002100530000,-0.061626200000,0.000750600000,0.311612000000,-0.000952106000,-0.950209000000,0.098588700000,0.004544580000,0.097224600000,0.034062800000,-0.999346000000,0.012171900000,-0.000000000000,-0.000000000000,0.000000000000,0.089946400000,-0.009064170000,-0.995905000000,0.023852000000,0,0,0,2000.000000000000,40.000000000000
1782251246.878592729568,0.021807415003,hold_measured_before,0.567050898248,0.567049929524,0.567056997989,-0.000007068460,0.029420900000,-0.028442400000,0.038529000000,0.001753240000,-0.014466200000,-0.025451200000,-0.042092900000,-0.043564800000,-0.036168700000,0.037864400000,0.026587500000,0.020724000000,0.025635700000,-0.000000856784,-0.000000080262,-0.000000904364,-0.000001297240,0.000000023318,-0.000000031192,0.000000004024,-0.048198400000,-0.043646700000,-0.031622400000,0.037855400000,0.014262900000,0.020736500000,0.034672100000,-0.048198400000,-0.043646700000,-0.031622400000,0.037855400000,0.014262900000,0.020736500000,0.034672100000,-0.048198400000,-0.043646700000,-0.031622400000,0.037855400000,0.014262900000,0.020736500000,0.034672100000,0.051803600000,0.728522000000,-0.019748700000,-2.096540000000,0.003140370000,2.914630000000,1.304570000000,0.000980782000,0.000301189000,0.000209322000,-0.000417312000,-0.000457893000,-0.001009060000,-0.001618670000,0.294749000000,-0.954922000000,0.035307200000,0.000000000000,-0.951332000000,-0.296718000000,-0.083216600000,0.000000000000,0.089941700000,-0.009060880000,-0.995906000000,0.000000000000,0.567050000000,0.017452700000,0.075955500000,1.000000000000,-0.017452700000,0.567050000000,0.000000000000,0.000000000000,0.000000000000,1.000000000000,-0.256700000000,-0.013309900000,-0.567193000000,-0.051780400000,0.998658000000,0.000000000000,-0.021883800000,0.594012000000,-0.007944470000,0.664874000000,0.034473700000,0.746160000000,0.437661000000,0.020114600000,0.295225000000,0.037055400000,-0.999227000000,0.013147200000,0.002101190000,-0.061626000000,0.000750442000,0.311609000000,-0.000946498000,-0.950210000000,0.098589100000,0.004545410000,0.097224100000,0.034073400000,-0.999345000000,0.012169400000,0.000000000000,0.000000000000,-0.000000000000,0.089941700000,-0.009060880000,-0.995906000000,0.092177600000,0,0,0,2000.000000000000,40.000000000000
1782251246.899613618851,0.042829061000,hold_measured_before,0.567050898248,0.567048638151,0.567054889039,-0.000006250890,0.012302700000,-0.013709800000,0.031469400000,-0.006103250000,0.003696760000,-0.002834520000,-0.010823300000,-0.016817100000,-0.014708400000,0.010441900000,0.001682440000,0.000273430000,0.002240500000,-0.000000291589,-0.000001454880,0.000000045785,0.000000339264,0.000000028099,0.000000119767,0.000000000449,-0.004620300000,-0.016735400000,-0.019329100000,0.010450100000,0.014206500000,0.000260830000,-0.006942110000,-0.004620300000,-0.016735400000,-0.019329100000,0.010450100000,0.014206500000,0.000260830000,-0.006942110000,-0.004620300000,-0.016735400000,-0.019329100000,0.010450100000,0.014206500000,0.000260830000,-0.006942110000,0.051795300000,0.728524000000,-0.019743700000,-2.096550000000,0.003139590000,2.914640000000,1.304570000000,-0.000858323000,0.000834823000,0.001305170000,0.000286209000,-0.000429759000,0.001100500000,0.000202925000,0.294746000000,-0.954923000000,0.035304100000,0.000000000000,-0.951334000000,-0.296715000000,-0.083216300000,0.000000000000,0.089940400000,-0.009058260000,-0.995906000000,0.000000000000,0.567049000000,0.017450900000,0.075953800000,1.000000000000,-0.017450900000,0.567049000000,0.000000000000,0.000000000000,0.000000000000,1.000000000000,-0.256701000000,-0.013307800000,-0.567192000000,-0.051772100000,0.998659000000,0.000000000000,-0.021881100000,0.594012000000,-0.007942490000,0.664876000000,0.034468300000,0.746158000000,0.437662000000,0.020111700000,0.295224000000,0.037050800000,-0.999227000000,0.013143900000,0.002100970000,-0.061626500000,0.000750262000,0.311605000000,-0.000945000000,-0.950211000000,0.098589200000,0.004544740000,0.097224000000,0.034069600000,-0.999345000000,0.012166400000,-0.000000000000,0.000000000000,-0.000000000000,0.089940400000,-0.009058260000,-0.995906000000,0.032160900000,0,0,0,2000.000000000000,40.000000000000
1782251246.919636487961,0.062853786003,hold_measured_before,0.567050898248,0.567048540667,0.567053509246,-0.000004968580,0.026830200000,0.027564800000,0.039567400000,0.004255910000,-0.003156210000,-0.001019700000,0.014142700000,-0.033068800000,0.017432400000,0.027276200000,0.000685426000,0.009904050000,0.001426900000,0.000000312349,-0.000001767400,0.000000310564,-0.000000726872,-0.000000064103,0.000000122255,0.000000006653,0.010786400000,-0.033115600000,0.019933000000,0.027271200000,-0.006091540000,0.009911070000,0.006395720000,0.010786400000,-0.033115600000,0.019933000000,0.027271200000,-0.006091540000,0.009911070000,0.006395720000,0.010786400000,-0.033115600000,0.019933000000,0.027271200000,-0.006091540000,0.009911070000,0.006395720000,0.051798900000,0.728524000000,-0.019750400000,-2.096550000000,0.003143620000,2.914630000000,1.304570000000,-0.000104978000,0.000872662000,-0.000911621000,-0.000798968000,0.000823805000,0.001296870000,-0.001687660000,0.294742000000,-0.954925000000,0.035307000000,0.000000000000,-0.951335000000,-0.296710000000,-0.083214600000,0.000000000000,0.089939600000,-0.009061940000,-0.995906000000,0.000000000000,0.567049000000,0.017448800000,0.075953700000,1.000000000000,-0.017448800000,0.567049000000,0.000000000000,0.000000000000,0.000000000000,1.000000000000,-0.256702000000,-0.013308800000,-0.567191000000,-0.051775800000,0.998659000000,0.000000000000,-0.021880100000,0.594012000000,-0.007945300000,0.664876000000,0.034470700000,0.746158000000,0.437662000000,0.020112400000,0.295224000000,0.037049500000,-0.999227000000,0.013148300000,0.002100650000,-0.061626400000,0.000750458000,0.311605000000,-0.000949648000,-0.950211000000,0.098589300000,0.004544540000,0.097223900000,0.034064500000,-0.999346000000,0.012169600000,-0.000000000000,-0.000000000000,-0.000000000000,0.089939600000,-0.009061940000,-0.995906000000,0.050301900000,0,0,0,2000.000000000000,40.000000000000
1782251246.940535068512,0.083748800003,hold_measured_before,0.567050898248,0.567051296988,0.567052641371,-0.000001344380,-0.001412300000,-0.064882900000,-0.000038994200,-0.005568810000,0.002168500000,-0.014857300000,-0.051624600000,0.003702140000,-0.053223800000,-0.004503150000,0.016375600000,-0.002975590000,0.014275900000,0.000000728934,0.000000238595,0.000000821649,-0.000004289020,-0.000000221994,-0.000000118437,0.000000015047,-0.057548400000,0.003622910000,-0.048809800000,-0.004514950000,0.004414450000,-0.002963560000,0.023045700000,-0.057548400000,0.003622910000,-0.048809800000,-0.004514950000,0.004414450000,-0.002963560000,0.023045700000,-0.057548400000,0.003622910000,-0.048809800000,-0.004514950000,0.004414450000,-0.002963560000,0.023045700000,0.051801600000,0.728520000000,-0.019749500000,-2.096540000000,0.003138800000,2.914630000000,1.304570000000,0.001487280000,-0.000188069000,0.001031700000,0.000266363000,-0.000193146000,-0.000135817000,0.000605266000,0.294743000000,-0.954924000000,0.035308700000,0.000000000000,-0.951334000000,-0.296712000000,-0.083219900000,0.000000000000,0.089945200000,-0.009061870000,-0.995905000000,0.000000000000,0.567051000000,0.017451200000,0.075957000000,1.000000000000,-0.017451200000,0.567051000000,0.000000000000,0.000000000000,0.000000000000,1.000000000000,-0.256698000000,-0.013309300000,-0.567194000000,-0.051778400000,0.998659000000,0.000000000000,-0.021882300000,0.594012000000,-0.007944720000,0.664873000000,0.034472300000,0.746160000000,0.437660000000,0.020113600000,0.295227000000,0.037052700000,-0.999227000000,0.013147700000,0.002101110000,-0.061626000000,0.000750504000,0.311613000000,-0.000947681000,-0.950209000000,0.098588700000,0.004545380000,0.097224500000,0.034072300000,-0.999345000000,0.012170400000,0.000000000000,0.000000000000,-0.000000000000,0.089945200000,-0.009061870000,-0.995905000000,0.079291200000,0,0,0,2000.000000000000,40.000000000000
1782251246.961495399475,0.104708457999,hold_measured_before,0.567050898248,0.567050722410,0.567052038697,-0.000001316290,0.002858110000,0.015007800000,-0.015536700000,-0.004402210000,0.009563740000,0.019965600000,0.028425900000,0.017657700000,0.021276100000,-0.012491000000,-0.021282900000,-0.010625000000,-0.020366500000,0.000000689201,0.000000800197,0.000000333845,-0.000001204950,-0.000000048785,-0.000000080303,0.000000004523,0.032420600000,0.017712100000,0.018301300000,-0.012487200000,-0.013219500000,-0.010633300000,-0.026278600000,0.032420600000,0.017712100000,0.018301300000,-0.012487200000,-0.013219500000,-0.010633300000,-0.026278600000,0.032420600000,0.017712100000,0.018301300000,-0.012487200000,-0.013219500000,-0.010633300000,-0.026278600000,0.051797500000,0.728517000000,-0.019751500000,-2.096550000000,0.003141990000,2.914630000000,1.304580000000,-0.000758076000,-0.001114880000,0.000196848000,-0.000917829000,0.000842013000,0.001006040000,0.001079620000,0.294732000000,-0.954927000000,0.035308900000,0.000000000000,-0.951337000000,-0.296701000000,-0.083220800000,0.000000000000,0.089946000000,-0.009062890000,-0.995905000000,0.000000000000,0.567051000000,0.017447500000,0.075957900000,1.000000000000,-0.017447500000,0.567051000000,0.000000000000,0.000000000000,0.000000000000,1.000000000000,-0.256697000000,-0.013308200000,-0.567194000000,-0.051774300000,0.998659000000,0.000000000000,-0.021878800000,0.594012000000,-0.007945600000,0.664871000000,0.034469400000,0.746163000000,0.437660000000,0.020111500000,0.295227000000,0.037047100000,-0.999227000000,0.013149000000,0.002100590000,-0.061626100000,0.000750523000,0.311612000000,-0.000950651000,-0.950209000000,0.098588700000,0.004544560000,0.097224600000,0.034063700000,-0.999346000000,0.012170700000,0.000000000000,0.000000000000,0.000000000000,0.089946000000,-0.009062890000,-0.995905000000,0.053236000000,0,0,0,2000.000000000000,40.000000000000
1782251246.981558322906,0.124771515999,hold_measured_before,0.567050898248,0.567048404828,0.567051659621,-0.000003254790,0.047121300000,0.015036800000,0.059859100000,-0.002302530000,-0.019743700000,-0.000912165000,0.006792340000,-0.065845800000,0.004533320000,0.058228600000,-0.000614649000,0.030175000000,0.000880334000,0.000002770730,-0.000005365480,0.000003253300,-0.000001150010,-0.000000300345,0.000000373274,0.000000017762,0.012052300000,-0.065780600000,0.000620586000,0.058234100000,0.009998880000,0.030164600000,-0.006901680000,0.012052300000,-0.065780600000,0.000620586000,0.058234100000,0.009998880000,0.030164600000,-0.006901680000,0.012052300000,-0.065780600000,0.000620586000,0.058234100000,0.009998880000,0.030164600000,-0.006901680000,0.051798400000,0.728524000000,-0.019754700000,-2.096550000000,0.003142000000,2.914630000000,1.304570000000,-0.001169820000,0.001428120000,0.000687440000,-0.001643570000,0.000083246200,0.000660218000,-0.000854916000,0.294740000000,-0.954925000000,0.035309700000,0.000000000000,-0.951336000000,-0.296709000000,-0.083211800000,0.000000000000,0.089937700000,-0.009065530000,-0.995906000000,0.000000000000,0.567048000000,0.017446000000,0.075953500000,1.000000000000,-0.017446000000,0.567048000000,0.000000000000,0.000000000000,0.000000000000,1.000000000000,-0.256702000000,-0.013308700000,-0.567191000000,-0.051775300000,0.998659000000,0.000000000000,-0.021878000000,0.594012000000,-0.007946920000,0.664876000000,0.034470400000,0.746158000000,0.437662000000,0.020111600000,0.295223000000,0.037045800000,-0.999227000000,0.013151200000,0.002100510000,-0.061626100000,0.000750662000,0.311605000000,-0.000953498000,-0.950211000000,0.098589500000,0.004544660000,0.097223700000,0.034062300000,-0.999346000000,0.012172900000,0.000000000000,-0.000000000000,-0.000000000000,0.089937700000,-0.009065530000,-0.995906000000,0.094453400000,0,0,0,2000.000000000000,40.000000000000
1782251247.002624511719,0.145838598997,hold_measured_before,0.567050898248,0.567052010972,0.567051406547,0.000000604425,-0.004533280000,-0.046868800000,-0.021536200000,-0.005937060000,0.002787080000,-0.012560800000,-0.039058800000,0.017093400000,-0.040794100000,-0.012454800000,0.012945400000,-0.005894180000,0.011950100000,-0.000000240413,0.000000215350,0.000000022754,-0.000002635110,-0.000000162815,-0.000000053478,0.000000008413,-0.042399600000,0.017048800000,-0.038305700000,-0.012461700000,0.006200870000,-0.005887380000,0.016895100000,-0.042399600000,0.017048800000,-0.038305700000,-0.012461700000,0.006200870000,-0.005887380000,0.016895100000,-0.042399600000,0.017048800000,-0.038305700000,-0.012461700000,0.006200870000,-0.005887380000,0.016895100000,0.051799200000,0.728518000000,-0.019748700000,-2.096540000000,0.003140840000,2.914630000000,1.304570000000,0.000708654000,-0.001244470000,0.001032060000,-0.000344191000,0.000104925000,-0.000517047000,-0.000185245000,0.294741000000,-0.954925000000,0.035308800000,0.000000000000,-0.951334000000,-0.296710000000,-0.083224300000,0.000000000000,0.089949400000,-0.009060830000,-0.995905000000,0.000000000000,0.567052000000,0.017450300000,0.075958200000,1.000000000000,-0.017450300000,0.567052000000,0.000000000000,0.000000000000,0.000000000000,1.000000000000,-0.256697000000,-0.013308600000,-0.567195000000,-0.051776000000,0.998659000000,0.000000000000,-0.021881100000,0.594012000000,-0.007944460000,0.664872000000,0.034470600000,0.746162000000,0.437659000000,0.020112600000,0.295228000000,0.037050900000,-0.999227000000,0.013147100000,0.002100900000,-0.061626300000,0.000750433000,0.311614000000,-0.000947622000,-0.950208000000,0.098588300000,0.004544890000,0.097224900000,0.034068600000,-0.999345000000,0.012169200000,0.000000000000,0.000000000000,-0.000000000000,0.089949400000,-0.009060830000,-0.995905000000,0.063793100000,0,0,0,2000.000000000000,40.000000000000
1782251247.023540973663,0.166754361999,hold_measured_before,0.567050898248,0.567049440957,0.567051230806,-0.000001789850,0.000527026000,0.018624000000,0.014549100000,0.000006727210,0.005663020000,0.005442070000,0.015993600000,-0.002980230000,0.015196100000,-0.000686340000,-0.006310090000,-0.004041730000,-0.005470510000,-0.000000405487,0.000000340102,-0.000000162022,-0.000001126040,-0.000000030951,-0.000000047727,0.000000003726,0.019499000000,-0.002932860000,0.012584500000,-0.000683018000,0.000767840000,-0.004048970000,-0.010660000000,0.019499000000,-0.002932860000,0.012584500000,-0.000683018000,0.000767840000,-0.004048970000,-0.010660000000,0.019499000000,-0.002932860000,0.012584500000,-0.000683018000,0.000767840000,-0.004048970000,-0.010660000000,0.051799600000,0.728522000000,-0.019750400000,-2.096540000000,0.003141990000,2.914630000000,1.304570000000,-0.000903486000,0.000698516000,-0.000086553000,0.000285585000,0.000281512000,0.001139940000,-0.000521633000,0.294741000000,-0.954925000000,0.035307400000,0.000000000000,-0.951335000000,-0.296710000000,-0.083215400000,0.000000000000,0.089940500000,-0.009062210000,-0.995906000000,0.000000000000,0.567049000000,0.017449200000,0.075954800000,1.000000000000,-0.017449200000,0.567049000000,0.000000000000,0.000000000000,0.000000000000,1.000000000000,-0.256700000000,-0.013308900000,-0.567192000000,-0.051776400000,0.998659000000,0.000000000000,-0.021880500000,0.594012000000,-0.007945230000,0.664875000000,0.034471100000,0.746159000000,0.437661000000,0.020112700000,0.295225000000,0.037050100000,-0.999227000000,0.013148300000,0.002100770000,-0.061626100000,0.000750485000,0.311608000000,-0.000949336000,-0.950210000000,0.098589200000,0.004544800000,0.097224000000,0.034066600000,-0.999345000000,0.012170100000,0.000000000000,-0.000000000000,-0.000000000000,0.089940500000,-0.009062210000,-0.995906000000,0.026043600000,0,0,0,2000.000000000000,40.000000000000
1782251247.043550729752,0.186763817997,hold_measured_before,0.567050898248,0.567049649965,0.567051120266,-0.000001470300,0.014135700000,0.001249800000,0.023926400000,0.007575060000,-0.005116460000,-0.006283910000,-0.005821870000,-0.022718000000,0.000414280000,0.018586000000,0.008306980000,0.009020220000,0.006985860000,-0.000000355650,-0.000001745070,-0.000000589760,0.000000367657,0.000000014236,0.000000115209,-0.000000000276,-0.011272400000,-0.022792800000,0.004473440000,0.018579400000,-0.002696430000,0.009031520000,0.015053500000,-0.011272400000,-0.022792800000,0.004473440000,0.018579400000,-0.002696430000,0.009031520000,0.015053500000,-0.011272400000,-0.022792800000,0.004473440000,0.018579400000,-0.002696430000,0.009031520000,0.015053500000,0.051801300000,0.728522000000,-0.019751500000,-2.096540000000,0.003141430000,2.914630000000,1.304570000000,0.000921184000,0.000722233000,-0.001171880000,-0.000322211000,-0.000298779000,0.000381370000,-0.000437174000,0.294741000000,-0.954925000000,0.035308500000,0.000000000000,-0.951335000000,-0.296710000000,-0.083216400000,0.000000000000,0.089941800000,-0.009062910000,-0.995906000000,0.000000000000,0.567050000000,0.017449600000,0.075955100000,1.000000000000,-0.017449600000,0.567050000000,0.000000000000,0.000000000000,0.000000000000,1.000000000000,-0.256700000000,-0.013309300000,-0.567193000000,-0.051778100000,0.998659000000,0.000000000000,-0.021881100000,0.594012000000,-0.007945630000,0.664875000000,0.034472200000,0.746159000000,0.437661000000,0.020113300000,0.295225000000,0.037051000000,-0.999227000000,0.013149000000,0.002100860000,-0.061626200000,0.000750540000,0.311608000000,-0.000949696000,-0.950210000000,0.098589100000,0.004545030000,0.097224100000,0.034068100000,-0.999345000000,0.012170900000,0.000000000000,-0.000000000000,-0.000000000000,0.089941800000,-0.009062910000,-0.995906000000,0.036431200000,0,0,0,2000.000000000000,40.000000000000
1782251247.063587903976,0.206801818000,hold_measured_before,0.567050898248,0.567050653762,0.567051046469,-0.000000392707,0.014106600000,0.002720760000,-0.004352040000,0.000762926000,-0.000383389000,0.001126400000,0.002423080000,-0.001611270000,0.002676610000,0.005369930000,-0.000973523000,0.001402830000,-0.001049700000,-0.000000192516,0.000000311314,-0.000000094867,-0.000000524821,0.000000001657,-0.000000018080,0.000000001265,-0.000153961000,-0.001645530000,0.004595960000,0.005366140000,-0.006175920000,0.001408100000,0.002764690000,-0.000153961000,-0.001645530000,0.004595960000,0.005366140000,-0.006175920000,0.001408100000,0.002764690000,-0.000153961000,-0.001645530000,0.004595960000,0.005366140000,-0.006175920000,0.001408100000,0.002764690000,0.051800700000,0.728519000000,-0.019752500000,-2.096540000000,0.003142750000,2.914630000000,1.304570000000,0.000177517000,-0.000933758000,-0.000356035000,-0.001419940000,0.000554930000,0.000434814000,-0.000481775000,0.294737000000,-0.954926000000,0.035309500000,0.000000000000,-0.951336000000,-0.296706000000,-0.083219600000,0.000000000000,0.089945100000,-0.009063280000,-0.995905000000,0.000000000000,0.567051000000,0.017448600000,0.075956800000,1.000000000000,-0.017448600000,0.567051000000,0.000000000000,0.000000000000,0.000000000000,1.000000000000,-0.256698000000,-0.013309100000,-0.567193000000,-0.051777500000,0.998659000000,0.000000000000,-0.021880200000,0.594012000000,-0.007946080000,0.664873000000,0.034471700000,0.746161000000,0.437660000000,0.020112800000,0.295226000000,0.037049600000,-0.999227000000,0.013149700000,0.002100700000,-0.061626200000,0.000750556000,0.311611000000,-0.000950651000,-0.950209000000,0.098588800000,0.004544780000,0.097224500000,0.034065400000,-0.999345000000,0.012171200000,0.000000000000,-0.000000000000,0.000000000000,0.089945100000,-0.009063280000,-0.995905000000,0.010020900000,0,0,0,2000.000000000000,40.000000000000
1782251247.083601236343,0.226813998997,hold_measured_before,0.567050898248,0.567051129612,0.567050997202,0.000000132410,0.004288410000,-0.073079800000,-0.024161400000,-0.004090170000,0.003551280000,-0.035463900000,-0.076978700000,0.017334300000,-0.072371100000,-0.010892400000,0.036914600000,-0.006378240000,0.034918600000,-0.000002230070,0.000001350140,-0.000001493970,-0.000005792350,-0.000000229156,-0.000000198532,0.000000015317,-0.083435800000,0.017249100000,-0.067564400000,-0.010906400000,0.023882700000,-0.006365200000,0.044473400000,-0.083435800000,0.017249100000,-0.067564400000,-0.010906400000,0.023882700000,-0.006365200000,0.044473400000,-0.083435800000,0.017249100000,-0.067564400000,-0.010906400000,0.023882700000,-0.006365200000,0.044473400000,0.051800600000,0.728515000000,-0.019746600000,-2.096550000000,0.003141840000,2.914630000000,1.304570000000,0.001344910000,-0.001492680000,0.001252210000,-0.001023120000,-0.000792230000,0.000033663500,-0.001383800000,0.294747000000,-0.954923000000,0.035306600000,0.000000000000,-0.951333000000,-0.296716000000,-0.083221600000,0.000000000000,0.089946200000,-0.009059010000,-0.995905000000,0.000000000000,0.567051000000,0.017452200000,0.075959000000,1.000000000000,-0.017452200000,0.567051000000,0.000000000000,0.000000000000,0.000000000000,1.000000000000,-0.256696000000,-0.013308900000,-0.567194000000,-0.051777400000,0.998659000000,0.000000000000,-0.021882800000,0.594012000000,-0.007943630000,0.664869000000,0.034471400000,0.746164000000,0.437659000000,0.020113500000,0.295228000000,0.037053800000,-0.999227000000,0.013145700000,0.002101000000,-0.061625800000,0.000750318000,0.311615000000,-0.000945311000,-0.950208000000,0.098588600000,0.004544920000,0.097224600000,0.034070500000,-0.999345000000,0.012167400000,0.000000000000,-0.000000000000,0.000000000000,0.089946200000,-0.009059010000,-0.995905000000,0.120548000000,0,0,0,2000.000000000000,40.000000000000
1782251247.103675127029,0.246888889000,hold_measured_before,0.567050898248,0.567050957558,0.567050964310,-0.000000006752,0.006654690000,0.036686900000,0.016553200000,0.005924870000,-0.004729000000,0.010009800000,0.030697100000,-0.016614800000,0.032760500000,0.013613800000,-0.009895100000,0.007481760000,-0.009393060000,0.000000255876,-0.000000392062,0.000000356442,-0.000001509830,-0.000000103437,-0.000000003086,0.000000005820,0.033581700000,-0.016576500000,0.030612300000,0.013615900000,-0.004071910000,0.007475830000,-0.013662700000,0.033581700000,-0.016576500000,0.030612300000,0.013615900000,-0.004071910000,0.007475830000,-0.013662700000,0.033581700000,-0.016576500000,0.030612300000,0.013615900000,-0.004071910000,0.007475830000,-0.013662700000,0.051799300000,0.728520000000,-0.019754700000,-2.096540000000,0.003141990000,2.914630000000,1.304570000000,-0.000577775000,0.000611293000,-0.000983848000,-0.000116862000,-0.000203271000,0.000110115000,0.000138177000,0.294736000000,-0.954926000000,0.035310700000,0.000000000000,-0.951336000000,-0.296705000000,-0.083217200000,0.000000000000,0.089943100000,-0.009065260000,-0.995906000000,0.000000000000,0.567051000000,0.017446600000,0.075956600000,1.000000000000,-0.017446600000,0.567051000000,0.000000000000,0.000000000000,0.000000000000,1.000000000000,-0.256699000000,-0.013308700000,-0.567194000000,-0.051776100000,0.998659000000,0.000000000000,-0.021878400000,0.594012000000,-0.007946930000,0.664873000000,0.034470800000,0.746160000000,0.437660000000,0.020111900000,0.295227000000,0.037046500000,-0.999227000000,0.013151200000,0.002100540000,-0.061625800000,0.000750656000,0.311612000000,-0.000952962000,-0.950209000000,0.098589000000,0.004544720000,0.097224300000,0.034063100000,-0.999346000000,0.012172900000,0.000000000000,0.000000000000,-0.000000000000,0.089943100000,-0.009065260000,-0.995906000000,0.052765100000,0,0,0,2000.000000000000,40.000000000000
1782251247.124573707581,0.267786097997,hold_measured_before,0.567050898248,0.567050558370,0.567050941470,-0.000000383100,-0.012355300000,-0.072642200000,-0.013482400000,-0.003100710000,0.007080650000,-0.025298500000,-0.066274600000,0.019017300000,-0.063467100000,-0.018371600000,0.027506500000,-0.010348500000,0.024851800000,0.000001866420,-0.000000083945,0.000001978240,-0.000004348930,-0.000000297846,-0.000000102367,0.000000018878,-0.072223400000,0.018937400000,-0.059032600000,-0.018383500000,0.015492500000,-0.010336400000,0.033660300000,-0.072223400000,0.018937400000,-0.059032600000,-0.018383500000,0.015492500000,-0.010336400000,0.033660300000,-0.072223400000,0.018937400000,-0.059032600000,-0.018383500000,0.015492500000,-0.010336400000,0.033660300000,0.051802600000,0.728518000000,-0.019746600000,-2.096540000000,0.003142700000,2.914630000000,1.304570000000,0.001529120000,-0.000285121000,0.000925402000,0.000710319000,-0.000865893000,-0.000073764200,-0.000080545200,0.294745000000,-0.954923000000,0.035306000000,0.000000000000,-0.951333000000,-0.296714000000,-0.083221300000,0.000000000000,0.089945800000,-0.009058710000,-0.995905000000,0.000000000000,0.567051000000,0.017453300000,0.075957200000,1.000000000000,-0.017453300000,0.567051000000,0.000000000000,0.000000000000,0.000000000000,1.000000000000,-0.256698000000,-0.013309500000,-0.567194000000,-0.051779400000,0.998659000000,0.000000000000,-0.021884000000,0.594012000000,-0.007943700000,0.664872000000,0.034472900000,0.746162000000,0.437660000000,0.020114400000,0.295227000000,0.037055900000,-0.999227000000,0.013145700000,0.002101090000,-0.061626200000,0.000750310000,0.311611000000,-0.000944851000,-0.950209000000,0.098588700000,0.004545020000,0.097224600000,0.034071800000,-0.999345000000,0.012167200000,0.000000000000,-0.000000000000,-0.000000000000,0.089945800000,-0.009058710000,-0.995905000000,0.104295000000,0,0,0,2000.000000000000,40.000000000000
1782251247.144622564316,0.287835509000,hold_measured_before,0.567050898248,0.567050625440,0.567050927103,-0.000000301663,0.002355900000,-0.035911900000,0.000192622000,-0.008763390000,0.005822260000,-0.006399630000,-0.026804600000,0.006032110000,-0.031786200000,-0.005860920000,0.005562920000,-0.006107080000,0.005532440000,-0.000000085635,-0.000002377450,-0.000000127724,0.000000541845,0.000000002724,0.000000177048,0.000000000665,-0.022430500000,0.006088410000,-0.035044600000,-0.005854830000,0.014394100000,-0.006115880000,-0.000942566000,-0.022430500000,0.006088410000,-0.035044600000,-0.005854830000,0.014394100000,-0.006115880000,-0.000942566000,-0.022430500000,0.006088410000,-0.035044600000,-0.005854830000,0.014394100000,-0.006115880000,-0.000942566000,0.051799200000,0.728520000000,-0.019748600000,-2.096540000000,0.003142750000,2.914630000000,1.304570000000,-0.000513531000,-0.000110735000,0.001687940000,-0.000325518000,-0.000263571000,0.001001670000,0.000216447000,0.294738000000,-0.954926000000,0.035307100000,0.000000000000,-0.951336000000,-0.296707000000,-0.083221000000,0.000000000000,0.089945700000,-0.009060550000,-0.995905000000,0.000000000000,0.567051000000,0.017450100000,0.075956500000,1.000000000000,-0.017450100000,0.567051000000,0.000000000000,0.000000000000,0.000000000000,1.000000000000,-0.256699000000,-0.013308700000,-0.567194000000,-0.051776000000,0.998659000000,0.000000000000,-0.021881100000,0.594012000000,-0.007944540000,0.664873000000,0.034470700000,0.746160000000,0.437660000000,0.020112700000,0.295226000000,0.037051000000,-0.999227000000,0.013147100000,0.002100790000,-0.061626400000,0.000750398000,0.311610000000,-0.000947769000,-0.950209000000,0.098588700000,0.004544670000,0.097224500000,0.034066800000,-0.999345000000,0.012168600000,0.000000000000,0.000000000000,-0.000000000000,0.089945700000,-0.009060550000,-0.995905000000,0.045255700000,0,0,0,2000.000000000000,40.000000000000
1782251247.165683984756,0.308896349998,hold_measured_before,0.567050898248,0.567051119292,0.567050917512,0.000000201780,-0.011771300000,-0.007903400000,-0.008455800000,-0.002221930000,0.006531460000,-0.000327489000,-0.004603750000,0.014560700000,-0.005866520000,-0.014420200000,0.000068573800,-0.008625410000,0.000067093800,0.000000096340,-0.000000356397,0.000000103650,-0.000000078116,-0.000000008906,0.000000023348,0.000000000907,-0.005012500000,0.014554800000,-0.005561880000,-0.014420800000,-0.000756853000,-0.008624540000,0.000672289000,-0.005012500000,0.014554800000,-0.005561880000,-0.014420800000,-0.000756853000,-0.008624540000,0.000672289000,-0.005012500000,0.014554800000,-0.005561880000,-0.014420800000,-0.000756853000,-0.008624540000,0.000672289000,0.051797500000,0.728522000000,-0.019752600000,-2.096540000000,0.003141640000,2.914630000000,1.304570000000,0.000058196600,-0.000226935000,0.000262552000,0.000510453000,0.000216195000,0.000089671600,0.000018017000,0.294734000000,-0.954927000000,0.035310100000,0.000000000000,-0.951337000000,-0.296704000000,-0.083220400000,0.000000000000,0.089946000000,-0.009063880000,-0.995905000000,0.000000000000,0.567051000000,0.017446800000,0.075956100000,1.000000000000,-0.017446800000,0.567051000000,0.000000000000,0.000000000000,0.000000000000,1.000000000000,-0.256699000000,-0.013308300000,-0.567194000000,-0.051774300000,0.998659000000,0.000000000000,-0.021878300000,0.594012000000,-0.007946100000,0.664875000000,0.034469700000,0.746159000000,0.437660000000,0.020111400000,0.295226000000,0.037046300000,-0.999227000000,0.013149800000,0.002100570000,-0.061626400000,0.000750585000,0.311611000000,-0.000951763000,-0.950209000000,0.098588700000,0.004544610000,0.097224600000,0.034063200000,-0.999346000000,0.012171600000,0.000000000000,-0.000000000000,0.000000000000,0.089946000000,-0.009063880000,-0.995905000000,0.023479100000,0,0,0,2000.000000000000,40.000000000000
1782251247.186722517014,0.329935738999,hold_measured_before,0.567050898248,0.567051645317,0.567050910852,0.000000734465,0.004328790000,0.033288300000,0.003997400000,-0.003727310000,-0.000630210000,0.023702400000,0.042503100000,-0.004257870000,0.034833100000,0.004547410000,-0.025722500000,0.001757980000,-0.023934900000,0.000000932944,0.000000019926,0.000000919139,-0.000001670640,-0.000000124842,-0.000000076226,0.000000008130,0.050222000000,-0.004154320000,0.029085000000,0.004555540000,-0.010140700000,0.001742060000,-0.035359600000,0.050222000000,-0.004154320000,0.029085000000,0.004555540000,-0.010140700000,0.001742060000,-0.035359600000,0.050222000000,-0.004154320000,0.029085000000,0.004555540000,-0.010140700000,0.001742060000,-0.035359600000,0.051795100000,0.728518000000,-0.019750400000,-2.096540000000,0.003142750000,2.914630000000,1.304570000000,-0.001576680000,0.000032692500,0.000198513000,-0.000461185000,0.000863963000,0.000408883000,0.000718569000,0.294735000000,-0.954927000000,0.035309200000,0.000000000000,-0.951336000000,-0.296704000000,-0.083223500000,0.000000000000,0.089948700000,-0.009062080000,-0.995905000000,0.000000000000,0.567052000000,0.017446800000,0.075957900000,1.000000000000,-0.017446800000,0.567052000000,0.000000000000,0.000000000000,0.000000000000,1.000000000000,-0.256697000000,-0.013307600000,-0.567194000000,-0.051772000000,0.998659000000,0.000000000000,-0.021877800000,0.594012000000,-0.007945230000,0.664872000000,0.034468000000,0.746162000000,0.437659000000,0.020110600000,0.295228000000,0.037045600000,-0.999227000000,0.013148300000,0.002100460000,-0.061626400000,0.000750469000,0.311613000000,-0.000950449000,-0.950209000000,0.098588400000,0.004544240000,0.097224800000,0.034061400000,-0.999346000000,0.012169800000,0.000000000000,0.000000000000,-0.000000000000,0.089948700000,-0.009062080000,-0.995905000000,0.069009900000,0,0,0,2000.000000000000,40.000000000000
1782251247.206763505936,0.349976074001,hold_measured_before,0.567050898248,0.567050365253,0.567050906663,-0.000000541409,-0.011882700000,-0.022336700000,-0.003911100000,-0.007532940000,0.002210780000,-0.003146650000,-0.015605300000,0.008163750000,-0.020257300000,-0.009334030000,0.001989160000,-0.004157510000,0.002436220000,0.000000308394,-0.000001050160,0.000000360781,-0.000000112986,-0.000000033870,0.000000043359,0.000000002008,-0.017637700000,0.008135430000,-0.018742900000,-0.009336730000,-0.002114560000,-0.004153290000,0.005445030000,-0.017637700000,0.008135430000,-0.018742900000,-0.009336730000,-0.002114560000,-0.004153290000,0.005445030000,-0.017637700000,0.008135430000,-0.018742900000,-0.009336730000,-0.002114560000,-0.004153290000,0.005445030000,0.051798800000,0.728523000000,-0.019750400000,-2.096540000000,0.003143100000,2.914630000000,1.304570000000,-0.000085223100,-0.000024530900,0.000943482000,0.000896930000,0.001212280000,-0.000589311000,-0.000913866000,0.294738000000,-0.954926000000,0.035306900000,0.000000000000,-0.951336000000,-0.296707000000,-0.083215300000,0.000000000000,0.089940200000,-0.009062020000,-0.995906000000,0.000000000000,0.567050000000,0.017448800000,0.075955200000,1.000000000000,-0.017448800000,0.567050000000,0.000000000000,0.000000000000,0.000000000000,1.000000000000,-0.256700000000,-0.013308600000,-0.567193000000,-0.051775600000,0.998659000000,0.000000000000,-0.021880000000,0.594012000000,-0.007945270000,0.664875000000,0.034470500000,0.746159000000,0.437661000000,0.020112300000,0.295226000000,0.037049300000,-0.999227000000,0.013148300000,0.002100640000,-0.061625700000,0.000750458000,0.311610000000,-0.000949463000,-0.950210000000,0.098589300000,0.004544580000,0.097224000000,0.034064800000,-0.999346000000,0.012169700000,0.000000000000,0.000000000000,-0.000000000000,0.089940200000,-0.009062020000,-0.995906000000,0.029446800000,0,0,0,2000.000000000000,40.000000000000
1782251247.227718830109,0.370931473000,hold_measured_before,0.567050898248,0.567049197597,0.567050903753,-0.000001706160,0.002767910000,-0.071021400000,0.006625170000,-0.007884330000,0.004408140000,-0.019663900000,-0.059984900000,0.001287500000,-0.062063300000,-0.003216660000,0.020611400000,-0.004318990000,0.018834400000,-0.000000053676,-0.000001908550,-0.000000010758,-0.000002130580,-0.000000088715,0.000000104141,0.000000009528,-0.058942300000,0.001299570000,-0.062840000000,-0.003217470000,0.022716300000,-0.004321030000,0.017291100000,-0.058942300000,0.001299570000,-0.062840000000,-0.003217470000,0.022716300000,-0.004321030000,0.017291100000,-0.058942300000,0.001299570000,-0.062840000000,-0.003217470000,0.022716300000,-0.004321030000,0.017291100000,0.051803500000,0.728522000000,-0.019746600000,-2.096540000000,0.003140360000,2.914630000000,1.304570000000,0.000424089000,0.000201954000,0.001867100000,0.000106421000,-0.001014380000,0.000727969000,0.000370200000,0.294747000000,-0.954923000000,0.035304900000,0.000000000000,-0.951333000000,-0.296716000000,-0.083214500000,0.000000000000,0.089939000000,-0.009059450000,-0.995906000000,0.000000000000,0.567049000000,0.017453900000,0.075954800000,1.000000000000,-0.017453900000,0.567049000000,0.000000000000,0.000000000000,0.000000000000,1.000000000000,-0.256700000000,-0.013309900000,-0.567192000000,-0.051780400000,0.998658000000,0.000000000000,-0.021884700000,0.594012000000,-0.007943630000,0.664874000000,0.034473700000,0.746159000000,0.437661000000,0.020114900000,0.295225000000,0.037056900000,-0.999227000000,0.013145800000,0.002101280000,-0.061625800000,0.000750355000,0.311608000000,-0.000944744000,-0.950210000000,0.098589300000,0.004545430000,0.097223900000,0.034075000000,-0.999345000000,0.012168000000,0.000000000000,0.000000000000,-0.000000000000,0.089939000000,-0.009059450000,-0.995906000000,0.090932900000,0,0,0,2000.000000000000,40.000000000000
1782251247.248789072037,0.392001510998,hold_measured_before,0.567050898248,0.567049242084,0.567050901924,-0.000001659840,0.027226500000,0.009702570000,0.006463550000,0.005726450000,-0.004680310000,0.015622500000,0.020649200000,-0.015754800000,0.020419200000,0.019113600000,-0.013591700000,0.008419200000,-0.015001000000,-0.000002994000,-0.000003879460,-0.000002244060,0.000001282550,0.000000232200,0.000000313310,-0.000000002929,0.011050000000,-0.015887400000,0.027565000000,0.019102700000,-0.032965200000,0.008439210000,-0.000796254000,0.011050000000,-0.015887400000,0.027565000000,0.019102700000,-0.032965200000,0.008439210000,-0.000796254000,0.011050000000,-0.015887400000,0.027565000000,0.019102700000,-0.032965200000,0.008439210000,-0.000796254000,0.051799900000,0.728520000000,-0.019750500000,-2.096550000000,0.003142750000,2.914630000000,1.304570000000,0.001412990000,-0.000812001000,-0.001795980000,-0.002006400000,0.001351750000,0.000553102000,0.000732463000,0.294737000000,-0.954926000000,0.035307000000,0.000000000000,-0.951336000000,-0.296705000000,-0.083216100000,0.000000000000,0.089941000000,-0.009062030000,-0.995906000000,0.000000000000,0.567049000000,0.017449300000,0.075955600000,1.000000000000,-0.017449300000,0.567049000000,0.000000000000,0.000000000000,0.000000000000,1.000000000000,-0.256700000000,-0.013308900000,-0.567192000000,-0.051776800000,0.998659000000,0.000000000000,-0.021880600000,0.594012000000,-0.007945280000,0.664873000000,0.034471200000,0.746160000000,0.437661000000,0.020112800000,0.295225000000,0.037050300000,-0.999227000000,0.013148400000,0.002100740000,-0.061626100000,0.000750473000,0.311608000000,-0.000949272000,-0.950210000000,0.098589200000,0.004544730000,0.097224100000,0.034066200000,-0.999345000000,0.012169900000,0.000000000000,0.000000000000,-0.000000000000,0.089941000000,-0.009062030000,-0.995906000000,0.051554000000,0,0,0,2000.000000000000,40.000000000000
1782251247.269764423370,0.412976858002,hold_measured_before,0.567050898248,0.567050074466,0.567050900653,-0.000000826186,0.006638630000,0.009534690000,-0.019997700000,0.003437570000,-0.001998850000,0.013670300000,0.018961100000,0.007337400000,0.018094200000,-0.000502203000,-0.012505200000,0.001034600000,-0.013287000000,0.000000146457,0.000001282250,0.000000207486,-0.000001808130,-0.000000034281,-0.000000088830,0.000000004089,0.021268700000,0.007369630000,0.016375700000,-0.000501084000,-0.007846730000,0.001029770000,-0.016702600000,0.021268700000,0.007369630000,0.016375700000,-0.000501084000,-0.007846730000,0.001029770000,-0.016702600000,0.021268700000,0.007369630000,0.016375700000,-0.000501084000,-0.007846730000,0.001029770000,-0.016702600000,0.051800400000,0.728518000000,-0.019751100000,-2.096550000000,0.003141070000,2.914630000000,1.304580000000,0.000007219540,-0.001629990000,-0.000680581000,-0.001087380000,-0.000460395000,-0.000821290000,0.001631120000,0.294735000000,-0.954927000000,0.035308200000,0.000000000000,-0.951337000000,-0.296704000000,-0.083218100000,0.000000000000,0.089943200000,-0.009062690000,-0.995906000000,0.000000000000,0.567050000000,0.017449400000,0.075957000000,1.000000000000,-0.017449400000,0.567050000000,0.000000000000,0.000000000000,0.000000000000,1.000000000000,-0.256698000000,-0.013309000000,-0.567193000000,-0.051777300000,0.998659000000,0.000000000000,-0.021880700000,0.594012000000,-0.007945440000,0.664871000000,0.034471500000,0.746162000000,0.437660000000,0.020112900000,0.295226000000,0.037050400000,-0.999227000000,0.013148700000,0.002100840000,-0.061626000000,0.000750526000,0.311611000000,-0.000949496000,-0.950209000000,0.098589000000,0.004544980000,0.097224300000,0.034067800000,-0.999345000000,0.012170800000,0.000000000000,-0.000000000000,0.000000000000,0.089943200000,-0.009062690000,-0.995906000000,0.033416900000,0,0,0,2000.000000000000,40.000000000000
1782251247.289849042892,0.433061727999,hold_measured_before,0.567050898248,0.567050738090,0.567050899854,-0.000000161764,0.005934960000,0.008106370000,0.006589440000,0.001435750000,-0.004470980000,-0.000342712000,0.004150460000,-0.009908190000,0.005177830000,0.009222120000,0.000295143000,0.005775410000,0.000510962000,0.000000234741,-0.000000025037,0.000000226162,-0.000000233688,-0.000000023439,-0.000000004932,0.000000001078,0.007227270000,-0.009866940000,0.002886360000,0.009225790000,0.006506390000,0.005769090000,-0.004043110000,0.007227270000,-0.009866940000,0.002886360000,0.009225790000,0.006506390000,0.005769090000,-0.004043110000,0.007227270000,-0.009866940000,0.002886360000,0.009225790000,0.006506390000,0.005769090000,-0.004043110000,0.051798300000,0.728520000000,-0.019750700000,-2.096540000000,0.003141130000,2.914630000000,1.304570000000,-0.000515372000,0.000007173840,-0.000031315400,-0.000277174000,-0.000397430000,-0.000263507000,-0.000198650000,0.294739000000,-0.954925000000,0.035308200000,0.000000000000,-0.951336000000,-0.296707000000,-0.083217200000,0.000000000000,0.089942400000,-0.009062640000,-0.995906000000,0.000000000000,0.567051000000,0.017448500000,0.075956500000,1.000000000000,-0.017448500000,0.567051000000,0.000000000000,0.000000000000,0.000000000000,1.000000000000,-0.256699000000,-0.013308500000,-0.567194000000,-0.051775200000,0.998659000000,0.000000000000,-0.021879700000,0.594012000000,-0.007945310000,0.664873000000,0.034470200000,0.746160000000,0.437660000000,0.020112000000,0.295226000000,0.037048600000,-0.999227000000,0.013148500000,0.002100720000,-0.061625800000,0.000750508000,0.311612000000,-0.000949795000,-0.950209000000,0.098589000000,0.004544770000,0.097224200000,0.034066000000,-0.999345000000,0.012170500000,0.000000000000,0.000000000000,0.000000000000,0.089942400000,-0.009062640000,-0.995906000000,0.018303000000,0,0,0,2000.000000000000,40.000000000000
1782251247.310828685760,0.454041664001,hold_measured_before,0.567050898248,0.567051485407,0.567050899299,0.000000586108,-0.027146600000,-0.072476000000,-0.032396200000,-0.014589800000,0.017961700000,-0.003639700000,-0.044263500000,0.045001100000,-0.053997200000,-0.041439300000,0.003280160000,-0.024646800000,0.002149770000,0.000001596400,-0.000004062390,0.000001711420,-0.000003045310,-0.000000241822,0.000000210887,0.000000016707,-0.045311700000,0.044982900000,-0.053213600000,-0.041443700000,0.001160590000,-0.024644500000,0.003703670000,-0.045311700000,0.044982900000,-0.053213600000,-0.041443700000,0.001160590000,-0.024644500000,0.003703670000,-0.045311700000,0.044982900000,-0.053213600000,-0.041443700000,0.001160590000,-0.024644500000,0.003703670000,0.051800700000,0.728518000000,-0.019746600000,-2.096540000000,0.003140370000,2.914630000000,1.304570000000,0.000480500000,-0.000828198000,0.002125800000,0.001014610000,0.000684654000,0.000468387000,0.001009470000,0.294743000000,-0.954924000000,0.035306700000,0.000000000000,-0.951334000000,-0.296712000000,-0.083221800000,0.000000000000,0.089946400000,-0.009059380000,-0.995905000000,0.000000000000,0.567051000000,0.017452400000,0.075957800000,1.000000000000,-0.017452400000,0.567051000000,0.000000000000,0.000000000000,0.000000000000,1.000000000000,-0.256697000000,-0.013309000000,-0.567195000000,-0.051777500000,0.998659000000,0.000000000000,-0.021883000000,0.594012000000,-0.007943610000,0.664872000000,0.034471700000,0.746162000000,0.437659000000,0.020113600000,0.295228000000,0.037054000000,-0.999227000000,0.013145700000,0.002101100000,-0.061626000000,0.000750352000,0.311614000000,-0.000945353000,-0.950208000000,0.098588600000,0.004545120000,0.097224600000,0.034072100000,-0.999345000000,0.012167900000,0.000000000000,-0.000000000000,-0.000000000000,0.089946400000,-0.009059380000,-0.995905000000,0.096168000000,0,0,0,2000.000000000000,40.000000000000
1782251247.331771373749,0.474983968001,hold_measured_before,0.567050898248,0.567051621781,0.567050898936,0.000000722846,-0.003143050000,0.048177700000,0.016896000000,0.007207010000,-0.003024730000,0.021422800000,0.048796900000,-0.012811500000,0.049225000000,0.008152660000,-0.021070400000,0.005080830000,-0.020659400000,-0.000000794072,0.000000110509,-0.000000534961,-0.000003062450,-0.000000151237,-0.000000067064,0.000000008355,0.054117200000,-0.012740000000,0.045260900000,0.008156350000,-0.010327800000,0.005069840000,-0.028535900000,0.054117200000,-0.012740000000,0.045260900000,0.008156350000,-0.010327800000,0.005069840000,-0.028535900000,0.054117200000,-0.012740000000,0.045260900000,0.008156350000,-0.010327800000,0.005069840000,-0.028535900000,0.051800600000,0.728520000000,-0.019755600000,-2.096540000000,0.003141990000,2.914630000000,1.304570000000,-0.000799270000,0.001049650000,-0.001312360000,0.000618063000,-0.000332358000,-0.000005928640,0.001237740000,0.294737000000,-0.954926000000,0.035312400000,0.000000000000,-0.951336000000,-0.296706000000,-0.083221100000,0.000000000000,0.089947400000,-0.009065600000,-0.995905000000,0.000000000000,0.567052000000,0.017446900000,0.075957200000,1.000000000000,-0.017446900000,0.567052000000,0.000000000000,0.000000000000,0.000000000000,1.000000000000,-0.256698000000,-0.013309000000,-0.567194000000,-0.051777400000,0.998659000000,0.000000000000,-0.021878800000,0.594012000000,-0.007947260000,0.664873000000,0.034471700000,0.746160000000,0.437660000000,0.020112400000,0.295227000000,0.037047200000,-0.999227000000,0.013151700000,0.002100600000,-0.061626300000,0.000750696000,0.311613000000,-0.000953245000,-0.950209000000,0.098588600000,0.004544830000,0.097224700000,0.034063800000,-0.999346000000,0.012173500000,0.000000000000,0.000000000000,-0.000000000000,0.089947400000,-0.009065600000,-0.995905000000,0.078439200000,0,0,0,2000.000000000000,40.000000000000
1782251247.352874994278,0.496087129002,hold_measured_before,0.567050898248,0.567051156274,0.567050898707,0.000000257567,-0.011102500000,0.011855400000,-0.000101927000,0.008823470000,0.005467280000,-0.010997800000,-0.004081450000,0.007753100000,0.005134800000,-0.009931500000,0.012440500000,-0.006347560000,0.011696800000,0.000000204230,-0.000000957065,0.000000081458,0.000000094449,-0.000000058221,0.000000051145,0.000000001313,-0.006853200000,0.007714960000,0.007199690000,-0.009934920000,0.006844190000,-0.006341820000,0.015800000000,-0.006853200000,0.007714960000,0.007199690000,-0.009934920000,0.006844190000,-0.006341820000,0.015800000000,-0.006853200000,0.007714960000,0.007199690000,-0.009934920000,0.006844190000,-0.006341820000,0.015800000000,0.051800800000,0.728519000000,-0.019751400000,-2.096540000000,0.003140060000,2.914630000000,1.304570000000,0.000364685000,0.000441576000,-0.001185440000,0.000740840000,-0.000729081000,0.000362678000,-0.001161260000,0.294745000000,-0.954923000000,0.035309500000,0.000000000000,-0.951333000000,-0.296714000000,-0.083217700000,0.000000000000,0.089943400000,-0.009063080000,-0.995906000000,0.000000000000,0.567051000000,0.017449600000,0.075957400000,1.000000000000,-0.017449600000,0.567051000000,0.000000000000,0.000000000000,0.000000000000,1.000000000000,-0.256698000000,-0.013309100000,-0.567194000000,-0.051777700000,0.998659000000,0.000000000000,-0.021880900000,0.594012000000,-0.007945510000,0.664872000000,0.034471700000,0.746161000000,0.437660000000,0.020113000000,0.295227000000,0.037050500000,-0.999227000000,0.013148900000,0.002100900000,-0.061625700000,0.000750553000,0.311614000000,-0.000949512000,-0.950208000000,0.098588900000,0.004545140000,0.097224300000,0.034068900000,-0.999345000000,0.012171300000,-0.000000000000,-0.000000000000,0.000000000000,0.089943400000,-0.009063080000,-0.995906000000,0.024366500000,0,0,0,2000.000000000000,40.000000000000
1782251247.373818397522,0.517030716001,hold_measured_before,0.567050898248,0.567048524739,0.567050898549,-0.000002373810,0.010181100000,-0.019521200000,0.024518000000,-0.003778100000,0.000790899000,0.001179140000,-0.010068000000,-0.015274700000,-0.013618300000,0.010386800000,-0.001055650000,0.002394020000,-0.001521270000,-0.000000079835,-0.000000308766,-0.000000025192,-0.000000389278,0.000000000972,0.000000024116,0.000000001351,-0.008659830000,-0.015256100000,-0.014667300000,0.010388200000,0.001787500000,0.002391150000,-0.003605860000,-0.008659830000,-0.015256100000,-0.014667300000,0.010388200000,0.001787500000,0.002391150000,-0.003605860000,-0.008659830000,-0.015256100000,-0.014667300000,0.010388200000,0.001787500000,0.002391150000,-0.003605860000,0.051799700000,0.728526000000,-0.019748600000,-2.096540000000,0.003141990000,2.914630000000,1.304570000000,-0.000096884400,0.000811153000,0.000623863000,-0.000027845600,0.000052059700,0.000978040000,0.000500000000,0.294741000000,-0.954925000000,0.035305300000,0.000000000000,-0.951335000000,-0.296710000000,-0.083212400000,0.000000000000,0.089937100000,-0.009061070000,-0.995906000000,0.000000000000,0.567049000000,0.017450300000,0.075952900000,1.000000000000,-0.017450300000,0.567049000000,0.000000000000,0.000000000000,0.000000000000,1.000000000000,-0.256702000000,-0.013309000000,-0.567191000000,-0.051776500000,0.998659000000,0.000000000000,-0.021881400000,0.594012000000,-0.007944550000,0.664877000000,0.034471300000,0.746157000000,0.437662000000,0.020113000000,0.295223000000,0.037051600000,-0.999227000000,0.013147200000,0.002100860000,-0.061626100000,0.000750415000,0.311604000000,-0.000947925000,-0.950212000000,0.098589600000,0.004544840000,0.097223700000,0.034068100000,-0.999345000000,0.012168900000,0.000000000000,0.000000000000,-0.000000000000,0.089937100000,-0.009061070000,-0.995906000000,0.025548000000,0,0,0,2000.000000000000,40.000000000000
1782251247.394851922989,0.538064665001,hold_measured_before,0.567050898248,0.567050270937,0.567050898449,-0.000000627511,-0.004570420000,0.003504930000,-0.009571670000,0.006144870000,0.013898200000,-0.011890100000,-0.009822900000,0.020116900000,-0.002049290000,-0.018571700000,0.012966900000,-0.015189700000,0.012268200000,0.000000298281,-0.000000054063,0.000000351877,-0.000000271934,-0.000000073329,-0.000000017038,0.000000001959,-0.009828120000,0.020116800000,-0.002044820000,-0.018572000000,0.012955700000,-0.015189700000,0.012276400000,-0.009828120000,0.020116800000,-0.002044820000,-0.018572000000,0.012955700000,-0.015189700000,0.012276400000,-0.009828120000,0.020116800000,-0.002044820000,-0.018572000000,0.012955700000,-0.015189700000,0.012276400000,0.051798100000,0.728520000000,-0.019750400000,-2.096550000000,0.003141130000,2.914630000000,1.304570000000,0.000184276000,-0.000390995000,-0.000615247000,-0.000277892000,-0.001200090000,0.001614440000,-0.000594337000,0.294738000000,-0.954925000000,0.035308700000,0.000000000000,-0.951335000000,-0.296707000000,-0.083219800000,0.000000000000,0.089945100000,-0.009062340000,-0.995905000000,0.000000000000,0.567050000000,0.017448500000,0.075956300000,1.000000000000,-0.017448500000,0.567050000000,0.000000000000,0.000000000000,0.000000000000,1.000000000000,-0.256699000000,-0.013308400000,-0.567193000000,-0.051775000000,0.998659000000,0.000000000000,-0.021879700000,0.594012000000,-0.007945180000,0.664873000000,0.034470000000,0.746160000000,0.437660000000,0.020112000000,0.295226000000,0.037048600000,-0.999227000000,0.013148300000,0.002100740000,-0.061626400000,0.000750503000,0.311610000000,-0.000949684000,-0.950210000000,0.098588800000,0.004544750000,0.097224500000,0.034066000000,-0.999345000000,0.012170300000,0.000000000000,-0.000000000000,-0.000000000000,0.089945100000,-0.009062340000,-0.995905000000,0.037412100000,0,0,0,2000.000000000000,40.000000000000
1782251247.415911197662,0.559123202002,hold_measured_before,0.567050898248,0.567051244976,0.567050898382,0.000000346594,-0.001101440000,-0.012315600000,0.001978310000,0.004380420000,-0.011016500000,-0.016444300000,-0.023408700000,-0.011903900000,-0.017044700000,0.010808300000,0.017759100000,0.010986100000,0.016870800000,-0.000000082373,-0.000000036045,-0.000000088015,-0.000000252552,0.000000035868,-0.000000016953,0.000000002490,-0.024854700000,-0.011923400000,-0.015967700000,0.010806200000,0.014840000000,0.010989000000,0.019011200000,-0.024854700000,-0.011923400000,-0.015967700000,0.010806200000,0.014840000000,0.010989000000,0.019011200000,-0.024854700000,-0.011923400000,-0.015967700000,0.010806200000,0.014840000000,0.010989000000,0.019011200000,0.051799900000,0.728518000000,-0.019752500000,-2.096540000000,0.003141130000,2.914630000000,1.304570000000,0.000442567000,0.000008348310,-0.000156703000,0.000451488000,-0.001069120000,-0.001812680000,-0.000711840000,0.294742000000,-0.954924000000,0.035310000000,0.000000000000,-0.951335000000,-0.296711000000,-0.083218300000,0.000000000000,0.089944000000,-0.009063700000,-0.995906000000,0.000000000000,0.567051000000,0.017448300000,0.075957500000,1.000000000000,-0.017448300000,0.567051000000,0.000000000000,0.000000000000,0.000000000000,1.000000000000,-0.256698000000,-0.013308800000,-0.567194000000,-0.051776700000,0.998659000000,0.000000000000,-0.021879800000,0.594012000000,-0.007945990000,0.664872000000,0.034471100000,0.746162000000,0.437660000000,0.020112500000,0.295227000000,0.037048800000,-0.999227000000,0.013149700000,0.002100730000,-0.061625700000,0.000750578000,0.311614000000,-0.000950744000,-0.950208000000,0.098588900000,0.004544900000,0.097224400000,0.034066200000,-0.999345000000,0.012171600000,0.000000000000,-0.000000000000,0.000000000000,0.089944000000,-0.009063700000,-0.995906000000,0.042826100000,0,0,0,2000.000000000000,40.000000000000
1782251247.435971736908,0.579184005001,hold_measured_before,0.567050898248,0.567050577589,0.567050898338,-0.000000320748,0.005114510000,-0.062221600000,0.022369800000,-0.009948600000,-0.008768450000,-0.015083200000,-0.050455300000,-0.021414500000,-0.055421300000,0.015785900000,0.015102500000,0.010636700000,0.014206100000,0.000001192290,0.000000419749,0.000000851567,-0.000004103350,-0.000000175398,-0.000000127885,0.000000013244,-0.058640700000,-0.021523800000,-0.049322400000,0.015771400000,-0.001425750000,0.010653300000,0.026324400000,-0.058640700000,-0.021523800000,-0.049322400000,0.015771400000,-0.001425750000,0.010653300000,0.026324400000,-0.058640700000,-0.021523800000,-0.049322400000,0.015771400000,-0.001425750000,0.010653300000,0.026324400000,0.051797100000,0.728522000000,-0.019744800000,-2.096540000000,0.003143650000,2.914630000000,1.304570000000,0.001043760000,0.001004370000,0.001404120000,0.000574520000,0.001446970000,-0.000604017000,-0.001154470000,0.294741000000,-0.954925000000,0.035304300000,0.000000000000,-0.951335000000,-0.296709000000,-0.083220200000,0.000000000000,0.089944100000,-0.009057810000,-0.995906000000,0.000000000000,0.567051000000,0.017451100000,0.075955700000,1.000000000000,-0.017451100000,0.567051000000,0.000000000000,0.000000000000,0.000000000000,1.000000000000,-0.256700000000,-0.013308200000,-0.567194000000,-0.051773900000,0.998659000000,0.000000000000,-0.021881500000,0.594012000000,-0.007943080000,0.664875000000,0.034469400000,0.746159000000,0.437660000000,0.020112300000,0.295226000000,0.037051800000,-0.999227000000,0.013144600000,0.002100780000,-0.061626200000,0.000750224000,0.311610000000,-0.000945145000,-0.950210000000,0.098588900000,0.004544390000,0.097224400000,0.034066800000,-0.999346000000,0.012165800000,0.000000000000,-0.000000000000,-0.000000000000,0.089944100000,-0.009057810000,-0.995906000000,0.085976400000,0,0,0,2000.000000000000,40.000000000000
1782251247.456972122192,0.600185442003,hold_measured_before,0.567050898248,0.567051239091,0.567050898307,0.000000340785,0.002345200000,0.019664800000,0.001826990000,-0.001768030000,-0.009411550000,-0.006207960000,0.004902060000,-0.011207400000,0.005483240000,0.011218400000,0.004151290000,0.009767820000,0.006108800000,0.000000123731,0.000000362445,0.000000174346,-0.000000943747,-0.000000090172,-0.000000087245,0.000000003909,-0.000899727000,-0.011284800000,0.009805190000,0.011210100000,-0.007562230000,0.009779650000,0.014697000000,-0.000899727000,-0.011284800000,0.009805190000,0.011210100000,-0.007562230000,0.009779650000,0.014697000000,-0.000899727000,-0.011284800000,0.009805190000,0.011210100000,-0.007562230000,0.009779650000,0.014697000000,0.051797700000,0.728520000000,-0.019750400000,-2.096540000000,0.003145940000,2.914630000000,1.304570000000,-0.000491865000,-0.000230795000,-0.000222748000,-0.000051721200,0.002338950000,-0.001325160000,-0.003680640000,0.294736000000,-0.954926000000,0.035307100000,0.000000000000,-0.951336000000,-0.296705000000,-0.083218700000,0.000000000000,0.089943500000,-0.009061340000,-0.995906000000,0.000000000000,0.567051000000,0.017448000000,0.075956800000,1.000000000000,-0.017448000000,0.567051000000,0.000000000000,0.000000000000,0.000000000000,1.000000000000,-0.256698000000,-0.013308300000,-0.567194000000,-0.051774500000,0.998659000000,0.000000000000,-0.021879200000,0.594012000000,-0.007945380000,0.664873000000,0.034469700000,0.746160000000,0.437660000000,0.020111800000,0.295227000000,0.037048200000,-0.999227000000,0.013148300000,0.002100410000,-0.061625800000,0.000750402000,0.311613000000,-0.000949683000,-0.950209000000,0.098589000000,0.004544110000,0.097224300000,0.034061000000,-0.999346000000,0.012168800000,0.000000000000,0.000000000000,0.000000000000,0.089943500000,-0.009061340000,-0.995906000000,0.026810400000,0,0,0,2000.000000000000,40.000000000000
1782251247.477966070175,0.621178834001,hold_measured_before,0.567050898248,0.567050042243,0.567050898287,-0.000000856044,0.000667427000,0.010240200000,-0.011827800000,-0.004113110000,0.004044030000,0.009496400000,0.015291500000,0.010652600000,0.010652700000,-0.007062240000,-0.010947600000,-0.005103520000,-0.009864120000,0.000000292429,0.000000287609,0.000000069414,-0.000000611685,-0.000000029350,-0.000000043187,0.000000002167,0.017516800000,0.010682800000,0.008995400000,-0.007060030000,-0.006455530000,-0.005108130000,-0.013157700000,0.017516800000,0.010682800000,0.008995400000,-0.007060030000,-0.006455530000,-0.005108130000,-0.013157700000,0.017516800000,0.010682800000,0.008995400000,-0.007060030000,-0.006455530000,-0.005108130000,-0.013157700000,0.051797100000,0.728518000000,-0.019752200000,-2.096550000000,0.003142750000,2.914630000000,1.304570000000,-0.000701298000,-0.000809674000,0.000320360000,-0.000474489000,0.000900143000,0.000190918000,-0.000124120000,0.294738000000,-0.954926000000,0.035309100000,0.000000000000,-0.951336000000,-0.296707000000,-0.083217700000,0.000000000000,0.089943100000,-0.009063400000,-0.995906000000,0.000000000000,0.567050000000,0.017446800000,0.075956700000,1.000000000000,-0.017446800000,0.567050000000,0.000000000000,0.000000000000,0.000000000000,1.000000000000,-0.256699000000,-0.013308100000,-0.567193000000,-0.051773900000,0.998659000000,0.000000000000,-0.021878200000,0.594012000000,-0.007945920000,0.664872000000,0.034469200000,0.746162000000,0.437660000000,0.020111300000,0.295226000000,0.037046200000,-0.999227000000,0.013149500000,0.002100480000,-0.061626100000,0.000750538000,0.311610000000,-0.000951486000,-0.950209000000,0.098589000000,0.004544430000,0.097224300000,0.034062000000,-0.999346000000,0.012170900000,0.000000000000,0.000000000000,0.000000000000,0.089943100000,-0.009063400000,-0.995906000000,0.028153400000,0,0,0,2000.000000000000,40.000000000000
1782251247.498006105423,0.641218466997,hold_measured_before,0.567050898248,0.567047636051,0.567050898274,-0.000003262220,0.059480500000,-0.016643900000,0.066720700000,0.002051510000,-0.028757700000,-0.000426882000,-0.010902700000,-0.081716000000,-0.011664200000,0.074201000000,0.002272970000,0.041078900000,0.000870300000,-0.000002909760,-0.000007085070,-0.000003110110,-0.000001600050,0.000000131887,0.000000491943,0.000000010015,-0.014082600000,-0.081765700000,-0.009300810000,0.074195300000,-0.004141030000,0.041085900000,0.005573130000,-0.014082600000,-0.081765700000,-0.009300810000,0.074195300000,-0.004141030000,0.041085900000,0.005573130000,-0.014082600000,-0.081765700000,-0.009300810000,0.074195300000,-0.004141030000,0.041085900000,0.005573130000,0.051801500000,0.728524000000,-0.019752500000,-2.096550000000,0.003140890000,2.914630000000,1.304570000000,0.000815832000,0.001418810000,-0.000188926000,-0.002169460000,-0.000137258000,0.000001982060,0.000742401000,0.294740000000,-0.954925000000,0.035307900000,0.000000000000,-0.951336000000,-0.296709000000,-0.083211100000,0.000000000000,0.089936500000,-0.009064020000,-0.995906000000,0.000000000000,0.567048000000,0.017449100000,0.075953100000,1.000000000000,-0.017449100000,0.567048000000,0.000000000000,0.000000000000,0.000000000000,1.000000000000,-0.256702000000,-0.013309500000,-0.567190000000,-0.051778300000,0.998659000000,0.000000000000,-0.021880800000,0.594011000000,-0.007946040000,0.664876000000,0.034472400000,0.746158000000,0.437663000000,0.020113300000,0.295223000000,0.037050400000,-0.999227000000,0.013149800000,0.002100860000,-0.061626200000,0.000750597000,0.311603000000,-0.000950780000,-0.950212000000,0.098589600000,0.004545120000,0.097223600000,0.034068000000,-0.999345000000,0.012171900000,0.000000000000,-0.000000000000,-0.000000000000,0.089936500000,-0.009064020000,-0.995906000000,0.119213000000,0,0,0,2000.000000000000,40.000000000000
1782251247.518980264664,0.662192381998,hold_measured_before,0.567050898248,0.567050433225,0.567050898265,-0.000000465040,0.025225200000,-0.025853000000,0.031740800000,-0.003599750000,-0.016018500000,-0.013457100000,-0.028557200000,-0.039945100000,-0.029147800000,0.035586700000,0.013350600000,0.021177100000,0.013223400000,-0.000000446688,-0.000001553200,-0.000000452139,-0.000000732742,-0.000000013722,0.000000102848,0.000000004431,-0.030444800000,-0.039971900000,-0.027742500000,0.035583500000,0.009540600000,0.021181000000,0.016016900000,-0.030444800000,-0.039971900000,-0.027742500000,0.035583500000,0.009540600000,0.021181000000,0.016016900000,-0.030444800000,-0.039971900000,-0.027742500000,0.035583500000,0.009540600000,0.021181000000,0.016016900000,0.051799400000,0.728522000000,-0.019751100000,-2.096540000000,0.003142750000,2.914630000000,1.304570000000,0.000144053000,0.000709403000,0.000846318000,-0.000831260000,0.000212687000,-0.000414666000,-0.001114380000,0.294739000000,-0.954925000000,0.035308200000,0.000000000000,-0.951335000000,-0.296708000000,-0.083217400000,0.000000000000,0.089942600000,-0.009062490000,-0.995906000000,0.000000000000,0.567050000000,0.017448700000,0.075955600000,1.000000000000,-0.017448700000,0.567050000000,0.000000000000,0.000000000000,0.000000000000,1.000000000000,-0.256700000000,-0.013308800000,-0.567193000000,-0.051776200000,0.998659000000,0.000000000000,-0.021880100000,0.594012000000,-0.007945550000,0.664875000000,0.034470900000,0.746159000000,0.437661000000,0.020112500000,0.295226000000,0.037049400000,-0.999227000000,0.013148800000,0.002100680000,-0.061626000000,0.000750499000,0.311610000000,-0.000949904000,-0.950210000000,0.098589000000,0.004544680000,0.097224200000,0.034065200000,-0.999346000000,0.012170300000,0.000000000000,0.000000000000,-0.000000000000,0.089942600000,-0.009062490000,-0.995906000000,0.073189300000,0,0,0,2000.000000000000,40.000000000000
1782251247.539945840836,0.683157849999,hold_measured_before,0.567050898248,0.567050936141,0.567050898259,0.000000037881,-0.001784820000,-0.004553820000,-0.013926400000,0.002046160000,0.001137780000,-0.020957900000,-0.023509000000,0.009448060000,-0.016793700000,-0.006320840000,0.020817400000,-0.002873060000,0.021045800000,0.000000140160,-0.000000232824,-0.000000197476,-0.000000347512,-0.000000020509,0.000000008474,0.000000001979,-0.016242600000,0.009545300000,-0.022206400000,-0.006311980000,0.035487200000,-0.002887950000,0.010289900000,-0.016242600000,0.009545300000,-0.022206400000,-0.006311980000,0.035487200000,-0.002887950000,0.010289900000,-0.016242600000,0.009545300000,-0.022206400000,-0.006311980000,0.035487200000,-0.002887950000,0.010289900000,0.051797400000,0.728518000000,-0.019750500000,-2.096540000000,0.003137930000,2.914630000000,1.304570000000,-0.000901029000,-0.000869656000,0.000694169000,-0.000320146000,-0.002075000000,-0.000370951000,-0.001021740000,0.294742000000,-0.954924000000,0.035310100000,0.000000000000,-0.951334000000,-0.296711000000,-0.083220600000,0.000000000000,0.089946300000,-0.009063100000,-0.995905000000,0.000000000000,0.567051000000,0.017448300000,0.075957400000,1.000000000000,-0.017448300000,0.567051000000,0.000000000000,0.000000000000,0.000000000000,1.000000000000,-0.256698000000,-0.013308200000,-0.567194000000,-0.051774200000,0.998659000000,0.000000000000,-0.021879400000,0.594012000000,-0.007945060000,0.664872000000,0.034469500000,0.746162000000,0.437660000000,0.020111600000,0.295227000000,0.037047800000,-0.999227000000,0.013148300000,0.002100870000,-0.061626200000,0.000750563000,0.311612000000,-0.000949856000,-0.950209000000,0.098588600000,0.004545060000,0.097224600000,0.034068200000,-0.999345000000,0.012171300000,0.000000000000,0.000000000000,0.000000000000,0.089946300000,-0.009063100000,-0.995905000000,0.047554900000,0,0,0,2000.000000000000,40.000000000000
1782251247.560076951981,0.703289438999,hold_measured_before,0.567050898248,0.567052203289,0.567050898256,0.000001305030,-0.025851800000,-0.035428200000,-0.004115190000,-0.002222700000,0.017562000000,-0.007581960000,-0.027220500000,0.027095200000,-0.026976200000,-0.030972200000,0.008621060000,-0.020828300000,0.007191830000,0.000002563500,0.000000255811,0.000002159090,-0.000001778150,-0.000000197542,-0.000000046960,0.000000008813,-0.032819500000,0.027020300000,-0.022801500000,-0.030981100000,-0.002688300000,-0.020816800000,0.015483700000,-0.032819500000,0.027020300000,-0.022801500000,-0.030981100000,-0.002688300000,-0.020816800000,0.015483700000,-0.032819500000,0.027020300000,-0.022801500000,-0.030981100000,-0.002688300000,-0.020816800000,0.015483700000,0.051801400000,0.728522000000,-0.019751500000,-2.096540000000,0.003140930000,2.914630000000,1.304570000000,0.001060650000,0.000788853000,0.000192233000,0.001507920000,0.000241533000,0.001478790000,0.000076789800,0.294738000000,-0.954926000000,0.035310000000,0.000000000000,-0.951335000000,-0.296707000000,-0.083222600000,0.000000000000,0.089948100000,-0.009062770000,-0.995905000000,0.000000000000,0.567052000000,0.017449800000,0.075956800000,1.000000000000,-0.017449800000,0.567052000000,0.000000000000,0.000000000000,0.000000000000,1.000000000000,-0.256698000000,-0.013309200000,-0.567195000000,-0.051778200000,0.998659000000,0.000000000000,-0.021881200000,0.594013000000,-0.007945620000,0.664875000000,0.034472300000,0.746159000000,0.437659000000,0.020113300000,0.295228000000,0.037051100000,-0.999227000000,0.013149000000,0.002100900000,-0.061626300000,0.000750550000,0.311613000000,-0.000949447000,-0.950209000000,0.098588500000,0.004545080000,0.097224800000,0.034068600000,-0.999345000000,0.012171100000,0.000000000000,-0.000000000000,-0.000000000000,0.089948100000,-0.009062770000,-0.995905000000,0.062986200000,0,0,0,2000.000000000000,40.000000000000
1782251247.581006288528,0.724218707997,hold_measured_before,0.567050898248,0.567049467943,0.567050898253,-0.000001430310,0.031273200000,0.021746100000,0.040962100000,0.005181710000,-0.032048100000,-0.003094460000,0.008690950000,-0.063824100000,0.011939200000,0.058392100000,0.003341820000,0.039330600000,0.003838280000,0.000000596233,-0.000000886608,0.000000732749,-0.000001819940,-0.000000121065,0.000000051211,0.000000009260,0.008873870000,-0.063822500000,0.011804100000,0.058390500000,0.003709780000,0.039330200000,0.003568420000,0.008873870000,-0.063822500000,0.011804100000,0.058390500000,0.003709780000,0.039330200000,0.003568420000,0.008873870000,-0.063822500000,0.011804100000,0.058390500000,0.003709780000,0.039330200000,0.003568420000,0.051799900000,0.728520000000,-0.019751500000,-2.096550000000,0.003141990000,2.914630000000,1.304570000000,-0.000454260000,0.000917954000,-0.000594785000,-0.000565985000,0.000081312800,-0.002516260000,-0.001382970000,0.294742000000,-0.954924000000,0.035308000000,0.000000000000,-0.951335000000,-0.296711000000,-0.083214300000,0.000000000000,0.089939700000,-0.009062950000,-0.995906000000,0.000000000000,0.567049000000,0.017448800000,0.075955600000,1.000000000000,-0.017448800000,0.567049000000,0.000000000000,0.000000000000,0.000000000000,1.000000000000,-0.256700000000,-0.013308900000,-0.567192000000,-0.051776700000,0.998659000000,0.000000000000,-0.021880200000,0.594012000000,-0.007945630000,0.664873000000,0.034471200000,0.746160000000,0.437661000000,0.020112600000,0.295225000000,0.037049600000,-0.999227000000,0.013149000000,0.002100730000,-0.061625800000,0.000750523000,0.311609000000,-0.000950066000,-0.950210000000,0.098589300000,0.004544820000,0.097223900000,0.034066100000,-0.999345000000,0.012170700000,0.000000000000,-0.000000000000,0.000000000000,0.089939700000,-0.009062950000,-0.995906000000,0.096302700000,0,0,0,2000.000000000000,40.000000000000
1782251247.602115869522,0.745328211000,hold_measured_before,0.567050898248,0.567049334349,0.567050898252,-0.000001563900,0.021903000000,0.018509900000,0.009222190000,-0.003297060000,-0.003295930000,0.017063100000,0.027176900000,-0.014220400000,0.020868600000,0.016076500000,-0.018325600000,0.006529230000,-0.017259900000,0.000002861160,-0.000000730711,0.000002471350,-0.000000926418,-0.000000205554,0.000000009937,0.000000009069,0.034441100000,-0.014123700000,0.015462300000,0.016084800000,-0.003665940000,0.006514330000,-0.028008500000,0.034441100000,-0.014123700000,0.015462300000,0.016084800000,-0.003665940000,0.006514330000,-0.028008500000,0.034441100000,-0.014123700000,0.015462300000,0.016084800000,-0.003665940000,0.006514330000,-0.028008500000,0.051798700000,0.728520000000,-0.019748700000,-2.096550000000,0.003142650000,2.914630000000,1.304570000000,-0.001359080000,-0.000435358000,0.000340260000,-0.001523130000,0.000425135000,0.000692941000,0.000624526000,0.294737000000,-0.954926000000,0.035306200000,0.000000000000,-0.951336000000,-0.296706000000,-0.083217200000,0.000000000000,0.089941800000,-0.009060810000,-0.995906000000,0.000000000000,0.567049000000,0.017449700000,0.075955700000,1.000000000000,-0.017449700000,0.567049000000,0.000000000000,0.000000000000,0.000000000000,1.000000000000,-0.256700000000,-0.013308600000,-0.567192000000,-0.051775600000,0.998659000000,0.000000000000,-0.021880700000,0.594012000000,-0.007944560000,0.664873000000,0.034470400000,0.746161000000,0.437661000000,0.020112500000,0.295225000000,0.037050500000,-0.999227000000,0.013147200000,0.002100760000,-0.061626200000,0.000750402000,0.311608000000,-0.000948078000,-0.950210000000,0.098589100000,0.004544640000,0.097224200000,0.034066400000,-0.999345000000,0.012168700000,-0.000000000000,0.000000000000,-0.000000000000,0.089941800000,-0.009060810000,-0.995906000000,0.052190200000,0,0,0,2000.000000000000,40.000000000000
1782251247.623007297516,0.766219208002,hold_measured_before,0.567050898248,0.567051990116,0.567050898250,0.000001091870,-0.013752500000,-0.000485352000,-0.013790400000,-0.005870330000,0.006317600000,0.000235526000,0.000200283000,0.017971600000,-0.003387340000,-0.016627100000,-0.002068390000,-0.009209380000,-0.000819832000,-0.000000835045,-0.000001390470,-0.000000920660,0.000000278768,0.000000059206,0.000000075719,-0.000000000880,0.005498770000,0.018041200000,-0.007335660000,-0.016620100000,0.008630480000,-0.009220180000,-0.008664180000,0.005498770000,0.018041200000,-0.007335660000,-0.016620100000,0.008630480000,-0.009220180000,-0.008664180000,0.005498770000,0.018041200000,-0.007335660000,-0.016620100000,0.008630480000,-0.009220180000,-0.008664180000,0.051798600000,0.728518000000,-0.019748600000,-2.096540000000,0.003143580000,2.914630000000,1.304570000000,-0.001243430000,-0.000325687000,0.000965768000,0.000457141000,0.000401350000,0.000041934600,-0.000863915000,0.294736000000,-0.954926000000,0.035307700000,0.000000000000,-0.951336000000,-0.296705000000,-0.083224300000,0.000000000000,0.089949100000,-0.009060270000,-0.995905000000,0.000000000000,0.567052000000,0.017449800000,0.075958100000,1.000000000000,-0.017449800000,0.567052000000,0.000000000000,0.000000000000,0.000000000000,1.000000000000,-0.256697000000,-0.013308400000,-0.567195000000,-0.051775400000,0.998659000000,0.000000000000,-0.021880600000,0.594012000000,-0.007944560000,0.664872000000,0.034470200000,0.746162000000,0.437659000000,0.020112400000,0.295228000000,0.037050300000,-0.999227000000,0.013147100000,0.002100700000,-0.061626300000,0.000750379000,0.311614000000,-0.000947791000,-0.950208000000,0.098588400000,0.004544490000,0.097224900000,0.034065400000,-0.999346000000,0.012168300000,-0.000000000000,-0.000000000000,0.000000000000,0.089949100000,-0.009060270000,-0.995905000000,0.030336900000,0,0,0,2000.000000000000,40.000000000000
1782251247.643074989319,0.786287586001,hold_measured_before,0.567050898248,0.567050040779,0.567050898250,-0.000000857471,0.019794600000,-0.012330300000,0.032918500000,0.002697250000,-0.019122800000,0.002549170000,-0.004788060000,-0.042825000000,-0.004982800000,0.037375100000,-0.000737371000,0.024329100000,-0.002122770000,-0.000000504232,-0.000000651056,-0.000000959935,-0.000001001530,0.000000026184,0.000000035086,0.000000002877,-0.010723100000,-0.042905300000,-0.000563206000,0.037366600000,-0.012718600000,0.024341300000,0.006661850000,-0.010723100000,-0.042905300000,-0.000563206000,0.037366600000,-0.012718600000,0.024341300000,0.006661850000,-0.010723100000,-0.042905300000,-0.000563206000,0.037366600000,-0.012718600000,0.024341300000,0.006661850000,0.051801400000,0.728520000000,-0.019755600000,-2.096540000000,0.003141130000,2.914630000000,1.304570000000,0.001178020000,0.001056040000,-0.000588791000,-0.000119137000,0.000292155000,-0.001234490000,0.000773909000,0.294736000000,-0.954926000000,0.035311200000,0.000000000000,-0.951336000000,-0.296706000000,-0.083216100000,0.000000000000,0.089942200000,-0.009065960000,-0.995906000000,0.000000000000,0.567050000000,0.017447300000,0.075956100000,1.000000000000,-0.017447300000,0.567050000000,0.000000000000,0.000000000000,0.000000000000,1.000000000000,-0.256699000000,-0.013309300000,-0.567193000000,-0.051778300000,0.998659000000,0.000000000000,-0.021879300000,0.594012000000,-0.007947250000,0.664873000000,0.034472200000,0.746160000000,0.437661000000,0.020112700000,0.295226000000,0.037048000000,-0.999227000000,0.013151800000,0.002100690000,-0.061626000000,0.000750713000,0.311610000000,-0.000953170000,-0.950210000000,0.098589100000,0.004545030000,0.097224200000,0.034065400000,-0.999345000000,0.012173800000,0.000000000000,0.000000000000,-0.000000000000,0.089942200000,-0.009065960000,-0.995906000000,0.064428800000,0,0,0,2000.000000000000,40.000000000000
1782251247.664073467255,0.807286919000,hold_measured_before,0.567050898248,0.567049703762,0.567050898249,-0.000001194490,0.007050070000,-0.037451500000,0.006617140000,-0.010491400000,-0.001952700000,-0.000919493000,-0.022279400000,-0.006471390000,-0.030182400000,0.005836220000,-0.000065889300,0.002751020000,-0.000010182600,0.000000007904,-0.000002162050,-0.000000019722,0.000000279654,-0.000000028471,0.000000139969,0.000000001772,-0.019608300000,-0.006437730000,-0.032172000000,0.005839890000,0.005326770000,0.002745680000,-0.003964090000,-0.019608300000,-0.006437730000,-0.032172000000,0.005839890000,0.005326770000,0.002745680000,-0.003964090000,-0.019608300000,-0.006437730000,-0.032172000000,0.005839890000,0.005326770000,0.002745680000,-0.003964090000,0.051799200000,0.728522000000,-0.019748700000,-2.096540000000,0.003142740000,2.914630000000,1.304570000000,-0.000374755000,-0.000076350100,0.001706820000,-0.000240557000,0.000456058000,-0.000010089600,0.000359766000,0.294738000000,-0.954926000000,0.035305800000,0.000000000000,-0.951336000000,-0.296707000000,-0.083216000000,0.000000000000,0.089940600000,-0.009060810000,-0.995906000000,0.000000000000,0.567050000000,0.017450000000,0.075955100000,1.000000000000,-0.017450000000,0.567050000000,0.000000000000,0.000000000000,0.000000000000,1.000000000000,-0.256700000000,-0.013308800000,-0.567193000000,-0.051776000000,0.998659000000,0.000000000000,-0.021881000000,0.594012000000,-0.007944580000,0.664875000000,0.034470800000,0.746159000000,0.437661000000,0.020112700000,0.295225000000,0.037051000000,-0.999227000000,0.013147200000,0.002100770000,-0.061626000000,0.000750398000,0.311608000000,-0.000947933000,-0.950210000000,0.098589200000,0.004544680000,0.097224000000,0.034066800000,-0.999345000000,0.012168700000,0.000000000000,-0.000000000000,-0.000000000000,0.089940600000,-0.009060810000,-0.995906000000,0.039328100000,0,0,0,2000.000000000000,40.000000000000
1782251247.685026884079,0.828241096002,hold_measured_before,0.567050898248,0.567050381008,0.567050898249,-0.000000517241,-0.004569100000,-0.035145200000,0.016468700000,-0.004564440000,0.009196160000,0.002377170000,-0.017472200000,0.001719860000,-0.021851600000,-0.007171510000,-0.001521220000,-0.008325740000,-0.002861300000,0.000000779511,0.000000866849,0.000000434772,-0.000002069550,-0.000000070525,-0.000000085504,0.000000005208,-0.020558000000,0.001679320000,-0.019552000000,-0.007177490000,-0.007752900000,-0.008319500000,0.001707700000,-0.020558000000,0.001679320000,-0.019552000000,-0.007177490000,-0.007752900000,-0.008319500000,0.001707700000,-0.020558000000,0.001679320000,-0.019552000000,-0.007177490000,-0.007752900000,-0.008319500000,0.001707700000,0.051798000000,0.728523000000,-0.019748600000,-2.096540000000,0.003141980000,2.914630000000,1.304570000000,0.000827579000,0.001146920000,0.000483259000,0.000681413000,0.000368019000,0.001628140000,0.001173330000,0.294735000000,-0.954927000000,0.035306600000,0.000000000000,-0.951337000000,-0.296704000000,-0.083218900000,0.000000000000,0.089943500000,-0.009060950000,-0.995906000000,0.000000000000,0.567050000000,0.017449400000,0.075955200000,1.000000000000,-0.017449400000,0.567050000000,0.000000000000,0.000000000000,0.000000000000,1.000000000000,-0.256700000000,-0.013308400000,-0.567193000000,-0.051774800000,0.998659000000,0.000000000000,-0.021880400000,0.594012000000,-0.007944540000,0.664875000000,0.034470000000,0.746158000000,0.437661000000,0.020112200000,0.295226000000,0.037049800000,-0.999227000000,0.013147200000,0.002100760000,-0.061626300000,0.000750415000,0.311609000000,-0.000948236000,-0.950210000000,0.098588900000,0.004544660000,0.097224300000,0.034066400000,-0.999345000000,0.012168900000,0.000000000000,0.000000000000,0.000000000000,0.089943500000,-0.009060950000,-0.995906000000,0.031487900000,0,0,0,2000.000000000000,40.000000000000
1782251247.705006837845,0.848219852996,hold_measured_before,0.567050898248,0.567051584403,0.567050898249,0.000000686155,-0.026119300000,0.001835460000,-0.021317400000,0.006809790000,0.005179100000,0.000139641000,0.001636210000,0.023591000000,0.006641570000,-0.022608900000,0.001800430000,-0.009581300000,0.000426496000,0.000000601855,-0.000002841900,0.000000596628,0.000000409895,-0.000000035759,0.000000186825,0.000000004154,-0.000092950900,0.023564900000,0.007930650000,-0.022610600000,-0.001691810000,-0.009577570000,0.002986970000,-0.000092950900,0.023564900000,0.007930650000,-0.022610600000,-0.001691810000,-0.009577570000,0.002986970000,-0.000092950900,0.023564900000,0.007930650000,-0.022610600000,-0.001691810000,-0.009577570000,0.002986970000,0.051802700000,0.728518000000,-0.019753300000,-2.096540000000,0.003139610000,2.914630000000,1.304570000000,0.000616452000,-0.000354744000,-0.001040020000,0.001451480000,-0.000790047000,-0.001196700000,0.000637423000,0.294742000000,-0.954924000000,0.035311000000,0.000000000000,-0.951334000000,-0.296711000000,-0.083219700000,0.000000000000,0.089945600000,-0.009064290000,-0.995905000000,0.000000000000,0.567052000000,0.017449600000,0.075957800000,1.000000000000,-0.017449600000,0.567052000000,0.000000000000,0.000000000000,0.000000000000,1.000000000000,-0.256697000000,-0.013309500000,-0.567194000000,-0.051779500000,0.998659000000,0.000000000000,-0.021881200000,0.594012000000,-0.007946230000,0.664872000000,0.034473000000,0.746162000000,0.437659000000,0.020113600000,0.295228000000,0.037051000000,-0.999227000000,0.013150200000,0.002100960000,-0.061625800000,0.000750640000,0.311614000000,-0.000950515000,-0.950208000000,0.098588700000,0.004545350000,0.097224500000,0.034069800000,-0.999345000000,0.012172600000,0.000000000000,-0.000000000000,0.000000000000,0.089945600000,-0.009064290000,-0.995905000000,0.035113600000,0,0,0,2000.000000000000,40.000000000000
1782251247.726007223129,0.869220348999,hold_measured_before,0.567050898248,0.567049773201,0.567050898249,-0.000001125050,0.018648000000,0.034136800000,0.035139700000,0.006030300000,-0.003998240000,-0.008730750000,0.010301200000,-0.029477300000,0.016947500000,0.023325800000,0.008140770000,0.009504780000,0.009273630000,0.000001042500,-0.000001121730,0.000001288480,-0.000001875540,-0.000000196106,0.000000052675,0.000000009862,0.011987800000,-0.029455800000,0.015693200000,0.023326100000,0.011543600000,0.009501380000,0.006778520000,0.011987800000,-0.029455800000,0.015693200000,0.023326100000,0.011543600000,0.009501380000,0.006778520000,0.011987800000,-0.029455800000,0.015693200000,0.023326100000,0.011543600000,0.009501380000,0.006778520000,0.051796700000,0.728524000000,-0.019755200000,-2.096540000000,0.003141130000,2.914640000000,1.304570000000,-0.000698061000,0.001202190000,-0.000622646000,-0.000577809000,-0.000408215000,0.001284110000,-0.001861100000,0.294735000000,-0.954926000000,0.035311400000,0.000000000000,-0.951337000000,-0.296705000000,-0.083216600000,0.000000000000,0.089942700000,-0.009066120000,-0.995906000000,0.000000000000,0.567050000000,0.017444800000,0.075954400000,1.000000000000,-0.017444800000,0.567050000000,0.000000000000,0.000000000000,0.000000000000,1.000000000000,-0.256701000000,-0.013308200000,-0.567192000000,-0.051773600000,0.998659000000,0.000000000000,-0.021876800000,0.594012000000,-0.007947120000,0.664876000000,0.034469200000,0.746158000000,0.437661000000,0.020110800000,0.295225000000,0.037043700000,-0.999227000000,0.013151600000,0.002100440000,-0.061626500000,0.000750706000,0.311607000000,-0.000954428000,-0.950211000000,0.098589000000,0.004544590000,0.097224200000,0.034061000000,-0.999346000000,0.012173600000,0.000000000000,0.000000000000,0.000000000000,0.089942700000,-0.009066120000,-0.995906000000,0.045510600000,0,0,0,2000.000000000000,40.000000000000
1782251247.746075153351,0.889287354003,hold_measured_before,0.567050898248,0.567049626545,0.567050898249,-0.000001271700,-0.012846200000,-0.011782700000,-0.011480000000,-0.006093400000,0.014070500000,0.011377600000,0.004920330000,0.024332900000,-0.001703650000,-0.023384200000,-0.012032700000,-0.016566600000,-0.012006500000,-0.000000398126,-0.000000930702,-0.000000403110,0.000000132771,0.000000045666,0.000000064831,0.000000000193,0.009659280000,0.024395500000,-0.005234320000,-0.023378000000,-0.002464350000,-0.016576200000,-0.019022000000,0.009659280000,0.024395500000,-0.005234320000,-0.023378000000,-0.002464350000,-0.016576200000,-0.019022000000,0.009659280000,0.024395500000,-0.005234320000,-0.023378000000,-0.002464350000,-0.016576200000,-0.019022000000,0.051796800000,0.728520000000,-0.019749300000,-2.096550000000,0.003138800000,2.914630000000,1.304570000000,-0.000502460000,-0.000211092000,0.000799334000,0.000541522000,0.000091498900,0.001035410000,0.001462810000,0.294737000000,-0.954926000000,0.035307300000,0.000000000000,-0.951336000000,-0.296705000000,-0.083216000000,0.000000000000,0.089941000000,-0.009062340000,-0.995906000000,0.000000000000,0.567050000000,0.017448500000,0.075955800000,1.000000000000,-0.017448500000,0.567050000000,0.000000000000,0.000000000000,0.000000000000,1.000000000000,-0.256699000000,-0.013308100000,-0.567192000000,-0.051773600000,0.998659000000,0.000000000000,-0.021879500000,0.594012000000,-0.007944660000,0.664873000000,0.034469100000,0.746161000000,0.437661000000,0.020111500000,0.295225000000,0.037048100000,-0.999227000000,0.013147600000,0.002100830000,-0.061626000000,0.000750499000,0.311609000000,-0.000949197000,-0.950210000000,0.098589200000,0.004544920000,0.097224100000,0.034067600000,-0.999345000000,0.012170300000,0.000000000000,0.000000000000,-0.000000000000,0.089941000000,-0.009062340000,-0.995906000000,0.043646900000,0,0,0,2000.000000000000,40.000000000000
1782251247.767006158829,0.910218046003,hold_measured_before,0.567050898248,0.567049525159,0.567050898248,-0.000001373090,0.022374200000,-0.016905900000,0.023885500000,-0.002160250000,-0.010892500000,-0.008128620000,-0.018105500000,-0.029832200000,-0.018598700000,0.027201100000,0.008167840000,0.015164200000,0.007999740000,-0.000000259986,-0.000000906240,-0.000000265773,-0.000000203532,0.000000000110,0.000000059247,0.000000001714,-0.020299500000,-0.029862600000,-0.016964900000,0.027198100000,0.003738960000,0.015168800000,0.011247000000,-0.020299500000,-0.029862600000,-0.016964900000,0.027198100000,0.003738960000,0.015168800000,0.011247000000,-0.020299500000,-0.029862600000,-0.016964900000,0.027198100000,0.003738960000,0.015168800000,0.011247000000,0.051799700000,0.728522000000,-0.019748600000,-2.096550000000,0.003144630000,2.914630000000,1.304570000000,0.000094839800,0.000354469000,0.000407355000,-0.000867629000,0.000444492000,-0.000104952000,-0.001045200000,0.294738000000,-0.954926000000,0.035305600000,0.000000000000,-0.951336000000,-0.296707000000,-0.083217000000,0.000000000000,0.089941400000,-0.009060270000,-0.995906000000,0.000000000000,0.567050000000,0.017450200000,0.075955000000,1.000000000000,-0.017450200000,0.567050000000,0.000000000000,0.000000000000,0.000000000000,1.000000000000,-0.256700000000,-0.013308900000,-0.567192000000,-0.051776500000,0.998659000000,0.000000000000,-0.021881300000,0.594012000000,-0.007944630000,0.664875000000,0.034471100000,0.746159000000,0.437661000000,0.020112900000,0.295225000000,0.037051500000,-0.999227000000,0.013147100000,0.002100700000,-0.061626200000,0.000750362000,0.311608000000,-0.000947753000,-0.950210000000,0.098589100000,0.004544500000,0.097224100000,0.034065500000,-0.999346000000,0.012168100000,-0.000000000000,0.000000000000,0.000000000000,0.089941400000,-0.009060270000,-0.995906000000,0.051980300000,0,0,0,2000.000000000000,40.000000000000
1782251247.788007497787,0.931219733997,hold_measured_before,0.567050898248,0.567050722941,0.567050898248,-0.000000175307,-0.007694840000,0.012727700000,-0.019699900000,0.003019680000,0.007738280000,0.003928270000,0.011279800000,0.020551100000,0.013090900000,-0.016496400000,-0.003614360000,-0.010198600000,-0.003710690000,-0.000000003921,-0.000000251429,0.000000054980,-0.000000669704,-0.000000016618,0.000000022457,0.000000002923,0.009571870000,0.020527900000,0.014363100000,-0.016499300000,-0.007062510000,-0.010195100000,-0.001182520000,0.009571870000,0.020527900000,0.014363100000,-0.016499300000,-0.007062510000,-0.010195100000,-0.001182520000,0.009571870000,0.020527900000,0.014363100000,-0.016499300000,-0.007062510000,-0.010195100000,-0.001182520000,0.051797800000,0.728518000000,-0.019748600000,-2.096540000000,0.003141990000,2.914630000000,1.304570000000,0.000039035500,-0.000940980000,-0.000776689000,-0.000171472000,0.000383464000,0.000177675000,-0.000402350000,0.294738000000,-0.954925000000,0.035307400000,0.000000000000,-0.951335000000,-0.296707000000,-0.083220800000,0.000000000000,0.089945600000,-0.009060820000,-0.995905000000,0.000000000000,0.567051000000,0.017449400000,0.075957300000,1.000000000000,-0.017449400000,0.567051000000,0.000000000000,0.000000000000,0.000000000000,1.000000000000,-0.256698000000,-0.013308300000,-0.567194000000,-0.051774600000,0.998659000000,0.000000000000,-0.021880200000,0.594012000000,-0.007944490000,0.664872000000,0.034469700000,0.746162000000,0.437660000000,0.020112000000,0.295227000000,0.037049600000,-0.999227000000,0.013147100000,0.002100740000,-0.061626200000,0.000750409000,0.311612000000,-0.000948136000,-0.950209000000,0.098588700000,0.004544620000,0.097224500000,0.034066100000,-0.999345000000,0.012168800000,-0.000000000000,0.000000000000,-0.000000000000,0.089945600000,-0.009060820000,-0.995905000000,0.033863800000,0,0,0,2000.000000000000,40.000000000000
1782251247.808075428009,0.951288151999,hold_measured_before,0.567050898248,0.567049601052,0.567050898248,-0.000001297200,0.007493620000,-0.020696100000,0.007513670000,-0.000365590000,0.001004420000,-0.013621100000,-0.025487600000,-0.004887850000,-0.022889400000,0.003885330000,0.014124900000,0.000193246000,0.013523400000,-0.000000227452,-0.000000077042,-0.000000225014,-0.000000230674,0.000000003933,-0.000000001005,0.000000000268,-0.028791400000,-0.004932240000,-0.020428800000,0.003880910000,0.007455210000,0.000200024000,0.018413500000,-0.028791400000,-0.004932240000,-0.020428800000,0.003880910000,0.007455210000,0.000200024000,0.018413500000,-0.028791400000,-0.004932240000,-0.020428800000,0.003880910000,0.007455210000,0.000200024000,0.018413500000,0.051801600000,0.728521000000,-0.019750400000,-2.096550000000,0.003141950000,2.914630000000,1.304570000000,0.000382355000,0.000070979100,0.000202126000,-0.000339615000,0.000036248200,0.000561876000,-0.001178890000,0.294744000000,-0.954924000000,0.035308300000,0.000000000000,-0.951334000000,-0.296713000000,-0.083218100000,0.000000000000,0.089943300000,-0.009061920000,-0.995906000000,0.000000000000,0.567050000000,0.017450400000,0.075955500000,1.000000000000,-0.017450400000,0.567050000000,0.000000000000,0.000000000000,0.000000000000,1.000000000000,-0.256700000000,-0.013309400000,-0.567193000000,-0.051778500000,0.998659000000,0.000000000000,-0.021881700000,0.594012000000,-0.007945220000,0.664874000000,0.034472400000,0.746160000000,0.437661000000,0.020113500000,0.295225000000,0.037052100000,-0.999227000000,0.013148300000,0.002100910000,-0.061626400000,0.000750488000,0.311608000000,-0.000948667000,-0.950210000000,0.098588900000,0.004545000000,0.097224300000,0.034068700000,-0.999345000000,0.012170100000,0.000000000000,0.000000000000,0.000000000000,0.089943300000,-0.009061920000,-0.995906000000,0.040992100000,0,0,0,2000.000000000000,40.000000000000
1782251247.828139781952,0.971351781001,hold_measured_before,0.567050898248,0.567049071350,0.567050898248,-0.000001826900,0.030768600000,0.021412000000,0.021330100000,0.005187750000,-0.007976010000,0.014299700000,0.025904600000,-0.028515400000,0.025720400000,0.028544100000,-0.013202500000,0.013526100000,-0.013702300000,0.000000837930,-0.000002329490,0.000000887319,-0.000000148688,-0.000000049035,0.000000152551,0.000000004793,0.028228000000,-0.028486600000,0.023991200000,0.028546900000,-0.008513400000,0.013521500000,-0.017140400000,0.028228000000,-0.028486600000,0.023991200000,0.028546900000,-0.008513400000,0.013521500000,-0.017140400000,0.028228000000,-0.028486600000,0.023991200000,0.028546900000,-0.008513400000,0.013521500000,-0.017140400000,0.051801500000,0.728522000000,-0.019755700000,-2.096550000000,0.003141990000,2.914640000000,1.304570000000,-0.000051135200,-0.000127095000,-0.000893472000,-0.001816030000,-0.000474699000,0.000657982000,0.001516370000,0.294736000000,-0.954926000000,0.035310900000,0.000000000000,-0.951337000000,-0.296705000000,-0.083216000000,0.000000000000,0.089942100000,-0.009065810000,-0.995906000000,0.000000000000,0.567049000000,0.017447200000,0.075954800000,1.000000000000,-0.017447200000,0.567049000000,0.000000000000,0.000000000000,0.000000000000,1.000000000000,-0.256700000000,-0.013309400000,-0.567192000000,-0.051778300000,0.998659000000,0.000000000000,-0.021879300000,0.594012000000,-0.007947310000,0.664875000000,0.034472300000,0.746159000000,0.437661000000,0.020112800000,0.295224000000,0.037048100000,-0.999227000000,0.013151800000,0.002100660000,-0.061626500000,0.000750705000,0.311606000000,-0.000953327000,-0.950211000000,0.098589100000,0.004544940000,0.097224200000,0.034064600000,-0.999345000000,0.012173600000,0.000000000000,0.000000000000,-0.000000000000,0.089942100000,-0.009065810000,-0.995906000000,0.059564400000,0,0,0,2000.000000000000,40.000000000000
1782251247.849150419235,0.992362776000,hold_measured_before,0.567050898248,0.567051278994,0.567050898248,0.000000380745,0.004565650000,-0.021150000000,0.000317402000,0.003526650000,-0.006388040000,0.003145860000,-0.008926970000,-0.007632610000,-0.008193930000,0.008221640000,-0.000570992000,0.006927150000,-0.002757880000,-0.000000595643,-0.000000062271,-0.000000429053,-0.000000387888,0.000000037956,-0.000000028626,0.000000001695,-0.010126200000,-0.007648750000,-0.007301520000,0.008219730000,-0.002990830000,0.006929580000,-0.000983634000,-0.010126200000,-0.007648750000,-0.007301520000,0.008219730000,-0.002990830000,0.006929580000,-0.000983634000,-0.010126200000,-0.007648750000,-0.007301520000,0.008219730000,-0.002990830000,0.006929580000,-0.000983634000,0.051802500000,0.728520000000,-0.019751400000,-2.096540000000,0.003140610000,2.914630000000,1.304570000000,0.000955260000,-0.000329103000,-0.000438204000,-0.000278649000,-0.000977987000,-0.000878088000,0.001966110000,0.294742000000,-0.954924000000,0.035309400000,0.000000000000,-0.951334000000,-0.296711000000,-0.083219700000,0.000000000000,0.089945200000,-0.009062740000,-0.995905000000,0.000000000000,0.567051000000,0.017450500000,0.075957000000,1.000000000000,-0.017450500000,0.567051000000,0.000000000000,0.000000000000,0.000000000000,1.000000000000,-0.256698000000,-0.013309500000,-0.567194000000,-0.051779300000,0.998659000000,0.000000000000,-0.021881900000,0.594012000000,-0.007945540000,0.664873000000,0.034472900000,0.746160000000,0.437660000000,0.020113800000,0.295227000000,0.037052300000,-0.999227000000,0.013148900000,0.002100980000,-0.061626000000,0.000750547000,0.311613000000,-0.000949018000,-0.950209000000,0.098588700000,0.004545230000,0.097224500000,0.034070100000,-0.999345000000,0.012171100000,0.000000000000,-0.000000000000,0.000000000000,0.089945200000,-0.009062740000,-0.995905000000,0.018435000000,0,0,0,2000.000000000000,40.000000000000
1782251247.870082139969,1.013293999000,hold_measured_before,0.567050898248,0.567051385696,0.567050898248,0.000000487448,-0.028558600000,-0.002743100000,-0.033743800000,-0.000241428000,0.021677000000,0.009480820000,0.008423700000,0.048167100000,0.006924510000,-0.044060700000,-0.009020830000,-0.027664400000,-0.009660150000,0.000000248649,-0.000001603730,0.000000364741,-0.000000716565,-0.000000058806,0.000000118909,0.000000006447,0.006854180000,0.048144500000,0.008094160000,-0.044063400000,-0.012190100000,-0.027661000000,-0.007336500000,0.006854180000,0.048144500000,0.008094160000,-0.044063400000,-0.012190100000,-0.027661000000,-0.007336500000,0.006854180000,0.048144500000,0.008094160000,-0.044063400000,-0.012190100000,-0.027661000000,-0.007336500000,0.051800900000,0.728521000000,-0.019750400000,-2.096540000000,0.003142200000,2.914630000000,1.304570000000,0.000280245000,-0.000969063000,-0.000446581000,0.000782450000,0.000468435000,0.000938470000,0.000726445000,0.294739000000,-0.954925000000,0.035308600000,0.000000000000,-0.951335000000,-0.296708000000,-0.083221200000,0.000000000000,0.089946400000,-0.009061790000,-0.995905000000,0.000000000000,0.567051000000,0.017450100000,0.075956900000,1.000000000000,-0.017450100000,0.567051000000,0.000000000000,0.000000000000,0.000000000000,1.000000000000,-0.256698000000,-0.013309100000,-0.567194000000,-0.051777700000,0.998659000000,0.000000000000,-0.021881300000,0.594012000000,-0.007945230000,0.664873000000,0.034471900000,0.746160000000,0.437660000000,0.020113200000,0.295227000000,0.037051400000,-0.999227000000,0.013148300000,0.002100840000,-0.061626200000,0.000750479000,0.311612000000,-0.000948695000,-0.950209000000,0.098588600000,0.004544890000,0.097224600000,0.034067700000,-0.999345000000,0.012170000000,-0.000000000000,0.000000000000,-0.000000000000,0.089946400000,-0.009061790000,-0.995905000000,0.073072000000,0,0,0,2000.000000000000,40.000000000000
1782251247.891131877899,1.034344801003,hold_measured_before,0.567050898248,0.567051580876,0.567050898248,0.000000682628,-0.025137800000,-0.021262900000,-0.036784300000,-0.005221210000,0.015480000000,-0.002442450000,-0.014060900000,0.043329100000,-0.016548500000,-0.037982700000,0.001909150000,-0.021828700000,0.001822610000,-0.000000215809,-0.000001712680,-0.000000354585,-0.000000901909,-0.000000029782,0.000000118347,0.000000004557,-0.012960900000,0.043342200000,-0.017368400000,-0.037982200000,0.004130360000,-0.021830800000,0.000194002000,-0.012960900000,0.043342200000,-0.017368400000,-0.037982200000,0.004130360000,-0.021830800000,0.000194002000,-0.012960900000,0.043342200000,-0.017368400000,-0.037982200000,0.004130360000,-0.021830800000,0.000194002000,0.051798700000,0.728518000000,-0.019744800000,-2.096540000000,0.003141990000,2.914630000000,1.304570000000,-0.000316427000,-0.001276460000,0.000715672000,0.000613330000,0.000339949000,0.000077533700,-0.000381258000,0.294742000000,-0.954924000000,0.035304900000,0.000000000000,-0.951334000000,-0.296711000000,-0.083221500000,0.000000000000,0.089945600000,-0.009057910000,-0.995905000000,0.000000000000,0.567052000000,0.017452200000,0.075957800000,1.000000000000,-0.017452200000,0.567052000000,0.000000000000,0.000000000000,0.000000000000,1.000000000000,-0.256697000000,-0.013308500000,-0.567195000000,-0.051775500000,0.998659000000,0.000000000000,-0.021882500000,0.594012000000,-0.007942970000,0.664872000000,0.034470300000,0.746162000000,0.437659000000,0.020112900000,0.295228000000,0.037053400000,-0.999227000000,0.013144500000,0.002100960000,-0.061625800000,0.000750246000,0.311614000000,-0.000944407000,-0.950208000000,0.098588700000,0.004544740000,0.097224500000,0.034069900000,-0.999345000000,0.012166200000,-0.000000000000,-0.000000000000,-0.000000000000,0.089945600000,-0.009057910000,-0.995905000000,0.065456300000,0,0,0,2000.000000000000,40.000000000000
