WindOilSpirit/serl/Code/spacemouse_franka_teleop_test/debug_output/fixed_offset_k1200.csv
time_unix_s,time_since_start_s,phase,target_x,measured_x,limited_reference_x,position_error_x,cartesian_force_x,cartesian_force_y,cartesian_force_z,tau_task_1,tau_task_2,tau_task_3,tau_task_4,tau_task_5,tau_task_6,tau_task_7,coriolis_1,coriolis_2,coriolis_3,coriolis_4,coriolis_5,coriolis_6,coriolis_7,tau_before_saturation_1,tau_before_saturation_2,tau_before_saturation_3,tau_before_saturation_4,tau_before_saturation_5,tau_before_saturation_6,tau_before_saturation_7,tau_after_saturation_1,tau_after_saturation_2,tau_after_saturation_3,tau_after_saturation_4,tau_after_saturation_5,tau_after_saturation_6,tau_after_saturation_7,tau_command_1,tau_command_2,tau_command_3,tau_command_4,tau_command_5,tau_command_6,tau_command_7,q_1,q_2,q_3,q_4,q_5,q_6,q_7,dq_1,dq_2,dq_3,dq_4,dq_5,dq_6,dq_7,O_T_EE_0,O_T_EE_1,O_T_EE_2,O_T_EE_3,O_T_EE_4,O_T_EE_5,O_T_EE_6,O_T_EE_7,O_T_EE_8,O_T_EE_9,O_T_EE_10,O_T_EE_11,O_T_EE_12,O_T_EE_13,O_T_EE_14,O_T_EE_15,zero_jacobian_0,zero_jacobian_1,zero_jacobian_2,zero_jacobian_3,zero_jacobian_4,zero_jacobian_5,zero_jacobian_6,zero_jacobian_7,zero_jacobian_8,zero_jacobian_9,zero_jacobian_10,zero_jacobian_11,zero_jacobian_12,zero_jacobian_13,zero_jacobian_14,zero_jacobian_15,zero_jacobian_16,zero_jacobian_17,zero_jacobian_18,zero_jacobian_19,zero_jacobian_20,zero_jacobian_21,zero_jacobian_22,zero_jacobian_23,zero_jacobian_24,zero_jacobian_25,zero_jacobian_26,zero_jacobian_27,zero_jacobian_28,zero_jacobian_29,zero_jacobian_30,zero_jacobian_31,zero_jacobian_32,zero_jacobian_33,zero_jacobian_34,zero_jacobian_35,zero_jacobian_36,zero_jacobian_37,zero_jacobian_38,zero_jacobian_39,zero_jacobian_40,zero_jacobian_41,commanded_torque_norm,tau_rate_limited,torque_rate_limited,reference_clipped,translational_stiffness,translational_damping
1782249962.354841947556,0.000453821005,hold_measured_before,0.566986921771,0.566989028777,0.567010816747,-0.000023895000,0.061197000000,0.014075900000,0.100165000000,0.014600500000,-0.097226900000,0.014240600000,0.081205200000,-0.006485340000,0.040386700000,-0.007014410000,-0.000000514129,-0.000003098680,-0.000000719730,-0.000000909011,-0.000000008493,0.000000229531,0.000000006270,0.011142600000,-0.097276400000,0.016815100000,0.081199900000,-0.013465000000,0.040394000000,-0.001896870000,0.011142600000,-0.097276400000,0.016815100000,0.081199900000,-0.013465000000,0.040394000000,-0.001896870000,0.011142600000,-0.097276400000,0.016815100000,0.081199900000,-0.013465000000,0.040394000000,-0.001896870000,0.051799400000,0.728412000000,-0.019750400000,-2.096750000000,0.003141990000,2.914640000000,1.304570000000,0.000453170000,0.001312930000,-0.000940361000,-0.000995784000,0.000481966000,-0.000546503000,0.000237316000,0.294738000000,-0.954926000000,0.035281700000,0.000000000000,-0.951345000000,-0.296704000000,-0.083127300000,0.000000000000,0.089848700000,-0.009064260000,-0.995914000000,0.000000000000,0.566987000000,0.017446400000,0.075956500000,1.000000000000,-0.017446400000,0.566987000000,0.000000000000,0.000000000000,0.000000000000,1.000000000000,-0.256699000000,-0.013308700000,-0.567130000000,-0.051776200000,0.998659000000,0.000000000000,-0.021878500000,0.593985000000,-0.007943890000,0.664792000000,0.034466700000,0.746233000000,0.437690000000,0.020111900000,0.295182000000,0.037048500000,-0.999227000000,0.013146700000,0.002100690000,-0.061626900000,0.000750412000,0.311514000000,-0.000952164000,-0.950241000000,0.098598200000,0.004544690000,0.097214900000,0.034064900000,-0.999346000000,0.012168700000,0.000000000000,-0.000000000000,0.000000000000,0.089848700000,-0.009064260000,-0.995914000000,0.135202000000,0,0,0,1200.000000000000,40.000000000000
1782249962.376176118851,0.021786022000,hold_measured_before,0.566986921771,0.566987563566,0.567004216900,-0.000016653300,0.060982900000,-0.008390030000,0.081289600000,0.000786759000,-0.088646800000,0.001417970000,0.077525800000,-0.003499130000,0.040862000000,-0.005747930000,-0.000005207820,-0.000006665240,-0.000005568950,0.000000410608,0.000000373139,0.000000459681,-0.000000002924,-0.011561500000,-0.088819000000,0.010605900000,0.077510500000,-0.028416200000,0.040887800000,0.012521700000,-0.011561500000,-0.088819000000,0.010605900000,0.077510500000,-0.028416200000,0.040887800000,0.012521700000,-0.011561500000,-0.088819000000,0.010605900000,0.077510500000,-0.028416200000,0.040887800000,0.012521700000,0.051801500000,0.728411000000,-0.019752800000,-2.096750000000,0.003141130000,2.914640000000,1.304570000000,0.002167800000,0.000837652000,-0.001560680000,-0.001681850000,0.000860721000,-0.000729794000,0.000983104000,0.294737000000,-0.954927000000,0.035284000000,0.000000000000,-0.951345000000,-0.296703000000,-0.083129200000,0.000000000000,0.089851200000,-0.009065920000,-0.995914000000,0.000000000000,0.566988000000,0.017446300000,0.075957300000,1.000000000000,-0.017446300000,0.566988000000,0.000000000000,0.000000000000,0.000000000000,1.000000000000,-0.256698000000,-0.013309200000,-0.567130000000,-0.051778300000,0.998659000000,0.000000000000,-0.021878700000,0.593985000000,-0.007944800000,0.664792000000,0.034468000000,0.746233000000,0.437689000000,0.020112500000,0.295183000000,0.037048700000,-0.999227000000,0.013148300000,0.002100760000,-0.061627000000,0.000750528000,0.311516000000,-0.000953523000,-0.950241000000,0.098597900000,0.004544980000,0.097215200000,0.034066000000,-0.999345000000,0.012170600000,-0.000000000000,0.000000000000,-0.000000000000,0.089851200000,-0.009065920000,-0.995914000000,0.129534000000,0,0,0,1200.000000000000,40.000000000000
1782249962.396144390106,0.041753773003,hold_measured_before,0.566986921771,0.566988631026,0.566998468137,-0.000009837110,0.021266300000,-0.019708000000,0.041705700000,-0.002589680000,-0.042511000000,-0.011036300000,0.035114700000,-0.009423560000,0.019968100000,-0.009431250000,0.000000210656,-0.000000539925,0.000000276815,-0.000000307762,-0.000000053336,0.000000028180,0.000000002796,-0.001067570000,-0.042491100000,-0.012169600000,0.035116400000,-0.006351320000,0.019965000000,-0.011683900000,-0.001067570000,-0.042491100000,-0.012169600000,0.035116400000,-0.006351320000,0.019965000000,-0.011683900000,-0.001067570000,-0.042491100000,-0.012169600000,0.035116400000,-0.006351320000,0.019965000000,-0.011683900000,0.051801400000,0.728409000000,-0.019749000000,-2.096750000000,0.003141480000,2.914640000000,1.304570000000,-0.000188374000,0.000587371000,0.000978085000,0.000101522000,0.000697724000,-0.001151700000,0.000999544000,0.294742000000,-0.954925000000,0.035282100000,0.000000000000,-0.951343000000,-0.296708000000,-0.083131900000,0.000000000000,0.089853200000,-0.009062930000,-0.995914000000,0.000000000000,0.566989000000,0.017448500000,0.075958700000,1.000000000000,-0.017448500000,0.566989000000,0.000000000000,0.000000000000,0.000000000000,1.000000000000,-0.256697000000,-0.013309100000,-0.567132000000,-0.051778200000,0.998659000000,0.000000000000,-0.021880400000,0.593985000000,-0.007943280000,0.664790000000,0.034467900000,0.746234000000,0.437688000000,0.020113000000,0.295184000000,0.037051500000,-0.999227000000,0.013145700000,0.002100900000,-0.061626800000,0.000750358000,0.311519000000,-0.000950061000,-0.950239000000,0.098597700000,0.004544950000,0.097215400000,0.034068400000,-0.999345000000,0.012167900000,0.000000000000,0.000000000000,0.000000000000,0.089853200000,-0.009062930000,-0.995914000000,0.061346100000,0,0,0,1200.000000000000,40.000000000000
1782249962.417209148407,0.062821277999,hold_measured_before,0.566986921771,0.566987134704,0.566994476048,-0.000007341340,0.020008700000,0.017740700000,0.028565800000,0.028436600000,-0.025497900000,0.023443800000,0.021726000000,-0.018946600000,0.008993340000,-0.018650700000,0.000000329248,-0.000000428889,0.000000344494,-0.000000307991,-0.000000033635,0.000000022055,0.000000002723,0.030218800000,-0.025474500000,0.022116900000,0.021728000000,-0.015349500000,0.008989710000,-0.021288200000,0.030218800000,-0.025474500000,0.022116900000,0.021728000000,-0.015349500000,0.008989710000,-0.021288200000,0.030218800000,-0.025474500000,0.022116900000,0.021728000000,-0.015349500000,0.008989710000,-0.021288200000,0.051797800000,0.728410000000,-0.019750400000,-2.096750000000,0.003140240000,2.914640000000,1.304570000000,-0.000308019000,0.000268025000,-0.000334999000,-0.000611494000,0.000612310000,0.000430826000,0.001203170000,0.294738000000,-0.954926000000,0.035282300000,0.000000000000,-0.951345000000,-0.296704000000,-0.083127700000,0.000000000000,0.089849200000,-0.009064760000,-0.995914000000,0.000000000000,0.566987000000,0.017445600000,0.075957200000,1.000000000000,-0.017445600000,0.566987000000,0.000000000000,0.000000000000,0.000000000000,1.000000000000,-0.256698000000,-0.013308300000,-0.567130000000,-0.051774600000,0.998659000000,0.000000000000,-0.021877600000,0.593985000000,-0.007943810000,0.664791000000,0.034465500000,0.746234000000,0.437689000000,0.020111200000,0.295183000000,0.037046800000,-0.999227000000,0.013146700000,0.002100680000,-0.061626800000,0.000750443000,0.311515000000,-0.000952612000,-0.950241000000,0.098598100000,0.004544740000,0.097215000000,0.034064900000,-0.999346000000,0.012169300000,-0.000000000000,-0.000000000000,0.000000000000,0.089849200000,-0.009064760000,-0.995914000000,0.057384600000,0,0,0,1200.000000000000,40.000000000000
1782249962.438216447830,0.083826630005,hold_measured_before,0.566986921771,0.566986461625,0.566991965066,-0.000005503440,0.051926300000,-0.025285800000,0.041519700000,-0.043643000000,-0.057926700000,-0.040696800000,0.055551000000,0.027640800000,0.030157900000,0.028172800000,-0.000000945991,-0.000004943890,-0.000000980416,-0.000000274710,-0.000000041034,0.000000339590,0.000000007263,-0.046061400000,-0.057964100000,-0.038897200000,0.055547700000,0.022760500000,0.030163200000,0.031751000000,-0.046061400000,-0.057964100000,-0.038897200000,0.055547700000,0.022760500000,0.030163200000,0.031751000000,-0.046061400000,-0.057964100000,-0.038897200000,0.055547700000,0.022760500000,0.030163200000,0.031751000000,0.051799000000,0.728410000000,-0.019751400000,-2.096760000000,0.003141980000,2.914640000000,1.304560000000,-0.000001159300,-0.000017681900,0.001179130000,-0.002520980000,-0.000058674800,-0.000084017300,-0.002645870000,0.294744000000,-0.954925000000,0.035282600000,0.000000000000,-0.951343000000,-0.296710000000,-0.083126100000,0.000000000000,0.089847900000,-0.009064990000,-0.995914000000,0.000000000000,0.566986000000,0.017445600000,0.075956900000,1.000000000000,-0.017445600000,0.566986000000,0.000000000000,0.000000000000,0.000000000000,1.000000000000,-0.256698000000,-0.013308600000,-0.567129000000,-0.051775800000,0.998659000000,0.000000000000,-0.021877900000,0.593984000000,-0.007944240000,0.664791000000,0.034466300000,0.746234000000,0.437690000000,0.020111600000,0.295182000000,0.037047300000,-0.999227000000,0.013147300000,0.002100610000,-0.061626800000,0.000750448000,0.311514000000,-0.000953095000,-0.950241000000,0.098598300000,0.004544640000,0.097214800000,0.034063800000,-0.999346000000,0.012169300000,0.000000000000,-0.000000000000,-0.000000000000,0.089847900000,-0.009064990000,-0.995914000000,0.111875000000,0,0,0,1200.000000000000,40.000000000000
1782249962.458217620850,0.103827587001,hold_measured_before,0.566986921771,0.566988118298,0.566990288715,-0.000002170420,-0.012268900000,0.023287600000,-0.013902700000,0.015400600000,0.028271300000,0.012909400000,-0.026461600000,-0.004954890000,-0.019900300000,-0.002588150000,-0.000000962135,-0.000001033580,-0.000001242340,-0.000000810550,0.000000079544,0.000000021532,0.000000002964,0.022838200000,0.028370000000,0.007367680000,-0.026453000000,0.010061700000,-0.019915600000,-0.013598400000,0.022838200000,0.028370000000,0.007367680000,-0.026453000000,0.010061700000,-0.019915600000,-0.013598400000,0.022838200000,0.028370000000,0.007367680000,-0.026453000000,0.010061700000,-0.019915600000,-0.013598400000,0.051796700000,0.728408000000,-0.019752600000,-2.096750000000,0.003138760000,2.914640000000,1.304570000000,-0.001758650000,-0.000506586000,0.000832546000,0.000173773000,0.000362866000,0.001546790000,-0.001209720000,0.294741000000,-0.954925000000,0.035285300000,0.000000000000,-0.951343000000,-0.296707000000,-0.083129800000,0.000000000000,0.089852200000,-0.009066670000,-0.995914000000,0.000000000000,0.566988000000,0.017443900000,0.075958600000,1.000000000000,-0.017443900000,0.566988000000,0.000000000000,0.000000000000,0.000000000000,1.000000000000,-0.256697000000,-0.013308000000,-0.567131000000,-0.051773600000,0.998659000000,0.000000000000,-0.021876100000,0.593985000000,-0.007944610000,0.664790000000,0.034464800000,0.746235000000,0.437689000000,0.020110400000,0.295184000000,0.037044100000,-0.999227000000,0.013148100000,0.002100610000,-0.061626800000,0.000750560000,0.311518000000,-0.000954715000,-0.950240000000,0.098597900000,0.004544800000,0.097215300000,0.034063600000,-0.999346000000,0.012171200000,-0.000000000000,-0.000000000000,0.000000000000,0.089852200000,-0.009066670000,-0.995914000000,0.052566800000,0,0,0,1200.000000000000,40.000000000000
1782249962.479227304459,0.124837238000,hold_measured_before,0.566986921771,0.566990013692,0.566989124614,0.000000889078,-0.038255100000,-0.037466400000,-0.040225300000,-0.033439400000,0.054889000000,-0.033294800000,-0.051236100000,0.012836600000,-0.029692400000,0.012164700000,0.000002889980,-0.000003507150,0.000003119990,-0.000002148830,-0.000000299189,0.000000208992,0.000000017066,-0.039894400000,0.054798900000,-0.028481600000,-0.051246400000,-0.000200389000,-0.029679000000,0.021723300000,-0.039894400000,0.054798900000,-0.028481600000,-0.051246400000,-0.000200389000,-0.029679000000,0.021723300000,-0.039894400000,0.054798900000,-0.028481600000,-0.051246400000,-0.000200389000,-0.029679000000,0.021723300000,0.051803300000,0.728407000000,-0.019751800000,-2.096750000000,0.003142230000,2.914640000000,1.304570000000,0.000931971000,-0.000944440000,0.000594159000,0.001593520000,0.000615635000,0.000180319000,-0.000787247000,0.294742000000,-0.954925000000,0.035284900000,0.000000000000,-0.951343000000,-0.296708000000,-0.083135700000,0.000000000000,0.089857700000,-0.009064450000,-0.995913000000,0.000000000000,0.566990000000,0.017448000000,0.075960400000,1.000000000000,-0.017448000000,0.566990000000,0.000000000000,0.000000000000,0.000000000000,1.000000000000,-0.256695000000,-0.013309500000,-0.567133000000,-0.051780100000,0.998659000000,0.000000000000,-0.021880200000,0.593985000000,-0.007944410000,0.664789000000,0.034469100000,0.746236000000,0.437687000000,0.020113400000,0.295186000000,0.037051300000,-0.999227000000,0.013147500000,0.002100850000,-0.061626900000,0.000750458000,0.311523000000,-0.000951733000,-0.950238000000,0.098597300000,0.004545000000,0.097215800000,0.034067500000,-0.999345000000,0.012169500000,-0.000000000000,-0.000000000000,0.000000000000,0.089857700000,-0.009064450000,-0.995913000000,0.096874500000,0,0,0,1200.000000000000,40.000000000000
1782249962.500235080719,0.145844603001,hold_measured_before,0.566986921771,0.566988544299,0.566988362994,0.000000181306,-0.039382300000,-0.051437500000,-0.054863700000,-0.042824200000,0.069923500000,-0.041637300000,-0.062627400000,0.015417500000,-0.037588700000,0.013679600000,0.000002901670,-0.000003154310,0.000003473040,-0.000004786220,-0.000000471763,0.000000161773,0.000000027557,-0.046012900000,0.069877600000,-0.039256600000,-0.062636200000,0.008974060000,-0.037582000000,0.018403700000,-0.046012900000,0.069877600000,-0.039256600000,-0.062636200000,0.008974060000,-0.037582000000,0.018403700000,-0.046012900000,0.069877600000,-0.039256600000,-0.062636200000,0.008974060000,-0.037582000000,0.018403700000,0.051799300000,0.728406000000,-0.019748900000,-2.096750000000,0.003137170000,2.914640000000,1.304570000000,0.001181290000,-0.001673730000,0.000802342000,0.001206580000,-0.000849116000,0.000621968000,0.000845006000,0.294747000000,-0.954924000000,0.035284100000,0.000000000000,-0.951341000000,-0.296713000000,-0.083133400000,0.000000000000,0.089855300000,-0.009063910000,-0.995914000000,0.000000000000,0.566989000000,0.017447700000,0.075959700000,1.000000000000,-0.017447700000,0.566989000000,0.000000000000,0.000000000000,0.000000000000,1.000000000000,-0.256695000000,-0.013308500000,-0.567131000000,-0.051776100000,0.998659000000,0.000000000000,-0.021879300000,0.593985000000,-0.007943040000,0.664788000000,0.034466400000,0.746236000000,0.437688000000,0.020112000000,0.295185000000,0.037049400000,-0.999227000000,0.013145600000,0.002101030000,-0.061627000000,0.000750436000,0.311519000000,-0.000950586000,-0.950239000000,0.098597500000,0.004545260000,0.097215600000,0.034070400000,-0.999345000000,0.012169100000,-0.000000000000,-0.000000000000,0.000000000000,0.089855300000,-0.009063910000,-0.995914000000,0.119566000000,0,0,0,1200.000000000000,40.000000000000
1782249962.521214246750,0.166824074004,hold_measured_before,0.566986921771,0.566986869212,0.566987864699,-0.000000995487,0.021978200000,-0.009744850000,0.010910900000,-0.009005450000,-0.022060700000,-0.013562200000,0.023070800000,0.001487130000,0.013634500000,0.002569720000,0.000000545388,-0.000001186010,0.000000412918,0.000000125000,-0.000000078838,0.000000057750,0.000000002666,-0.009268480000,-0.022065400000,-0.013365400000,0.023070500000,0.000954962000,0.013635100000,0.002959860000,-0.009268480000,-0.022065400000,-0.013365400000,0.023070500000,0.000954962000,0.013635100000,0.002959860000,-0.009268480000,-0.022065400000,-0.013365400000,0.023070500000,0.000954962000,0.013635100000,0.002959860000,0.051800400000,0.728409000000,-0.019750800000,-2.096760000000,0.003141480000,2.914640000000,1.304570000000,-0.000472633000,-0.000276931000,0.000991303000,-0.001252930000,0.001099550000,-0.000315940000,-0.001180510000,0.294742000000,-0.954925000000,0.035282500000,0.000000000000,-0.951343000000,-0.296708000000,-0.083128200000,0.000000000000,0.089849800000,-0.009064450000,-0.995914000000,0.000000000000,0.566987000000,0.017446900000,0.075957600000,1.000000000000,-0.017446900000,0.566987000000,0.000000000000,0.000000000000,0.000000000000,1.000000000000,-0.256698000000,-0.013309000000,-0.567130000000,-0.051777300000,0.998659000000,0.000000000000,-0.021879000000,0.593984000000,-0.007943980000,0.664790000000,0.034467300000,0.746235000000,0.437689000000,0.020112300000,0.295183000000,0.037049200000,-0.999227000000,0.013146900000,0.002100760000,-0.061626900000,0.000750433000,0.311515000000,-0.000952064000,-0.950241000000,0.098598100000,0.004544850000,0.097215000000,0.034066100000,-0.999345000000,0.012169100000,-0.000000000000,-0.000000000000,0.000000000000,0.089849800000,-0.009064450000,-0.995914000000,0.038461200000,0,0,0,1200.000000000000,40.000000000000
1782249962.542226791382,0.187836580000,hold_measured_before,0.566986921771,0.566986567469,0.566987538687,-0.000000971218,0.030933500000,-0.002673570000,0.019208200000,-0.005312090000,-0.042030300000,-0.004434910000,0.042330700000,0.003928480000,0.028080900000,0.003617110000,-0.000000682904,-0.000000957726,-0.000000610771,-0.000000409849,0.000000039583,0.000000064419,0.000000003222,-0.005827090000,-0.042038100000,-0.004052440000,0.042329600000,0.002890260000,0.028082100000,0.004378370000,-0.005827090000,-0.042038100000,-0.004052440000,0.042329600000,0.002890260000,0.028082100000,0.004378370000,-0.005827090000,-0.042038100000,-0.004052440000,0.042329600000,0.002890260000,0.028082100000,0.004378370000,0.051801300000,0.728408000000,-0.019756400000,-2.096760000000,0.003141990000,2.914630000000,1.304570000000,0.000270650000,-0.000192301000,-0.000007672790,-0.001428690000,-0.000426001000,-0.001651060000,0.000227196000,0.294739000000,-0.954926000000,0.035285100000,0.000000000000,-0.951345000000,-0.296705000000,-0.083123500000,0.000000000000,0.089846000000,-0.009068530000,-0.995914000000,0.000000000000,0.566987000000,0.017443900000,0.075957500000,1.000000000000,-0.017443900000,0.566987000000,0.000000000000,0.000000000000,0.000000000000,1.000000000000,-0.256698000000,-0.013309200000,-0.567129000000,-0.051778100000,0.998659000000,0.000000000000,-0.021877000000,0.593984000000,-0.007946240000,0.664790000000,0.034467800000,0.746235000000,0.437690000000,0.020112000000,0.295182000000,0.037045800000,-0.999227000000,0.013150700000,0.002100510000,-0.061626400000,0.000750649000,0.311515000000,-0.000956681000,-0.950241000000,0.098598500000,0.004544830000,0.097214600000,0.034062300000,-0.999346000000,0.012172700000,0.000000000000,0.000000000000,-0.000000000000,0.089846000000,-0.009068530000,-0.995914000000,0.066524500000,0,0,0,1200.000000000000,40.000000000000
1782249962.563233375549,0.208843174005,hold_measured_before,0.566986921771,0.566986682942,0.566987325392,-0.000000642450,0.016875400000,0.006646730000,0.045215400000,-0.007007610000,-0.043786200000,-0.004947860000,0.034456600000,0.009692870000,0.019690900000,0.010580700000,0.000000010677,0.000000198354,0.000000683951,-0.000002604750,-0.000000150516,-0.000000004785,0.000000009456,-0.003155340000,-0.043734300000,-0.007816450000,0.034458900000,0.017469400000,0.019683000000,0.004878760000,-0.003155340000,-0.043734300000,-0.007816450000,0.034458900000,0.017469400000,0.019683000000,0.004878760000,-0.003155340000,-0.043734300000,-0.007816450000,0.034458900000,0.017469400000,0.019683000000,0.004878760000,0.051797700000,0.728414000000,-0.019749600000,-2.096750000000,0.003139340000,2.914640000000,1.304570000000,-0.000835424000,0.002034620000,0.000516631000,0.000243396000,-0.000512725000,0.000111029000,-0.001268350000,0.294740000000,-0.954926000000,0.035281500000,0.000000000000,-0.951344000000,-0.296706000000,-0.083125200000,0.000000000000,0.089846700000,-0.009064500000,-0.995914000000,0.000000000000,0.566987000000,0.017446100000,0.075955400000,1.000000000000,-0.017446100000,0.566987000000,0.000000000000,0.000000000000,0.000000000000,1.000000000000,-0.256700000000,-0.013308400000,-0.567130000000,-0.051774500000,0.998659000000,0.000000000000,-0.021878000000,0.593985000000,-0.007943470000,0.664794000000,0.034465600000,0.746231000000,0.437690000000,0.020111300000,0.295182000000,0.037047400000,-0.999227000000,0.013146200000,0.002100780000,-0.061626800000,0.000750430000,0.311513000000,-0.000952042000,-0.950242000000,0.098598400000,0.004544870000,0.097214700000,0.034066400000,-0.999345000000,0.012169000000,0.000000000000,-0.000000000000,-0.000000000000,0.089846700000,-0.009064500000,-0.995914000000,0.062350300000,0,0,0,1200.000000000000,40.000000000000
1782249962.584212064743,0.229821602006,hold_measured_before,0.566986921771,0.566987878402,0.566987185842,0.000000692560,-0.041351200000,0.039015900000,-0.043008300000,0.032815300000,0.060213000000,0.036551500000,-0.055703500000,-0.010248300000,-0.033804600000,-0.009655420000,-0.000002086220,-0.000003800180,-0.000002135520,-0.000002177020,0.000000017564,0.000000241849,0.000000010690,0.034723400000,0.060234800000,0.035126600000,-0.055703200000,-0.006392030000,-0.033808300000,-0.012482800000,0.034723400000,0.060234800000,0.035126600000,-0.055703200000,-0.006392030000,-0.033808300000,-0.012482800000,0.034723400000,0.060234800000,0.035126600000,-0.055703200000,-0.006392030000,-0.033808300000,-0.012482800000,0.051802600000,0.728408000000,-0.019753200000,-2.096750000000,0.003141110000,2.914640000000,1.304570000000,-0.000545677000,-0.000840654000,-0.001217420000,0.001554990000,-0.000052514100,0.000817101000,-0.000116543000,0.294742000000,-0.954925000000,0.035284800000,0.000000000000,-0.951343000000,-0.296709000000,-0.083130000000,0.000000000000,0.089852200000,-0.009066020000,-0.995914000000,0.000000000000,0.566988000000,0.017446700000,0.075958700000,1.000000000000,-0.017446700000,0.566988000000,0.000000000000,0.000000000000,0.000000000000,1.000000000000,-0.256697000000,-0.013309400000,-0.567131000000,-0.051779400000,0.998659000000,0.000000000000,-0.021879200000,0.593985000000,-0.007944920000,0.664789000000,0.034468600000,0.746235000000,0.437689000000,0.020112900000,0.295184000000,0.037049500000,-0.999227000000,0.013148500000,0.002100800000,-0.061626800000,0.000750539000,0.311518000000,-0.000953393000,-0.950240000000,0.098597800000,0.004545070000,0.097215300000,0.034066800000,-0.999345000000,0.012170800000,-0.000000000000,-0.000000000000,0.000000000000,0.089852200000,-0.009066020000,-0.995914000000,0.102520000000,0,0,0,1200.000000000000,40.000000000000
1782249962.605215787888,0.250825711002,hold_measured_before,0.566986921771,0.566987881263,0.566987094541,0.000000786722,0.001112300000,0.017772100000,0.018919500000,0.021198600000,-0.011168900000,0.018117400000,0.006505290000,-0.011937400000,0.002097690000,-0.011174600000,-0.000000320508,0.000000573171,-0.000000088942,-0.000001278800,-0.000000047544,-0.000000052708,0.000000004034,0.022883400000,-0.011145700000,0.016862200000,0.006506150000,-0.008535610000,0.002094180000,-0.013668800000,0.022883400000,-0.011145700000,0.016862200000,0.006506150000,-0.008535610000,0.002094180000,-0.013668800000,0.022883400000,-0.011145700000,0.016862200000,0.006506150000,-0.008535610000,0.002094180000,-0.013668800000,0.051799200000,0.728412000000,-0.019750500000,-2.096750000000,0.003142750000,2.914640000000,1.304570000000,-0.000547056000,0.001174380000,-0.000138039000,0.000356095000,0.000673554000,0.000813546000,0.000113972000,0.294737000000,-0.954927000000,0.035281900000,0.000000000000,-0.951345000000,-0.296703000000,-0.083128900000,0.000000000000,0.089850200000,-0.009064130000,-0.995914000000,0.000000000000,0.566988000000,0.017446200000,0.075957000000,1.000000000000,-0.017446200000,0.566988000000,0.000000000000,0.000000000000,0.000000000000,1.000000000000,-0.256698000000,-0.013308700000,-0.567131000000,-0.051776000000,0.998659000000,0.000000000000,-0.021878300000,0.593985000000,-0.007943970000,0.664792000000,0.034466500000,0.746233000000,0.437689000000,0.020111800000,0.295183000000,0.037048100000,-0.999227000000,0.013146800000,0.002100620000,-0.061626800000,0.000750401000,0.311516000000,-0.000952239000,-0.950240000000,0.098598000000,0.004544570000,0.097215100000,0.034063900000,-0.999346000000,0.012168600000,0.000000000000,-0.000000000000,0.000000000000,0.089850200000,-0.009064130000,-0.995914000000,0.035194000000,0,0,0,1200.000000000000,40.000000000000
1782249962.626211404800,0.271821434006,hold_measured_before,0.566986921771,0.566988054827,0.566987034807,0.000001020020,-0.007736430000,-0.046632700000,0.009579000000,-0.056816200000,-0.006221340000,-0.056917400000,0.001642000000,0.028858100000,0.003153970000,0.029555500000,-0.000000450689,-0.000005169350,0.000000070882,0.000001027740,0.000000049047,0.000000412295,0.000000004810,-0.051235200000,-0.006151670000,-0.061074600000,0.001650100000,0.040125400000,0.003142940000,0.021294200000,-0.051235200000,-0.006151670000,-0.061074600000,0.001650100000,0.040125400000,0.003142940000,0.021294200000,-0.051235200000,-0.006151670000,-0.061074600000,0.001650100000,0.040125400000,0.003142940000,0.021294200000,0.051798100000,0.728412000000,-0.019745900000,-2.096750000000,0.003139490000,2.914630000000,1.304570000000,-0.000877699000,0.000884940000,0.002570280000,0.001130430000,-0.001042240000,-0.000625706000,-0.001760710000,0.294747000000,-0.954924000000,0.035279800000,0.000000000000,-0.951342000000,-0.296712000000,-0.083127300000,0.000000000000,0.089848200000,-0.009061670000,-0.995914000000,0.000000000000,0.566988000000,0.017448600000,0.075957000000,1.000000000000,-0.017448600000,0.566988000000,0.000000000000,0.000000000000,0.000000000000,1.000000000000,-0.256698000000,-0.013308400000,-0.567131000000,-0.051774900000,0.998659000000,0.000000000000,-0.021879900000,0.593985000000,-0.007942020000,0.664793000000,0.034465800000,0.746233000000,0.437689000000,0.020112000000,0.295183000000,0.037050500000,-0.999227000000,0.013143700000,0.002100950000,-0.061626400000,0.000750269000,0.311517000000,-0.000948546000,-0.950240000000,0.098598200000,0.004544920000,0.097214900000,0.034069300000,-0.999345000000,0.012166500000,-0.000000000000,0.000000000000,0.000000000000,0.089848200000,-0.009061670000,-0.995914000000,0.092027600000,0,0,0,1200.000000000000,40.000000000000
1782249962.646268606186,0.291878743003,hold_measured_before,0.566986921771,0.566987476788,0.566986997234,0.000000479554,0.005975530000,-0.016003300000,0.025356300000,-0.009122180000,-0.024707700000,-0.010964700000,0.018809600000,0.000572728000,0.012017600000,-0.000088740200,0.000000222647,0.000000695825,0.000000067289,-0.000001478360,-0.000000043131,-0.000000050624,0.000000004207,-0.009425130000,-0.024711100000,-0.010738800000,0.018807700000,-0.000039329700,0.012018200000,0.000359998000,-0.009425130000,-0.024711100000,-0.010738800000,0.018807700000,-0.000039329700,0.012018200000,0.000359998000,-0.009425130000,-0.024711100000,-0.010738800000,0.018807700000,-0.000039329700,0.012018200000,0.000359998000,0.051799600000,0.728412000000,-0.019751200000,-2.096750000000,0.003140250000,2.914640000000,1.304570000000,0.000358018000,0.001326220000,0.000332807000,0.000505436000,-0.000235323000,-0.000309720000,0.000847799000,0.294740000000,-0.954926000000,0.035282500000,0.000000000000,-0.951344000000,-0.296706000000,-0.083126200000,0.000000000000,0.089847900000,-0.009065210000,-0.995914000000,0.000000000000,0.566987000000,0.017446200000,0.075956700000,1.000000000000,-0.017446200000,0.566987000000,0.000000000000,0.000000000000,0.000000000000,1.000000000000,-0.256699000000,-0.013308800000,-0.567130000000,-0.051776400000,0.998659000000,0.000000000000,-0.021878400000,0.593985000000,-0.007944120000,0.664793000000,0.034466800000,0.746233000000,0.437689000000,0.020111900000,0.295183000000,0.037048100000,-0.999227000000,0.013147200000,0.002100760000,-0.061626600000,0.000750472000,0.311516000000,-0.000952686000,-0.950241000000,0.098598300000,0.004544920000,0.097214800000,0.034066200000,-0.999345000000,0.012169800000,0.000000000000,-0.000000000000,-0.000000000000,0.089847900000,-0.009065210000,-0.995914000000,0.036236600000,0,0,0,1200.000000000000,40.000000000000
1782249962.666287899017,0.311897736006,hold_measured_before,0.566986921771,0.566987260517,0.566986972151,0.000000288366,0.001457510000,0.044954700000,0.007638910000,0.033159600000,-0.005994460000,0.036050400000,0.004505870000,-0.008335530000,0.001775440000,-0.007159600000,0.000000105693,-0.000000076730,0.000000226452,-0.000001988280,-0.000000110227,-0.000000037808,0.000000007005,0.036356800000,-0.005951640000,0.033669300000,0.004507940000,-0.001881550000,0.001768830000,-0.011891800000,0.036356800000,-0.005951640000,0.033669300000,0.004507940000,-0.001881550000,0.001768830000,-0.011891800000,0.036356800000,-0.005951640000,0.033669300000,0.004507940000,-0.001881550000,0.001768830000,-0.011891800000,0.051797000000,0.728410000000,-0.019753300000,-2.096750000000,0.003145190000,2.914640000000,1.304570000000,-0.000839203000,0.000446825000,-0.000926653000,-0.000003775200,-0.000072481700,0.000370246000,-0.000507734000,0.294734000000,-0.954928000000,0.035283200000,0.000000000000,-0.951346000000,-0.296700000000,-0.083128100000,0.000000000000,0.089849900000,-0.009065790000,-0.995914000000,0.000000000000,0.566987000000,0.017443200000,0.075957200000,1.000000000000,-0.017443200000,0.566987000000,0.000000000000,0.000000000000,0.000000000000,1.000000000000,-0.256698000000,-0.013308100000,-0.567130000000,-0.051773800000,0.998659000000,0.000000000000,-0.021875700000,0.593985000000,-0.007945140000,0.664791000000,0.034465000000,0.746234000000,0.437689000000,0.020110500000,0.295183000000,0.037043900000,-0.999227000000,0.013148600000,0.002100220000,-0.061626900000,0.000750467000,0.311515000000,-0.000955337000,-0.950241000000,0.098598100000,0.004544030000,0.097215000000,0.034057300000,-0.999346000000,0.012169600000,-0.000000000000,-0.000000000000,0.000000000000,0.089849900000,-0.009065790000,-0.995914000000,0.051568100000,0,0,0,1200.000000000000,40.000000000000
1782249962.687215328217,0.332825203004,hold_measured_before,0.566986921771,0.566986829496,0.566986954732,-0.000000125236,0.013933100000,0.004691070000,0.018311100000,-0.006969730000,-0.015381700000,-0.003573440000,0.012807800000,0.009208080000,0.004389430000,0.009513510000,0.000000524637,-0.000000980799,0.000000625109,-0.000000214216,-0.000000067474,0.000000065776,0.000000002759,-0.003887040000,-0.015341400000,-0.005868500000,0.012811500000,0.015430100000,0.004383180000,0.004951420000,-0.003887040000,-0.015341400000,-0.005868500000,0.012811500000,0.015430100000,0.004383180000,0.004951420000,-0.003887040000,-0.015341400000,-0.005868500000,0.012811500000,0.015430100000,0.004383180000,0.004951420000,0.051795300000,0.728412000000,-0.019748900000,-2.096750000000,0.003139250000,2.914640000000,1.304570000000,-0.000424700000,0.000639950000,0.000207738000,-0.000678076000,-0.000905206000,0.001171700000,-0.000575454000,0.294740000000,-0.954926000000,0.035281800000,0.000000000000,-0.951344000000,-0.296706000000,-0.083127400000,0.000000000000,0.089848900000,-0.009064170000,-0.995914000000,0.000000000000,0.566987000000,0.017445100000,0.075956300000,1.000000000000,-0.017445100000,0.566987000000,0.000000000000,0.000000000000,0.000000000000,1.000000000000,-0.256699000000,-0.013307700000,-0.567130000000,-0.051772100000,0.998659000000,0.000000000000,-0.021876900000,0.593985000000,-0.007943200000,0.664793000000,0.034463900000,0.746233000000,0.437690000000,0.020110300000,0.295182000000,0.037045400000,-0.999227000000,0.013145700000,0.002100670000,-0.061627000000,0.000750406000,0.311513000000,-0.000952199000,-0.950241000000,0.098598200000,0.004544640000,0.097214900000,0.034064500000,-0.999346000000,0.012168600000,-0.000000000000,-0.000000000000,0.000000000000,0.089848900000,-0.009064170000,-0.995914000000,0.027034400000,0,0,0,1200.000000000000,40.000000000000
1782249962.707216739655,0.352826471004,hold_measured_before,0.566986921771,0.566988290623,0.566986943776,0.000001346850,-0.020063600000,-0.011519800000,-0.021353400000,-0.004219500000,0.032916100000,-0.001676230000,-0.030858500000,-0.000031875000,-0.019663700000,-0.001751650000,0.000001177460,-0.000001032080,0.000001271310,-0.000000220651,-0.000000140903,0.000000045760,0.000000005085,-0.007303630000,0.032873700000,0.000623069000,-0.030862600000,-0.006260400000,-0.019657300000,0.002815070000,-0.007303630000,0.032873700000,0.000623069000,-0.030862600000,-0.006260400000,-0.019657300000,0.002815070000,-0.007303630000,0.032873700000,0.000623069000,-0.030862600000,-0.006260400000,-0.019657300000,0.002815070000,0.051798300000,0.728410000000,-0.019748600000,-2.096750000000,0.003140490000,2.914640000000,1.304570000000,0.001100500000,-0.000361897000,-0.000706916000,0.000648024000,-0.000716493000,0.000911718000,0.001531430000,0.294741000000,-0.954926000000,0.035281900000,0.000000000000,-0.951344000000,-0.296706000000,-0.083130500000,0.000000000000,0.089851800000,-0.009063250000,-0.995914000000,0.000000000000,0.566988000000,0.017447000000,0.075958000000,1.000000000000,-0.017447000000,0.566988000000,0.000000000000,0.000000000000,0.000000000000,1.000000000000,-0.256697000000,-0.013308400000,-0.567131000000,-0.051775100000,0.998659000000,0.000000000000,-0.021878700000,0.593985000000,-0.007943110000,0.664791000000,0.034465900000,0.746234000000,0.437689000000,0.020111700000,0.295184000000,0.037048700000,-0.999227000000,0.013145500000,0.002100790000,-0.061626800000,0.000750365000,0.311518000000,-0.000950796000,-0.950240000000,0.098597900000,0.004544780000,0.097215200000,0.034066500000,-0.999345000000,0.012168000000,0.000000000000,0.000000000000,-0.000000000000,0.089851800000,-0.009063250000,-0.995914000000,0.050204000000,0,0,0,1200.000000000000,40.000000000000
1782249962.727294206619,0.372904260999,hold_measured_before,0.566986921771,0.566988918142,0.566986936462,0.000001981680,-0.006548100000,-0.014309100000,-0.013674900000,0.004845800000,0.013257000000,-0.000175069000,-0.010617600000,-0.012116500000,-0.005472830000,-0.013044700000,0.000000057003,0.000000016383,0.000000115033,-0.000000297287,-0.000000023051,-0.000000006608,0.000000001108,0.004891210000,0.013257600000,-0.000208737000,-0.010617800000,-0.012025000000,-0.005472930000,-0.013111900000,0.004891210000,0.013257600000,-0.000208737000,-0.010617800000,-0.012025000000,-0.005472930000,-0.013111900000,0.004891210000,0.013257600000,-0.000208737000,-0.010617800000,-0.012025000000,-0.005472930000,-0.013111900000,0.051801400000,0.728406000000,-0.019748700000,-2.096750000000,0.003140370000,2.914640000000,1.304570000000,0.000409095000,-0.000418210000,0.000096051400,0.000020250700,0.000133579000,-0.000030476300,0.001979380000,0.294743000000,-0.954925000000,0.035282700000,0.000000000000,-0.951343000000,-0.296709000000,-0.083133800000,0.000000000000,0.089855300000,-0.009062840000,-0.995914000000,0.000000000000,0.566989000000,0.017448800000,0.075959900000,1.000000000000,-0.017448800000,0.566989000000,0.000000000000,0.000000000000,0.000000000000,1.000000000000,-0.256695000000,-0.013309100000,-0.567132000000,-0.051778200000,0.998659000000,0.000000000000,-0.021880500000,0.593985000000,-0.007943090000,0.664788000000,0.034467800000,0.746236000000,0.437688000000,0.020113000000,0.295185000000,0.037051700000,-0.999227000000,0.013145500000,0.002100980000,-0.061626800000,0.000750365000,0.311521000000,-0.000949702000,-0.950239000000,0.098597500000,0.004545080000,0.097215600000,0.034069700000,-0.999345000000,0.012168000000,0.000000000000,0.000000000000,0.000000000000,0.089855300000,-0.009062840000,-0.995914000000,0.025669900000,0,0,0,1200.000000000000,40.000000000000
1782249962.748252391815,0.393862268000,hold_measured_before,0.566986921771,0.566985806396,0.566986931382,-0.000001124990,0.030314700000,0.015693400000,0.042956800000,0.027166700000,-0.055113400000,0.017071100000,0.049384300000,-0.020808800000,0.030361000000,-0.019116000000,0.000001912320,-0.000002465660,0.000002530120,-0.000001157700,-0.000000282818,0.000000140357,0.000000013224,0.034907800000,-0.055012100000,0.011309300000,0.049392900000,-0.005185780000,0.030345200000,-0.030571100000,0.034907800000,-0.055012100000,0.011309300000,0.049392900000,-0.005185780000,0.030345200000,-0.030571100000,0.034907800000,-0.055012100000,0.011309300000,0.049392900000,-0.005185780000,0.030345200000,-0.030571100000,0.051796700000,0.728414000000,-0.019750400000,-2.096760000000,0.003140260000,2.914640000000,1.304570000000,-0.001474780000,0.001261610000,0.000964588000,-0.000734285000,0.000807451000,-0.000864064000,0.000806091000,0.294737000000,-0.954927000000,0.035281100000,0.000000000000,-0.951345000000,-0.296702000000,-0.083123200000,0.000000000000,0.089844600000,-0.009065080000,-0.995915000000,0.000000000000,0.566986000000,0.017445000000,0.075954800000,1.000000000000,-0.017445000000,0.566986000000,0.000000000000,0.000000000000,0.000000000000,1.000000000000,-0.256700000000,-0.013308200000,-0.567129000000,-0.051773600000,0.998659000000,0.000000000000,-0.021877100000,0.593985000000,-0.007943840000,0.664794000000,0.034465000000,0.746231000000,0.437691000000,0.020110800000,0.295181000000,0.037045800000,-0.999227000000,0.013146700000,0.002100620000,-0.061626800000,0.000750448000,0.311511000000,-0.000953158000,-0.950242000000,0.098598600000,0.004544660000,0.097214500000,0.034063900000,-0.999346000000,0.012169300000,-0.000000000000,-0.000000000000,0.000000000000,0.089844600000,-0.009065080000,-0.995915000000,0.093245700000,0,0,0,1200.000000000000,40.000000000000
1782249962.768252849579,0.413862644004,hold_measured_before,0.566986921771,0.566989721886,0.566986928188,0.000002793700,-0.038729000000,0.016448400000,-0.058771600000,0.020819400000,0.064917100000,0.021629400000,-0.055740400000,-0.010636700000,-0.031249600000,-0.010741700000,-0.000000062915,-0.000003196020,0.000000138167,-0.000002359850,-0.000000104414,0.000000240636,0.000000013075,0.020258400000,0.064906400000,0.022047400000,-0.055743400000,-0.011769200000,-0.031248200000,-0.009911340000,0.020258400000,0.064906400000,0.022047400000,-0.055743400000,-0.011769200000,-0.031248200000,-0.009911340000,0.020258400000,0.064906400000,0.022047400000,-0.055743400000,-0.011769200000,-0.031248200000,-0.009911340000,0.051798500000,0.728406000000,-0.019753500000,-2.096750000000,0.003141130000,2.914640000000,1.304570000000,0.000183588000,-0.001943090000,-0.000823225000,0.000871425000,0.000077108600,-0.000109004000,0.000857250000,0.294736000000,-0.954927000000,0.035285400000,0.000000000000,-0.951345000000,-0.296703000000,-0.083132300000,0.000000000000,0.089854600000,-0.009066460000,-0.995914000000,0.000000000000,0.566990000000,0.017444300000,0.075960300000,1.000000000000,-0.017444300000,0.566990000000,0.000000000000,0.000000000000,0.000000000000,1.000000000000,-0.256695000000,-0.013308300000,-0.567132000000,-0.051775300000,0.998659000000,0.000000000000,-0.021876700000,0.593985000000,-0.007945020000,0.664788000000,0.034465900000,0.746236000000,0.437687000000,0.020111100000,0.295186000000,0.037045200000,-0.999227000000,0.013148700000,0.002100520000,-0.061626500000,0.000750543000,0.311523000000,-0.000954679000,-0.950238000000,0.098597600000,0.004544660000,0.097215500000,0.034062500000,-0.999346000000,0.012170900000,0.000000000000,-0.000000000000,-0.000000000000,0.089854600000,-0.009066460000,-0.995914000000,0.097107500000,0,0,0,1200.000000000000,40.000000000000
1782249962.789313793182,0.434923416004,hold_measured_before,0.566986921771,0.566987750857,0.566986926055,0.000000824802,-0.014202500000,-0.043989300000,0.000610140000,-0.042135700000,0.009013200000,-0.040735200000,-0.012235300000,0.018282100000,-0.006829500000,0.017046300000,0.000002664880,0.000000500346,0.000002216120,-0.000002564920,-0.000000220091,-0.000000094168,0.000000010543,-0.051562500000,0.008887240000,-0.033709700000,-0.012249800000,-0.000753481000,-0.006810260000,0.031003300000,-0.051562500000,0.008887240000,-0.033709700000,-0.012249800000,-0.000753481000,-0.006810260000,0.031003300000,-0.051562500000,0.008887240000,-0.033709700000,-0.012249800000,-0.000753481000,-0.006810260000,0.031003300000,0.051804300000,0.728412000000,-0.019748600000,-2.096750000000,0.003141090000,2.914640000000,1.304570000000,0.001372580000,0.000699142000,0.000388957000,0.001204580000,0.000700900000,0.000137419000,-0.001143420000,0.294749000000,-0.954923000000,0.035281400000,0.000000000000,-0.951341000000,-0.296714000000,-0.083128300000,0.000000000000,0.089849600000,-0.009062690000,-0.995914000000,0.000000000000,0.566988000000,0.017450400000,0.075957000000,1.000000000000,-0.017450400000,0.566988000000,0.000000000000,0.000000000000,0.000000000000,1.000000000000,-0.256698000000,-0.013310000000,-0.567131000000,-0.051781100000,0.998658000000,0.000000000000,-0.021882300000,0.593985000000,-0.007943160000,0.664792000000,0.034469900000,0.746233000000,0.437689000000,0.020114300000,0.295183000000,0.037054700000,-0.999227000000,0.013145500000,0.002101120000,-0.061626700000,0.000750354000,0.311516000000,-0.000949005000,-0.950240000000,0.098598100000,0.004545300000,0.097215000000,0.034072000000,-0.999345000000,0.012167800000,-0.000000000000,0.000000000000,-0.000000000000,0.089849600000,-0.009062690000,-0.995914000000,0.070938200000,0,0,0,1200.000000000000,40.000000000000
1782249962.810326337814,0.455935972001,hold_measured_before,0.566986921771,0.566986733196,0.566986924574,-0.000000191378,0.010735300000,0.036578600000,0.015851900000,0.027155500000,-0.030499500000,0.029148200000,0.028400500000,-0.006848670000,0.021032800000,-0.005943200000,0.000000031924,-0.000000437813,0.000000096647,-0.000001288880,-0.000000071647,0.000000014011,0.000000004429,0.026396500000,-0.030510100000,0.029713700000,0.028398300000,-0.008381120000,0.021034400000,-0.004819640000,0.026396500000,-0.030510100000,0.029713700000,0.028398300000,-0.008381120000,0.021034400000,-0.004819640000,0.026396500000,-0.030510100000,0.029713700000,0.028398300000,-0.008381120000,0.021034400000,-0.004819640000,0.051799200000,0.728410000000,-0.019752500000,-2.096750000000,0.003141600000,2.914630000000,1.304570000000,-0.000394149000,0.000401471000,-0.001009370000,-0.000016522800,0.000609116000,-0.001851860000,-0.000921470000,0.294741000000,-0.954926000000,0.035282300000,0.000000000000,-0.951344000000,-0.296706000000,-0.083122400000,0.000000000000,0.089844200000,-0.009066020000,-0.995915000000,0.000000000000,0.566987000000,0.017445100000,0.075956700000,1.000000000000,-0.017445100000,0.566987000000,0.000000000000,0.000000000000,0.000000000000,1.000000000000,-0.256699000000,-0.013308700000,-0.567129000000,-0.051776000000,0.998659000000,0.000000000000,-0.021877500000,0.593985000000,-0.007944680000,0.664791000000,0.034466500000,0.746234000000,0.437690000000,0.020111600000,0.295182000000,0.037046700000,-0.999227000000,0.013148100000,0.002100580000,-0.061626100000,0.000750494000,0.311515000000,-0.000953950000,-0.950241000000,0.098598600000,0.004544710000,0.097214500000,0.034063500000,-0.999346000000,0.012170200000,-0.000000000000,-0.000000000000,0.000000000000,0.089844200000,-0.009066020000,-0.995915000000,0.062071900000,0,0,0,1200.000000000000,40.000000000000
1782249962.831264972687,0.476875042004,hold_measured_before,0.566986921771,0.566987610950,0.566986923604,0.000000687346,0.019363200000,-0.001103970000,0.037612800000,0.003686640000,-0.038552100000,0.002743090000,0.031864800000,-0.003768410000,0.017862100000,-0.004376040000,-0.000000322296,-0.000000841721,-0.000000611357,-0.000001479530,-0.000000034653,0.000000064764,0.000000004776,0.001061350000,-0.038588200000,0.004697630000,0.031860000000,-0.009067560000,0.017867500000,-0.000490670000,0.001061350000,-0.038588200000,0.004697630000,0.031860000000,-0.009067560000,0.017867500000,-0.000490670000,0.001061350000,-0.038588200000,0.004697630000,0.031860000000,-0.009067560000,0.017867500000,-0.000490670000,0.051800400000,0.728412000000,-0.019750400000,-2.096750000000,0.003141130000,2.914640000000,1.304580000000,0.000486422000,0.001580550000,-0.000380458000,-0.000301984000,0.000276905000,0.000332472000,0.000519469000,0.294737000000,-0.954927000000,0.035282200000,0.000000000000,-0.951345000000,-0.296703000000,-0.083129300000,0.000000000000,0.089850700000,-0.009064290000,-0.995914000000,0.000000000000,0.566988000000,0.017447100000,0.075956800000,1.000000000000,-0.017447100000,0.566988000000,0.000000000000,0.000000000000,0.000000000000,1.000000000000,-0.256698000000,-0.013309000000,-0.567130000000,-0.051777300000,0.998659000000,0.000000000000,-0.021879200000,0.593985000000,-0.007943860000,0.664793000000,0.034467400000,0.746232000000,0.437689000000,0.020112400000,0.295183000000,0.037049500000,-0.999227000000,0.013146700000,0.002100810000,-0.061627000000,0.000750430000,0.311515000000,-0.000951791000,-0.950241000000,0.098598000000,0.004544900000,0.097215100000,0.034066800000,-0.999345000000,0.012169000000,0.000000000000,0.000000000000,-0.000000000000,0.089850700000,-0.009064290000,-0.995914000000,0.054120300000,0,0,0,1200.000000000000,40.000000000000
1782249962.851421594620,0.497032149004,hold_measured_before,0.566986921771,0.566988424668,0.566986922995,0.000001501670,0.009527020000,-0.026589200000,0.016177200000,-0.016483900000,-0.026791200000,-0.018687900000,0.023952000000,0.002354150000,0.017940800000,0.001230970000,0.000000002271,0.000000221223,-0.000000220438,-0.000001521800,-0.000000039174,-0.000000047366,0.000000004862,-0.022639900000,-0.026873600000,-0.014102900000,0.023942700000,-0.010073200000,0.017953400000,0.010342800000,-0.022639900000,-0.026873600000,-0.014102900000,0.023942700000,-0.010073200000,0.017953400000,0.010342800000,-0.022639900000,-0.026873600000,-0.014102900000,0.023942700000,-0.010073200000,0.017953400000,0.010342800000,0.051799800000,0.728412000000,-0.019751100000,-2.096750000000,0.003141130000,2.914640000000,1.304570000000,0.001154610000,0.000530088000,0.000096990800,0.000045206000,0.000545664000,-0.001478940000,0.000548272000,0.294742000000,-0.954925000000,0.035283300000,0.000000000000,-0.951343000000,-0.296708000000,-0.083129400000,0.000000000000,0.089851200000,-0.009064800000,-0.995914000000,0.000000000000,0.566988000000,0.017446400000,0.075957400000,1.000000000000,-0.017446400000,0.566988000000,0.000000000000,0.000000000000,0.000000000000,1.000000000000,-0.256698000000,-0.013308800000,-0.567131000000,-0.051776600000,0.998659000000,0.000000000000,-0.021878600000,0.593985000000,-0.007944120000,0.664792000000,0.034467000000,0.746233000000,0.437689000000,0.020112000000,0.295184000000,0.037048400000,-0.999227000000,0.013147100000,0.002100730000,-0.061626700000,0.000750454000,0.311517000000,-0.000952466000,-0.950240000000,0.098597900000,0.004544830000,0.097215200000,0.034065600000,-0.999346000000,0.012169400000,-0.000000000000,-0.000000000000,-0.000000000000,0.089851200000,-0.009064800000,-0.995914000000,0.050375300000,0,0,0,1200.000000000000,40.000000000000
1782249962.872248649597,0.517858265004,hold_measured_before,0.566986921771,0.566988529344,0.566986922572,0.000001606770,-0.020264600000,-0.018876800000,-0.034107500000,-0.029590400000,0.036975900000,-0.023904400000,-0.031768300000,0.019615500000,-0.017835700000,0.019123100000,0.000000659608,-0.000000700755,0.000000967356,-0.000001273880,-0.000000130350,0.000000040082,0.000000006972,-0.035991000000,0.036889300000,-0.019135600000,-0.031777700000,0.006692990000,-0.017822500000,0.028598000000,-0.035991000000,0.036889300000,-0.019135600000,-0.031777700000,0.006692990000,-0.017822500000,0.028598000000,-0.035991000000,0.036889300000,-0.019135600000,-0.031777700000,0.006692990000,-0.017822500000,0.028598000000,0.051802600000,0.728408000000,-0.019751100000,-2.096750000000,0.003140370000,2.914640000000,1.304570000000,0.000789065000,-0.001167990000,-0.000067108800,0.000397188000,0.000095720100,-0.000031985200,-0.001735770000,0.294747000000,-0.954924000000,0.035284200000,0.000000000000,-0.951341000000,-0.296713000000,-0.083131400000,0.000000000000,0.089853400000,-0.009064630000,-0.995914000000,0.000000000000,0.566989000000,0.017448000000,0.075959000000,1.000000000000,-0.017448000000,0.566989000000,0.000000000000,0.000000000000,0.000000000000,1.000000000000,-0.256696000000,-0.013309400000,-0.567131000000,-0.051779400000,0.998659000000,0.000000000000,-0.021880200000,0.593985000000,-0.007944080000,0.664790000000,0.034468700000,0.746235000000,0.437688000000,0.020113200000,0.295184000000,0.037051100000,-0.999227000000,0.013147100000,0.002100940000,-0.061626800000,0.000750467000,0.311519000000,-0.000951539000,-0.950239000000,0.098597700000,0.004545180000,0.097215400000,0.034069000000,-0.999345000000,0.012169600000,0.000000000000,-0.000000000000,0.000000000000,0.089853400000,-0.009064630000,-0.995914000000,0.072197300000,0,0,0,1200.000000000000,40.000000000000
1782249962.892401218414,0.538011244003,hold_measured_before,0.566986921771,0.566985514654,0.566986922305,-0.000001407650,0.035156300000,-0.005361750000,0.025911100000,-0.034587300000,-0.035889100000,-0.021120200000,0.034624600000,0.032888700000,0.017659600000,0.031796300000,-0.000002757490,-0.000004050360,-0.000002590600,0.000000371087,0.000000169460,0.000000242136,-0.000000001068,-0.042716300000,-0.036002200000,-0.015070100000,0.034614600000,0.016484100000,0.017676500000,0.043824400000,-0.042716300000,-0.036002200000,-0.015070100000,0.034614600000,0.016484100000,0.017676500000,0.043824400000,-0.042716300000,-0.036002200000,-0.015070100000,0.034614600000,0.016484100000,0.017676500000,0.043824400000,0.051800700000,0.728410000000,-0.019750400000,-2.096760000000,0.003141130000,2.914640000000,1.304570000000,0.001174520000,0.000270675000,-0.000965812000,-0.001908780000,-0.000952479000,0.000706103000,-0.002516260000,0.294745000000,-0.954924000000,0.035281800000,0.000000000000,-0.951343000000,-0.296711000000,-0.083124700000,0.000000000000,0.089846300000,-0.009064410000,-0.995914000000,0.000000000000,0.566986000000,0.017447200000,0.075956200000,1.000000000000,-0.017447200000,0.566986000000,0.000000000000,0.000000000000,0.000000000000,1.000000000000,-0.256699000000,-0.013309100000,-0.567128000000,-0.051777500000,0.998659000000,0.000000000000,-0.021879300000,0.593984000000,-0.007943830000,0.664791000000,0.034467500000,0.746234000000,0.437690000000,0.020112500000,0.295181000000,0.037049700000,-0.999227000000,0.013146700000,0.002100820000,-0.061626900000,0.000750428000,0.311512000000,-0.000951836000,-0.950242000000,0.098598400000,0.004544930000,0.097214700000,0.034067000000,-0.999345000000,0.012169000000,-0.000000000000,-0.000000000000,0.000000000000,0.089846300000,-0.009064410000,-0.995914000000,0.083969500000,0,0,0,1200.000000000000,40.000000000000
1782249962.913315773010,0.558925044003,hold_measured_before,0.566986921771,0.566988171554,0.566986922121,0.000001249430,0.004032060000,0.062757400000,-0.001852370000,0.059179900000,-0.000564389000,0.057917600000,0.002468460000,-0.024928300000,0.000454247000,-0.023165000000,0.000001556990,0.000000184162,0.000001446510,-0.000004214620,-0.000000237507,-0.000000112264,0.000000016560,0.065890000000,-0.000474213000,0.052922300000,0.002472760000,-0.011385900000,0.000440375000,-0.033094600000,0.065890000000,-0.000474213000,0.052922300000,0.002472760000,-0.011385900000,0.000440375000,-0.033094600000,0.065890000000,-0.000474213000,0.052922300000,0.002472760000,-0.011385900000,0.000440375000,-0.033094600000,0.051796800000,0.728407000000,-0.019753300000,-2.096750000000,0.003141160000,2.914640000000,1.304570000000,-0.001447410000,-0.000171066000,-0.001058550000,-0.000635404000,0.000320342000,0.000475012000,0.000409139000,0.294736000000,-0.954927000000,0.035284900000,0.000000000000,-0.951345000000,-0.296702000000,-0.083130700000,0.000000000000,0.089852800000,-0.009066540000,-0.995914000000,0.000000000000,0.566988000000,0.017443400000,0.075959200000,1.000000000000,-0.017443400000,0.566988000000,0.000000000000,0.000000000000,0.000000000000,1.000000000000,-0.256696000000,-0.013307900000,-0.567131000000,-0.051773700000,0.998659000000,0.000000000000,-0.021875700000,0.593985000000,-0.007944950000,0.664789000000,0.034464800000,0.746236000000,0.437688000000,0.020110400000,0.295184000000,0.037043700000,-0.999227000000,0.013148500000,0.002100440000,-0.061626800000,0.000750539000,0.311519000000,-0.000955201000,-0.950240000000,0.098597800000,0.004544490000,0.097215300000,0.034060900000,-0.999346000000,0.012170800000,0.000000000000,0.000000000000,-0.000000000000,0.089852800000,-0.009066540000,-0.995914000000,0.091507900000,0,0,0,1200.000000000000,40.000000000000
1782249962.934246301651,0.579856389006,hold_measured_before,0.566986921771,0.566988187348,0.566986922000,0.000001265350,-0.017182800000,-0.017739600000,0.012548900000,-0.007515020000,0.007600120000,-0.012895600000,-0.014116500000,-0.003250460000,-0.010480600000,-0.002949900000,-0.000000208965,0.000001133120,0.000000038487,-0.000001696820,0.000000019738,-0.000000083882,0.000000003767,-0.007140750000,0.007606270000,-0.013174400000,-0.014117800000,-0.002494470000,-0.010481500000,-0.003504180000,-0.007140750000,0.007606270000,-0.013174400000,-0.014117800000,-0.002494470000,-0.010481500000,-0.003504180000,-0.007140750000,0.007606270000,-0.013174400000,-0.014117800000,-0.002494470000,-0.010481500000,-0.003504180000,0.051800600000,0.728413000000,-0.019748600000,-2.096750000000,0.003141130000,2.914640000000,1.304570000000,-0.000215489000,0.001603370000,0.000911861000,0.001584700000,0.000773630000,0.001259180000,0.000066422500,0.294746000000,-0.954924000000,0.035281700000,0.000000000000,-0.951342000000,-0.296712000000,-0.083129300000,0.000000000000,0.089850600000,-0.009062990000,-0.995914000000,0.000000000000,0.566988000000,0.017448300000,0.075956900000,1.000000000000,-0.017448300000,0.566988000000,0.000000000000,0.000000000000,0.000000000000,1.000000000000,-0.256698000000,-0.013309000000,-0.567131000000,-0.051777400000,0.998659000000,0.000000000000,-0.021880100000,0.593985000000,-0.007943170000,0.664793000000,0.034467500000,0.746232000000,0.437689000000,0.020112700000,0.295183000000,0.037051000000,-0.999227000000,0.013145500000,0.002100890000,-0.061626800000,0.000750355000,0.311516000000,-0.000950156000,-0.950240000000,0.098598000000,0.004544930000,0.097215100000,0.034068300000,-0.999345000000,0.012167800000,0.000000000000,-0.000000000000,0.000000000000,0.089850600000,-0.009062990000,-0.995914000000,0.024699900000,0,0,0,1200.000000000000,40.000000000000
1782249962.954389810562,0.599999909005,hold_measured_before,0.566986921771,0.566988630263,0.566986921924,0.000001708340,-0.004196730000,0.033116700000,0.016420500000,0.028932200000,-0.010085400000,0.032126400000,0.005107820000,-0.009271260000,0.002732470000,-0.009355200000,0.000000059842,-0.000000859439,-0.000000222214,-0.000000792822,-0.000000113053,0.000000061703,0.000000003515,0.026518500000,-0.010118600000,0.033924100000,0.005103970000,-0.014144200000,0.002737480000,-0.005782380000,0.026518500000,-0.010118600000,0.033924100000,0.005103970000,-0.014144200000,0.002737480000,-0.005782380000,0.026518500000,-0.010118600000,0.033924100000,0.005103970000,-0.014144200000,0.002737480000,-0.005782380000,0.051796800000,0.728410000000,-0.019754600000,-2.096750000000,0.003141130000,2.914640000000,1.304570000000,0.000313747000,0.001273150000,-0.001482140000,0.000727668000,0.000159088000,0.000351994000,0.000319552000,0.294733000000,-0.954928000000,0.035285700000,0.000000000000,-0.951346000000,-0.296700000000,-0.083130600000,0.000000000000,0.089853000000,-0.009067580000,-0.995914000000,0.000000000000,0.566989000000,0.017442600000,0.075958100000,1.000000000000,-0.017442600000,0.566989000000,0.000000000000,0.000000000000,0.000000000000,1.000000000000,-0.256697000000,-0.013308000000,-0.567131000000,-0.051773700000,0.998659000000,0.000000000000,-0.021875200000,0.593985000000,-0.007945520000,0.664791000000,0.034464900000,0.746234000000,0.437689000000,0.020110200000,0.295184000000,0.037042700000,-0.999227000000,0.013149500000,0.002100390000,-0.061626900000,0.000750600000,0.311518000000,-0.000956427000,-0.950240000000,0.098597800000,0.004544500000,0.097215300000,0.034060000000,-0.999346000000,0.012171800000,-0.000000000000,-0.000000000000,-0.000000000000,0.089853000000,-0.009067580000,-0.995914000000,0.047154000000,0,0,0,1200.000000000000,40.000000000000
1782249962.974365234375,0.619975777001,hold_measured_before,0.566986921771,0.566987164656,0.566986921873,0.000000242783,0.007140550000,-0.035772600000,-0.002116600000,-0.045930200000,-0.000159694000,-0.040810400000,0.001457080000,0.026295100000,0.000038351100,0.025368300000,-0.000001117610,0.000000251111,-0.000000942848,-0.000001725850,-0.000000017889,-0.000000066579,0.000000002948,-0.055102500000,-0.000282452000,-0.033980300000,0.001443730000,0.007780970000,0.000057091700,0.038943000000,-0.055102500000,-0.000282452000,-0.033980300000,0.001443730000,0.007780970000,0.000057091700,0.038943000000,-0.055102500000,-0.000282452000,-0.033980300000,0.001443730000,0.007780970000,0.000057091700,0.038943000000,0.051802600000,0.728408000000,-0.019750400000,-2.096760000000,0.003140370000,2.914640000000,1.304560000000,0.001255060000,-0.000264579000,0.000249398000,-0.000597662000,0.000262644000,0.000351732000,-0.001981590000,0.294749000000,-0.954923000000,0.035283100000,0.000000000000,-0.951341000000,-0.296715000000,-0.083128400000,0.000000000000,0.089850300000,-0.009064230000,-0.995914000000,0.000000000000,0.566987000000,0.017448400000,0.075958000000,1.000000000000,-0.017448400000,0.566987000000,0.000000000000,0.000000000000,0.000000000000,1.000000000000,-0.256697000000,-0.013309500000,-0.567130000000,-0.051779400000,0.998659000000,0.000000000000,-0.021880500000,0.593985000000,-0.007943790000,0.664790000000,0.034468700000,0.746235000000,0.437689000000,0.020113300000,0.295183000000,0.037051600000,-0.999227000000,0.013146700000,0.002100970000,-0.061626800000,0.000750439000,0.311516000000,-0.000951050000,-0.950240000000,0.098598000000,0.004545200000,0.097215100000,0.034069600000,-0.999345000000,0.012169200000,-0.000000000000,-0.000000000000,-0.000000000000,0.089850300000,-0.009064230000,-0.995914000000,0.075961900000,0,0,0,1200.000000000000,40.000000000000
1782249962.995357036591,0.640968964006,hold_measured_before,0.566986921771,0.566989099872,0.566986921837,0.000002178030,-0.038561300000,-0.017344000000,-0.037005800000,-0.020756800000,0.050336200000,-0.016169000000,-0.047555100000,0.012420800000,-0.026878600000,0.011506000000,0.000002043470,-0.000003160550,0.000002119180,-0.000000614039,-0.000000188583,0.000000210321,0.000000011084,-0.024597400000,0.050281500000,-0.013304800000,-0.047560500000,0.004663410000,-0.026870500000,0.017193600000,-0.024597400000,0.050281500000,-0.013304800000,-0.047560500000,0.004663410000,-0.026870500000,0.017193600000,-0.024597400000,0.050281500000,-0.013304800000,-0.047560500000,0.004663410000,-0.026870500000,0.017193600000,0.051802600000,0.728410000000,-0.019752500000,-2.096750000000,0.003141990000,2.914640000000,1.304570000000,0.000777478000,-0.000624083000,-0.000163890000,0.001693100000,-0.000449731000,0.000084823700,-0.000339343000,0.294740000000,-0.954926000000,0.035284500000,0.000000000000,-0.951343000000,-0.296706000000,-0.083132000000,0.000000000000,0.089854000000,-0.009065310000,-0.995914000000,0.000000000000,0.566989000000,0.017447100000,0.075958500000,1.000000000000,-0.017447100000,0.566989000000,0.000000000000,0.000000000000,0.000000000000,1.000000000000,-0.256697000000,-0.013309500000,-0.567132000000,-0.051779400000,0.998659000000,0.000000000000,-0.021879500000,0.593985000000,-0.007944730000,0.664791000000,0.034468700000,0.746234000000,0.437688000000,0.020113000000,0.295185000000,0.037050100000,-0.999227000000,0.013148100000,0.002100780000,-0.061626800000,0.000750497000,0.311519000000,-0.000952768000,-0.950239000000,0.098597700000,0.004544980000,0.097215400000,0.034066500000,-0.999345000000,0.012170100000,-0.000000000000,-0.000000000000,0.000000000000,0.089854000000,-0.009065310000,-0.995914000000,0.081312200000,0,0,0,1200.000000000000,40.000000000000
1782249963.016294717789,0.661905507004,hold_measured_before,0.566986921771,0.566987008284,0.566986921814,0.000000086469,0.011110800000,-0.020694100000,-0.002388500000,-0.010120400000,0.002637220000,-0.015769100000,0.000008879720,-0.002635790000,-0.002944700000,-0.002469150000,-0.000000455300,-0.000000704168,-0.000000510187,-0.000000295634,0.000000000045,0.000000036484,0.000000000719,-0.009674360000,0.002642500000,-0.016102200000,0.000009150730,-0.001734360000,-0.002945580000,-0.003130090000,-0.009674360000,0.002642500000,-0.016102200000,0.000009150730,-0.001734360000,-0.002945580000,-0.003130090000,-0.009674360000,0.002642500000,-0.016102200000,0.000009150730,-0.001734360000,-0.002945580000,-0.003130090000,0.051798700000,0.728411000000,-0.019750400000,-2.096750000000,0.003142740000,2.914640000000,1.304570000000,-0.000037482600,-0.000499442000,0.001001180000,-0.001135760000,0.000514955000,0.001102530000,0.000450450000,0.294740000000,-0.954926000000,0.035281900000,0.000000000000,-0.951344000000,-0.296706000000,-0.083127800000,0.000000000000,0.089849200000,-0.009064120000,-0.995914000000,0.000000000000,0.566987000000,0.017446000000,0.075956900000,1.000000000000,-0.017446000000,0.566987000000,0.000000000000,0.000000000000,0.000000000000,1.000000000000,-0.256698000000,-0.013308500000,-0.567130000000,-0.051775500000,0.998659000000,0.000000000000,-0.021878100000,0.593985000000,-0.007943910000,0.664792000000,0.034466200000,0.746233000000,0.437690000000,0.020111600000,0.295182000000,0.037047700000,-0.999227000000,0.013146700000,0.002100600000,-0.061626900000,0.000750396000,0.311514000000,-0.000952348000,-0.950241000000,0.098598100000,0.004544530000,0.097215000000,0.034063500000,-0.999346000000,0.012168500000,-0.000000000000,-0.000000000000,0.000000000000,0.089849200000,-0.009064120000,-0.995914000000,0.019527900000,0,0,0,1200.000000000000,40.000000000000
1782249963.037261009216,0.682871076002,hold_measured_before,0.566986921771,0.566987675994,0.566986921799,0.000000754195,-0.005471780000,-0.020118500000,-0.002257370000,-0.018164400000,0.013650000000,-0.016780100000,-0.014254600000,0.007624190000,-0.011632600000,0.006697920000,0.000000179127,0.000000107816,0.000000117986,-0.000000678524,-0.000000043895,-0.000000024981,0.000000001864,-0.022045200000,0.013598000000,-0.013889300000,-0.014260200000,-0.000210565000,-0.011624700000,0.012442400000,-0.022045200000,0.013598000000,-0.013889300000,-0.014260200000,-0.000210565000,-0.011624700000,0.012442400000,-0.022045200000,0.013598000000,-0.013889300000,-0.014260200000,-0.000210565000,-0.011624700000,0.012442400000,0.051800100000,0.728412000000,-0.019750400000,-2.096750000000,0.003141480000,2.914640000000,1.304570000000,0.000805927000,0.000223475000,0.000035248600,0.000097820100,-0.000101523000,0.001458090000,0.000104793000,0.294743000000,-0.954925000000,0.035282800000,0.000000000000,-0.951343000000,-0.296709000000,-0.083129300000,0.000000000000,0.089850900000,-0.009064240000,-0.995914000000,0.000000000000,0.566988000000,0.017446900000,0.075956900000,1.000000000000,-0.017446900000,0.566988000000,0.000000000000,0.000000000000,0.000000000000,1.000000000000,-0.256698000000,-0.013308900000,-0.567131000000,-0.051776900000,0.998659000000,0.000000000000,-0.021879000000,0.593985000000,-0.007943880000,0.664793000000,0.034467100000,0.746232000000,0.437689000000,0.020112200000,0.295183000000,0.037049100000,-0.999227000000,0.013146700000,0.002100760000,-0.061627000000,0.000750423000,0.311515000000,-0.000951904000,-0.950241000000,0.098598000000,0.004544820000,0.097215100000,0.034066000000,-0.999345000000,0.012168900000,-0.000000000000,-0.000000000000,0.000000000000,0.089850900000,-0.009064240000,-0.995914000000,0.036839600000,0,0,0,1200.000000000000,40.000000000000
1782249963.057377815247,0.702987990000,hold_measured_before,0.566986921771,0.566985918598,0.566986921789,-0.000001003190,-0.002422860000,-0.003746380000,0.004547970000,-0.005120290000,0.005872180000,-0.004223480000,-0.007617010000,0.003101430000,-0.007635340000,0.002953200000,0.000000061911,-0.000000010756,-0.000000023563,-0.000000163290,-0.000000004255,-0.000000000529,0.000000000766,-0.009725880000,0.005810390000,-0.000793097000,-0.007623020000,-0.006196170000,-0.007625890000,0.009770280000,-0.009725880000,0.005810390000,-0.000793097000,-0.007623020000,-0.006196170000,-0.007625890000,0.009770280000,-0.009725880000,0.005810390000,-0.000793097000,-0.007623020000,-0.006196170000,-0.007625890000,0.009770280000,0.051801400000,0.728415000000,-0.019752500000,-2.096750000000,0.003142050000,2.914640000000,1.304570000000,0.000492793000,0.000402934000,-0.000242988000,0.000175560000,0.000647584000,0.001208740000,-0.000657555000,0.294743000000,-0.954925000000,0.035282400000,0.000000000000,-0.951344000000,-0.296709000000,-0.083122800000,0.000000000000,0.089844600000,-0.009065790000,-0.995915000000,0.000000000000,0.566986000000,0.017446300000,0.075954600000,1.000000000000,-0.017446300000,0.566986000000,0.000000000000,0.000000000000,0.000000000000,1.000000000000,-0.256701000000,-0.013309400000,-0.567129000000,-0.051778200000,0.998659000000,0.000000000000,-0.021878800000,0.593985000000,-0.007944740000,0.664795000000,0.034468100000,0.746231000000,0.437691000000,0.020112600000,0.295181000000,0.037048900000,-0.999227000000,0.013148100000,0.002100710000,-0.061626800000,0.000750499000,0.311511000000,-0.000953511000,-0.950242000000,0.098598600000,0.004544880000,0.097214500000,0.034065300000,-0.999346000000,0.012170200000,-0.000000000000,0.000000000000,0.000000000000,0.089844600000,-0.009065790000,-0.995915000000,0.019470400000,0,0,0,1200.000000000000,40.000000000000
1782249963.078158140182,0.723767740004,hold_measured_before,0.566986921771,0.566986890934,0.566986921783,-0.000000030849,-0.002615800000,-0.008146160000,-0.022753800000,-0.013357900000,0.022998900000,-0.012744100000,-0.017418500000,0.007926070000,-0.011884100000,0.008408320000,0.000000226162,0.000000168084,-0.000000044160,-0.000000684408,-0.000000056813,-0.000000004831,0.000000001879,-0.010445500000,0.023038200000,-0.014913200000,-0.017415500000,0.013805000000,-0.011890100000,0.004097830000,-0.010445500000,0.023038200000,-0.014913200000,-0.017415500000,0.013805000000,-0.011890100000,0.004097830000,-0.010445500000,0.023038200000,-0.014913200000,-0.017415500000,0.013805000000,-0.011890100000,0.004097830000,0.051796900000,0.728408000000,-0.019749600000,-2.096760000000,0.003139490000,2.914640000000,1.304570000000,-0.000446256000,-0.001176560000,0.000750381000,-0.000666641000,-0.000489681000,0.000666777000,-0.000511391000,0.294742000000,-0.954925000000,0.035282600000,0.000000000000,-0.951343000000,-0.296708000000,-0.083128300000,0.000000000000,0.089850000000,-0.009064380000,-0.995914000000,0.000000000000,0.566987000000,0.017445600000,0.075957800000,1.000000000000,-0.017445600000,0.566987000000,0.000000000000,0.000000000000,0.000000000000,1.000000000000,-0.256697000000,-0.013308000000,-0.567130000000,-0.051773700000,0.998659000000,0.000000000000,-0.021877500000,0.593984000000,-0.007943440000,0.664790000000,0.034464800000,0.746235000000,0.437689000000,0.020110900000,0.295183000000,0.037046500000,-0.999227000000,0.013146100000,0.002100710000,-0.061626900000,0.000750425000,0.311515000000,-0.000952190000,-0.950241000000,0.098598100000,0.004544750000,0.097215100000,0.034065300000,-0.999346000000,0.012168900000,0.000000000000,0.000000000000,-0.000000000000,0.089850000000,-0.009064380000,-0.995914000000,0.038914200000,0,0,0,1200.000000000000,40.000000000000
1782249963.098214149475,0.743824034005,hold_measured_before,0.566986921771,0.566985216901,0.566986921779,-0.000001704880,0.016616800000,0.002053320000,0.049366700000,0.004679960000,-0.049277900000,0.006966110000,0.038839700000,-0.001669490000,0.023379500000,-0.003066260000,0.000000470469,-0.000000214281,-0.000000780031,-0.000002577050,-0.000000130244,0.000000021910,0.000000006876,-0.002431560000,-0.049373500000,0.012262500000,0.038828100000,-0.016026800000,0.023394100000,0.007460590000,-0.002431560000,-0.049373500000,0.012262500000,0.038828100000,-0.016026800000,0.023394100000,0.007460590000,-0.002431560000,-0.049373500000,0.012262500000,0.038828100000,-0.016026800000,0.023394100000,0.007460590000,0.051801600000,0.728416000000,-0.019752500000,-2.096760000000,0.003140370000,2.914640000000,1.304570000000,0.001264790000,0.002283600000,-0.001232490000,0.000590397000,0.000284320000,-0.000425751000,0.000562579000,0.294741000000,-0.954926000000,0.035281900000,0.000000000000,-0.951344000000,-0.296707000000,-0.083120300000,0.000000000000,0.089842000000,-0.009066240000,-0.995915000000,0.000000000000,0.566985000000,0.017446500000,0.075953700000,1.000000000000,-0.017446500000,0.566985000000,0.000000000000,0.000000000000,0.000000000000,1.000000000000,-0.256701000000,-0.013309500000,-0.567128000000,-0.051778500000,0.998659000000,0.000000000000,-0.021879100000,0.593985000000,-0.007944680000,0.664795000000,0.034468300000,0.746230000000,0.437691000000,0.020112700000,0.295180000000,0.037049200000,-0.999227000000,0.013148100000,0.002100820000,-0.061626700000,0.000750530000,0.311509000000,-0.000953499000,-0.950243000000,0.098598800000,0.004545120000,0.097214300000,0.034067200000,-0.999345000000,0.012170700000,-0.000000000000,-0.000000000000,0.000000000000,0.089842000000,-0.009066240000,-0.995915000000,0.070437600000,0,0,0,1200.000000000000,40.000000000000
1782249963.118336677551,0.763946810002,hold_measured_before,0.566986921771,0.566989628078,0.566986921776,0.000002706300,-0.050102700000,0.015473000000,-0.078207200000,0.013981300000,0.090325700000,0.015977700000,-0.077997600000,-0.004947640000,-0.045777700000,-0.004527050000,-0.000000147465,-0.000004574570,0.000000172049,-0.000004753530,-0.000000192542,0.000000349907,0.000000024383,0.010327000000,0.090272100000,0.018699600000,-0.078007000000,-0.012324700000,-0.045769900000,0.000881759000,0.010327000000,0.090272100000,0.018699600000,-0.078007000000,-0.012324700000,-0.045769900000,0.000881759000,0.010327000000,0.090272100000,0.018699600000,-0.078007000000,-0.012324700000,-0.045769900000,0.000881759000,0.051800600000,0.728407000000,-0.019752500000,-2.096750000000,0.003141130000,2.914640000000,1.304570000000,0.000165148000,-0.002662030000,-0.000794334000,0.000960939000,0.000884197000,0.000518310000,-0.000701160000,0.294741000000,-0.954925000000,0.035285400000,0.000000000000,-0.951343000000,-0.296708000000,-0.083133800000,0.000000000000,0.089856000000,-0.009065530000,-0.995914000000,0.000000000000,0.566990000000,0.017446100000,0.075959900000,1.000000000000,-0.017446100000,0.566990000000,0.000000000000,0.000000000000,0.000000000000,1.000000000000,-0.256695000000,-0.013308900000,-0.567132000000,-0.051777400000,0.998659000000,0.000000000000,-0.021878400000,0.593985000000,-0.007944650000,0.664789000000,0.034467300000,0.746235000000,0.437687000000,0.020112100000,0.295186000000,0.037048000000,-0.999227000000,0.013148000000,0.002100710000,-0.061626800000,0.000750508000,0.311522000000,-0.000953230000,-0.950239000000,0.098597500000,0.004544870000,0.097215600000,0.034065300000,-0.999346000000,0.012170300000,-0.000000000000,-0.000000000000,0.000000000000,0.089856000000,-0.009065530000,-0.995914000000,0.130146000000,0,0,0,1200.000000000000,40.000000000000
1782249963.139211177826,0.784821027002,hold_measured_before,0.566986921771,0.566986321534,0.566986921774,-0.000000600240,0.007290010000,-0.059731700000,-0.006143550000,-0.059225700000,0.000847682000,-0.058483800000,0.001494100000,0.025795000000,0.001211020000,0.024604600000,-0.000001063980,-0.000000414709,-0.000000850044,-0.000003594440,-0.000000136960,-0.000000043951,0.000000011713,-0.062849600000,0.000798680000,-0.055786200000,0.001485910000,0.018481300000,0.001218410000,0.029967000000,-0.062849600000,0.000798680000,-0.055786200000,0.001485910000,0.018481300000,0.001218410000,0.029967000000,-0.062849600000,0.000798680000,-0.055786200000,0.001485910000,0.018481300000,0.001218410000,0.029967000000,0.051798800000,0.728408000000,-0.019748600000,-2.096760000000,0.003140650000,2.914640000000,1.304570000000,0.000971291000,-0.000557195000,0.001488360000,-0.000542688000,-0.000639581000,-0.000191596000,-0.000459343000,0.294745000000,-0.954925000000,0.035281200000,0.000000000000,-0.951343000000,-0.296710000000,-0.083127100000,0.000000000000,0.089848400000,-0.009063280000,-0.995914000000,0.000000000000,0.566986000000,0.017447200000,0.075957400000,1.000000000000,-0.017447200000,0.566986000000,0.000000000000,0.000000000000,0.000000000000,1.000000000000,-0.256698000000,-0.013308500000,-0.567129000000,-0.051775600000,0.998659000000,0.000000000000,-0.021879000000,0.593984000000,-0.007943090000,0.664790000000,0.034466100000,0.746235000000,0.437690000000,0.020111900000,0.295182000000,0.037049100000,-0.999227000000,0.013145500000,0.002100810000,-0.061626800000,0.000750361000,0.311514000000,-0.000950765000,-0.950241000000,0.098598200000,0.004544810000,0.097214900000,0.034066900000,-0.999345000000,0.012167900000,-0.000000000000,-0.000000000000,0.000000000000,0.089848400000,-0.009063280000,-0.995914000000,0.091137700000,0,0,0,1200.000000000000,40.000000000000
1782249963.159286499023,0.804896469002,hold_measured_before,0.566986921771,0.566987004320,0.566986921773,0.000000082546,0.005808630000,0.049205400000,-0.001094600000,0.030148800000,-0.006488850000,0.040145600000,0.007996930000,-0.000833321000,0.005433960000,-0.001029050000,0.000000090691,-0.000003056240,0.000000214876,-0.000000344940,-0.000000002375,0.000000176727,0.000000004433,0.028756800000,-0.006510580000,0.041182700000,0.007994820000,-0.003643440000,0.005436990000,0.001031360000,0.028756800000,-0.006510580000,0.041182700000,0.007994820000,-0.003643440000,0.005436990000,0.001031360000,0.028756800000,-0.006510580000,0.041182700000,0.007994820000,-0.003643440000,0.005436990000,0.001031360000,0.051798900000,0.728411000000,-0.019756700000,-2.096750000000,0.003139610000,2.914640000000,1.304570000000,0.000227821000,-0.000365257000,-0.002170700000,-0.000554059000,-0.000889629000,-0.000411669000,-0.000269458000,0.294737000000,-0.954927000000,0.035286500000,0.000000000000,-0.951345000000,-0.296703000000,-0.083125600000,0.000000000000,0.089848400000,-0.009069450000,-0.995914000000,0.000000000000,0.566987000000,0.017442600000,0.075956700000,1.000000000000,-0.017442600000,0.566987000000,0.000000000000,0.000000000000,0.000000000000,1.000000000000,-0.256699000000,-0.013308600000,-0.567130000000,-0.051775700000,0.998659000000,0.000000000000,-0.021875500000,0.593985000000,-0.007946280000,0.664792000000,0.034466300000,0.746233000000,0.437690000000,0.020110900000,0.295182000000,0.037043200000,-0.999227000000,0.013150900000,0.002100500000,-0.061626800000,0.000750715000,0.311514000000,-0.000957754000,-0.950241000000,0.098598200000,0.004544880000,0.097214900000,0.034061900000,-0.999346000000,0.012173700000,-0.000000000000,0.000000000000,0.000000000000,0.089848400000,-0.009069450000,-0.995914000000,0.051702700000,0,0,0,1200.000000000000,40.000000000000
1782249963.179352760315,0.824963013001,hold_measured_before,0.566986921771,0.566989798021,0.566986921772,0.000002876250,-0.033722400000,0.009042860000,-0.014297000000,0.012580600000,0.028323500000,0.012112000000,-0.030401900000,-0.007003730000,-0.016287100000,-0.006894350000,-0.000000090779,-0.000001180280,-0.000000116836,-0.000000278466,-0.000000029476,0.000000083847,0.000000002631,0.012337200000,0.028319000000,0.012293000000,-0.030402400000,-0.007494810000,-0.016286500000,-0.006534310000,0.012337200000,0.028319000000,0.012293000000,-0.030402400000,-0.007494810000,-0.016286500000,-0.006534310000,0.012337200000,0.028319000000,0.012293000000,-0.030402400000,-0.007494810000,-0.016286500000,-0.006534310000,0.051798500000,0.728408000000,-0.019753200000,-2.096750000000,0.003141990000,2.914640000000,1.304570000000,0.000023614300,0.000649891000,-0.000331184000,0.002096650000,0.000235849000,-0.000014317200,0.000434443000,0.294736000000,-0.954927000000,0.035285400000,0.000000000000,-0.951345000000,-0.296702000000,-0.083133700000,0.000000000000,0.089855900000,-0.009066040000,-0.995914000000,0.000000000000,0.566990000000,0.017444400000,0.075960000000,1.000000000000,-0.017444400000,0.566990000000,0.000000000000,0.000000000000,0.000000000000,1.000000000000,-0.256695000000,-0.013308300000,-0.567133000000,-0.051775300000,0.998659000000,0.000000000000,-0.021876700000,0.593985000000,-0.007944960000,0.664789000000,0.034465900000,0.746235000000,0.437687000000,0.020111100000,0.295186000000,0.037045400000,-0.999227000000,0.013148500000,0.002100490000,-0.061626700000,0.000750519000,0.311522000000,-0.000954494000,-0.950238000000,0.098597500000,0.004544550000,0.097215600000,0.034061800000,-0.999346000000,0.012170500000,0.000000000000,-0.000000000000,0.000000000000,0.089855900000,-0.009066040000,-0.995914000000,0.048925700000,0,0,0,1200.000000000000,40.000000000000
1782249963.200233936310,0.845844235002,hold_measured_before,0.566986921771,0.566987580566,0.566986921772,0.000000658794,-0.012317000000,0.044078500000,-0.004389220000,0.037365000000,0.011486100000,0.039355500000,-0.012144800000,-0.012634500000,-0.007814090000,-0.011687400000,-0.000001559010,0.000000599160,-0.000001363140,-0.000003261110,-0.000000057256,-0.000000152692,0.000000005871,0.052470400000,0.011689300000,0.028102000000,-0.012128900000,0.017862200000,-0.007845220000,-0.034047900000,0.052470400000,0.011689300000,0.028102000000,-0.012128900000,0.017862200000,-0.007845220000,-0.034047900000,0.052470400000,0.011689300000,0.028102000000,-0.012128900000,0.017862200000,-0.007845220000,-0.034047900000,0.051797100000,0.728412000000,-0.019752900000,-2.096750000000,0.003140970000,2.914630000000,1.304570000000,-0.001859290000,0.000190642000,-0.000200049000,0.000604695000,-0.002281330000,0.000409864000,0.001688360000,0.294734000000,-0.954928000000,0.035283000000,0.000000000000,-0.951346000000,-0.296700000000,-0.083124900000,0.000000000000,0.089846700000,-0.009066590000,-0.995914000000,0.000000000000,0.566988000000,0.017443700000,0.075956400000,1.000000000000,-0.017443700000,0.566988000000,0.000000000000,0.000000000000,0.000000000000,1.000000000000,-0.256699000000,-0.013308200000,-0.567130000000,-0.051773900000,0.998659000000,0.000000000000,-0.021876100000,0.593985000000,-0.007944840000,0.664793000000,0.034465200000,0.746232000000,0.437690000000,0.020110600000,0.295183000000,0.037044300000,-0.999227000000,0.013148400000,0.002100470000,-0.061626400000,0.000750528000,0.311516000000,-0.000954965000,-0.950240000000,0.098598400000,0.004544580000,0.097214700000,0.034061700000,-0.999346000000,0.012170700000,0.000000000000,-0.000000000000,0.000000000000,0.089846700000,-0.009066590000,-0.995914000000,0.073256200000,0,0,0,1200.000000000000,40.000000000000
1782249963.220340728760,0.865950687999,hold_measured_before,0.566986921771,0.566989386235,0.566986921771,0.000002464460,-0.018258700000,0.031452100000,-0.026840500000,0.016019200000,0.028151700000,0.020405700000,-0.024029400000,0.001144250000,-0.013023800000,0.002367350000,-0.000000572531,-0.000000529570,-0.000000691684,-0.000001540640,-0.000000002608,0.000000018071,0.000000004682,0.015924200000,0.028149900000,0.020475300000,-0.024031100000,0.000953678000,-0.013023600000,0.002507090000,0.015924200000,0.028149900000,0.020475300000,-0.024031100000,0.000953678000,-0.013023600000,0.002507090000,0.015924200000,0.028149900000,0.020475300000,-0.024031100000,0.000953678000,-0.013023600000,0.002507090000,0.051797700000,0.728408000000,-0.019749700000,-2.096750000000,0.003142950000,2.914640000000,1.304560000000,-0.000611336000,-0.000866489000,-0.000704433000,0.000328450000,0.000392092000,-0.000107011000,-0.001767170000,0.294743000000,-0.954925000000,0.035282800000,0.000000000000,-0.951343000000,-0.296709000000,-0.083132100000,0.000000000000,0.089853600000,-0.009063440000,-0.995914000000,0.000000000000,0.566989000000,0.017446000000,0.075959400000,1.000000000000,-0.017446000000,0.566989000000,0.000000000000,0.000000000000,0.000000000000,1.000000000000,-0.256696000000,-0.013308200000,-0.567132000000,-0.051774500000,0.998659000000,0.000000000000,-0.021877800000,0.593985000000,-0.007943630000,0.664790000000,0.034465400000,0.746235000000,0.437688000000,0.020111200000,0.295185000000,0.037047200000,-0.999227000000,0.013146200000,0.002100550000,-0.061626600000,0.000750356000,0.311521000000,-0.000951755000,-0.950239000000,0.098597700000,0.004544390000,0.097215400000,0.034062800000,-0.999346000000,0.012167900000,0.000000000000,0.000000000000,-0.000000000000,0.089853600000,-0.009063440000,-0.995914000000,0.047112000000,0,0,0,1200.000000000000,40.000000000000
1782249963.241323947906,0.886934113005,hold_measured_before,0.566986921771,0.566985633438,0.566986921771,-0.000001288330,0.024611800000,0.006336640000,0.026189300000,-0.019218900000,-0.037362300000,-0.013101500000,0.034427500000,0.021497200000,0.020817200000,0.022589900000,0.000000993659,-0.000001410230,0.000001095420,-0.000000230693,-0.000000099415,0.000000096425,0.000000005097,-0.017595900000,-0.037342000000,-0.014308500000,0.034429300000,0.024771500000,0.020814000000,0.020189100000,-0.017595900000,-0.037342000000,-0.014308500000,0.034429300000,0.024771500000,0.020814000000,0.020189100000,-0.017595900000,-0.037342000000,-0.014308500000,0.034429300000,0.024771500000,0.020814000000,0.020189100000,0.051798700000,0.728412000000,-0.019750400000,-2.096760000000,0.003139610000,2.914630000000,1.304570000000,-0.000726907000,0.000531167000,0.000427857000,-0.000891743000,-0.000561523000,-0.000528692000,-0.002683800000,0.294745000000,-0.954924000000,0.035281200000,0.000000000000,-0.951343000000,-0.296711000000,-0.083121000000,0.000000000000,0.089842500000,-0.009065050000,-0.995915000000,0.000000000000,0.566986000000,0.017446200000,0.075955300000,1.000000000000,-0.017446200000,0.566986000000,0.000000000000,0.000000000000,0.000000000000,1.000000000000,-0.256700000000,-0.013308600000,-0.567128000000,-0.051775600000,0.998659000000,0.000000000000,-0.021878300000,0.593984000000,-0.007943770000,0.664793000000,0.034466300000,0.746232000000,0.437691000000,0.020111700000,0.295181000000,0.037047800000,-0.999227000000,0.013146700000,0.002100770000,-0.061626400000,0.000750451000,0.311512000000,-0.000952417000,-0.950242000000,0.098598800000,0.004544940000,0.097214300000,0.034066600000,-0.999345000000,0.012169500000,0.000000000000,0.000000000000,0.000000000000,0.089842500000,-0.009065050000,-0.995915000000,0.067443300000,0,0,0,1200.000000000000,40.000000000000
1782249963.261332511902,0.906942551999,hold_measured_before,0.566986921771,0.566987930283,0.566986921771,0.000001008510,-0.020844300000,-0.005590440000,0.009707200000,0.002640810000,0.006621340000,0.000505843000,-0.012985300000,-0.005270600000,-0.007754140000,-0.005599180000,0.000000552661,0.000001292820,0.000000432215,-0.000001460360,-0.000000081187,-0.000000086948,0.000000003708,0.002267900000,0.006617620000,0.000784440000,-0.012987200000,-0.006024600000,-0.007753460000,-0.005046390000,0.002267900000,0.006617620000,0.000784440000,-0.012987200000,-0.006024600000,-0.007753460000,-0.005046390000,0.002267900000,0.006617620000,0.000784440000,-0.012987200000,-0.006024600000,-0.007753460000,-0.005046390000,0.051800400000,0.728414000000,-0.019750700000,-2.096750000000,0.003141130000,2.914640000000,1.304580000000,0.000163423000,0.001476820000,0.000037811700,0.001906470000,0.000202200000,0.000393142000,0.000708968000,0.294737000000,-0.954927000000,0.035282100000,0.000000000000,-0.951345000000,-0.296703000000,-0.083128100000,0.000000000000,0.089849600000,-0.009064530000,-0.995914000000,0.000000000000,0.566988000000,0.017447000000,0.075956300000,1.000000000000,-0.017447000000,0.566988000000,0.000000000000,0.000000000000,0.000000000000,1.000000000000,-0.256699000000,-0.013309000000,-0.567131000000,-0.051777300000,0.998659000000,0.000000000000,-0.021879100000,0.593985000000,-0.007943980000,0.664794000000,0.034467500000,0.746231000000,0.437689000000,0.020112400000,0.295183000000,0.037049400000,-0.999227000000,0.013146900000,0.002100790000,-0.061626800000,0.000750439000,0.311515000000,-0.000952000000,-0.950241000000,0.098598100000,0.004544910000,0.097215000000,0.034066600000,-0.999345000000,0.012169200000,-0.000000000000,0.000000000000,0.000000000000,0.089849600000,-0.009064530000,-0.995914000000,0.018441700000,0,0,0,1200.000000000000,40.000000000000
1782249963.282416343689,0.928026386006,hold_measured_before,0.566986921771,0.566986837709,0.566986921771,-0.000000084062,0.002129900000,-0.043595000000,-0.013747900000,-0.032939400000,0.008320690000,-0.034255800000,-0.004549320000,0.009367350000,-0.001852810000,0.007833730000,-0.000000658426,0.000000320108,-0.000000418930,-0.000002162780,-0.000000087667,-0.000000061970,0.000000006929,-0.033897000000,0.008308170000,-0.033543500000,-0.004552700000,0.007435480000,-0.001850910000,0.009250140000,-0.033897000000,0.008308170000,-0.033543500000,-0.004552700000,0.007435480000,-0.001850910000,0.009250140000,-0.033897000000,0.008308170000,-0.033543500000,-0.004552700000,0.007435480000,-0.001850910000,0.009250140000,0.051801500000,0.728408000000,-0.019747600000,-2.096760000000,0.003140010000,2.914640000000,1.304580000000,0.000793874000,-0.000826363000,0.000842184000,-0.000452076000,-0.000786153000,-0.000314908000,0.001146070000,0.294740000000,-0.954926000000,0.035280000000,0.000000000000,-0.951344000000,-0.296706000000,-0.083127500000,0.000000000000,0.089848400000,-0.009062390000,-0.995914000000,0.000000000000,0.566987000000,0.017449500000,0.075958000000,1.000000000000,-0.017449500000,0.566987000000,0.000000000000,0.000000000000,0.000000000000,1.000000000000,-0.256697000000,-0.013309200000,-0.567130000000,-0.051778400000,0.998659000000,0.000000000000,-0.021881100000,0.593984000000,-0.007942650000,0.664789000000,0.034467900000,0.746235000000,0.437689000000,0.020113200000,0.295183000000,0.037052600000,-0.999227000000,0.013144800000,0.002101050000,-0.061626500000,0.000750326000,0.311516000000,-0.000948919000,-0.950240000000,0.098598200000,0.004545160000,0.097214900000,0.034071000000,-0.999345000000,0.012167400000,0.000000000000,0.000000000000,-0.000000000000,0.089848400000,-0.009062390000,-0.995914000000,0.050082000000,0,0,0,1200.000000000000,40.000000000000
1782249963.303406238556,0.949016684004,hold_measured_before,0.566986921771,0.566988102156,0.566986921771,0.000001180390,-0.006129930000,0.025757100000,-0.005672190000,0.026424500000,0.008135200000,0.023897200000,-0.007365040000,-0.012948800000,-0.004574370000,-0.011759500000,-0.000000303084,0.000000096276,-0.000000276105,-0.000000873755,-0.000000008477,-0.000000037744,0.000000003505,0.026376500000,0.008134660000,0.023932400000,-0.007365980000,-0.013045000000,-0.004574310000,-0.011689000000,0.026376500000,0.008134660000,0.023932400000,-0.007365980000,-0.013045000000,-0.004574310000,-0.011689000000,0.026376500000,0.008134660000,0.023932400000,-0.007365980000,-0.013045000000,-0.004574310000,-0.011689000000,0.051799900000,0.728411000000,-0.019750400000,-2.096750000000,0.003141140000,2.914640000000,1.304570000000,-0.000602181000,-0.000087436400,-0.000404750000,0.000113579000,0.001265270000,0.000239966000,-0.000627787000,0.294743000000,-0.954925000000,0.035283000000,0.000000000000,-0.951343000000,-0.296709000000,-0.083129900000,0.000000000000,0.089851600000,-0.009064310000,-0.995914000000,0.000000000000,0.566988000000,0.017446800000,0.075957500000,1.000000000000,-0.017446800000,0.566988000000,0.000000000000,0.000000000000,0.000000000000,1.000000000000,-0.256698000000,-0.013308800000,-0.567131000000,-0.051776700000,0.998659000000,0.000000000000,-0.021878900000,0.593985000000,-0.007943870000,0.664792000000,0.034467000000,0.746233000000,0.437689000000,0.020112100000,0.295183000000,0.037048900000,-0.999227000000,0.013146700000,0.002100770000,-0.061626900000,0.000750428000,0.311517000000,-0.000951906000,-0.950240000000,0.098597900000,0.004544840000,0.097215200000,0.034066200000,-0.999345000000,0.012169000000,-0.000000000000,-0.000000000000,0.000000000000,0.089851600000,-0.009064310000,-0.995914000000,0.041432400000,0,0,0,1200.000000000000,40.000000000000
1782249963.324458599091,0.970068955001,hold_measured_before,0.566986921771,0.566986317724,0.566986921771,-0.000000604047,0.009374070000,0.018250200000,0.035790900000,0.020236700000,-0.026392500000,0.015266200000,0.018668700000,-0.011780200000,0.008122190000,-0.010311100000,-0.000000549095,0.000000870660,0.000000146814,-0.000002774850,-0.000000099412,-0.000000098473,0.000000010167,0.022335100000,-0.026363500000,0.013703000000,0.018668600000,-0.007543030000,0.008117790000,-0.013418000000,0.022335100000,-0.026363500000,0.013703000000,0.018668600000,-0.007543030000,0.008117790000,-0.013418000000,0.022335100000,-0.026363500000,0.013703000000,0.018668600000,-0.007543030000,0.008117790000,-0.013418000000,0.051798700000,0.728415000000,-0.019746500000,-2.096750000000,0.003141090000,2.914640000000,1.304570000000,-0.000999302000,0.001837090000,0.000246017000,0.000301802000,0.001320320000,0.001099700000,-0.000784610000,0.294744000000,-0.954925000000,0.035279100000,0.000000000000,-0.951343000000,-0.296710000000,-0.083125300000,0.000000000000,0.089846000000,-0.009061800000,-0.995914000000,0.000000000000,0.566986000000,0.017448400000,0.075954900000,1.000000000000,-0.017448400000,0.566986000000,0.000000000000,0.000000000000,0.000000000000,1.000000000000,-0.256700000000,-0.013308600000,-0.567129000000,-0.051775500000,0.998659000000,0.000000000000,-0.021879900000,0.593985000000,-0.007942330000,0.664795000000,0.034466300000,0.746231000000,0.437690000000,0.020112200000,0.295181000000,0.037050700000,-0.999227000000,0.013144100000,0.002100880000,-0.061626900000,0.000750271000,0.311512000000,-0.000949112000,-0.950242000000,0.098598400000,0.004544790000,0.097214700000,0.034068000000,-0.999345000000,0.012166500000,-0.000000000000,-0.000000000000,0.000000000000,0.089846000000,-0.009061800000,-0.995914000000,0.045089000000,0,0,0,1200.000000000000,40.000000000000
1782249963.345469713211,0.991079654006,hold_measured_before,0.566986921771,0.566985888023,0.566986921771,-0.000001033750,0.030469100000,0.000240552000,0.005607080000,-0.002354840000,-0.025594600000,-0.003791170000,0.029596500000,0.001342020000,0.018160200000,0.001915440000,0.000001234840,-0.000000415070,0.000000982656,-0.000000583572,-0.000000124142,0.000000025947,0.000000004781,-0.001465140000,-0.025583100000,-0.004451950000,0.029597000000,0.003135460000,0.018158400000,0.000600393000,-0.001465140000,-0.025583100000,-0.004451950000,0.029597000000,0.003135460000,0.018158400000,0.000600393000,-0.001465140000,-0.025583100000,-0.004451950000,0.029597000000,0.003135460000,0.018158400000,0.000600393000,0.051802200000,0.728408000000,-0.019748600000,-2.096760000000,0.003141990000,2.914630000000,1.304570000000,-0.000438274000,-0.000908604000,0.000367454000,-0.002053200000,0.000352189000,-0.000665668000,-0.000762661000,0.294746000000,-0.954924000000,0.035279800000,0.000000000000,-0.951343000000,-0.296711000000,-0.083123800000,0.000000000000,0.089844900000,-0.009062800000,-0.995915000000,0.000000000000,0.566986000000,0.017449000000,0.075957100000,1.000000000000,-0.017449000000,0.566986000000,0.000000000000,0.000000000000,0.000000000000,1.000000000000,-0.256698000000,-0.013309400000,-0.567129000000,-0.051779000000,0.998659000000,0.000000000000,-0.021880900000,0.593984000000,-0.007943150000,0.664790000000,0.034468400000,0.746235000000,0.437690000000,0.020113400000,0.295182000000,0.037052500000,-0.999227000000,0.013145500000,0.002100920000,-0.061626400000,0.000750330000,0.311514000000,-0.000949712000,-0.950241000000,0.098598500000,0.004544980000,0.097214600000,0.034069000000,-0.999345000000,0.012167500000,0.000000000000,0.000000000000,0.000000000000,0.089844900000,-0.009062800000,-0.995915000000,0.043501300000,0,0,0,1200.000000000000,40.000000000000
1782249963.365476608276,1.011087782004,hold_measured_before,0.566986921771,0.566986783295,0.566986921771,-0.000000138476,0.040709300000,-0.039330200000,0.028476400000,-0.049871000000,-0.042781800000,-0.045197200000,0.041796700000,0.028025400000,0.022996000000,0.026889800000,-0.000003347320,-0.000003843970,-0.000003162070,-0.000001676260,0.000000088833,0.000000222223,0.000000006447,-0.051753400000,-0.042810800000,-0.043800800000,0.041792600000,0.024232000000,0.023000100000,0.029671200000,-0.051753400000,-0.042810800000,-0.043800800000,0.041792600000,0.024232000000,0.023000100000,0.029671200000,-0.051753400000,-0.042810800000,-0.043800800000,0.041792600000,0.024232000000,0.023000100000,0.029671200000,0.051797700000,0.728411000000,-0.019748600000,-2.096750000000,0.003138630000,2.914640000000,1.304570000000,0.000733685000,0.000139592000,0.000875642000,-0.002224170000,-0.001353420000,0.000309884000,-0.000696024000,0.294745000000,-0.954924000000,0.035281700000,0.000000000000,-0.951343000000,-0.296710000000,-0.083126500000,0.000000000000,0.089848000000,-0.009063890000,-0.995914000000,0.000000000000,0.566987000000,0.017446700000,0.075956500000,1.000000000000,-0.017446700000,0.566987000000,0.000000000000,0.000000000000,0.000000000000,1.000000000000,-0.256699000000,-0.013308300000,-0.567130000000,-0.051774500000,0.998659000000,0.000000000000,-0.021878500000,0.593985000000,-0.007943040000,0.664792000000,0.034465500000,0.746233000000,0.437690000000,0.020111400000,0.295182000000,0.037048100000,-0.999227000000,0.013145500000,0.002100860000,-0.061626800000,0.000750402000,0.311514000000,-0.000951146000,-0.950241000000,0.098598300000,0.004544960000,0.097214900000,0.034067700000,-0.999345000000,0.012168600000,-0.000000000000,-0.000000000000,-0.000000000000,0.089848000000,-0.009063890000,-0.995914000000,0.100861000000,0,0,0,1200.000000000000,40.000000000000
1782249963.386454105377,1.032063351005,hold_measured_before,0.566986921771,0.566985167367,0.566986921771,-0.000001754400,0.036475700000,0.016538600000,0.062979500000,0.014216700000,-0.068394100000,0.014620900000,0.058004100000,-0.004765610000,0.032895100000,-0.004867720000,0.000000403110,-0.000002384090,0.000000535786,-0.000003646590,-0.000000219877,0.000000171660,0.000000016204,0.016110700000,-0.068371000000,0.013211000000,0.058002900000,-0.000943147000,0.032891400000,-0.007670530000,0.016110700000,-0.068371000000,0.013211000000,0.058002900000,-0.000943147000,0.032891400000,-0.007670530000,0.016110700000,-0.068371000000,0.013211000000,0.058002900000,-0.000943147000,0.032891400000,-0.007670530000,0.051796800000,0.728415000000,-0.019748600000,-2.096760000000,0.003138800000,2.914640000000,1.304570000000,-0.000188177000,0.002325230000,-0.000467084000,-0.000652152000,-0.000388034000,0.000105323000,0.000514110000,0.294740000000,-0.954926000000,0.035280000000,0.000000000000,-0.951345000000,-0.296705000000,-0.083121500000,0.000000000000,0.089842700000,-0.009064190000,-0.995915000000,0.000000000000,0.566985000000,0.017446100000,0.075953900000,1.000000000000,-0.017446100000,0.566985000000,0.000000000000,0.000000000000,0.000000000000,1.000000000000,-0.256701000000,-0.013308200000,-0.567128000000,-0.051773600000,0.998659000000,0.000000000000,-0.021877900000,0.593985000000,-0.007943080000,0.664795000000,0.034465100000,0.746230000000,0.437691000000,0.020111100000,0.295180000000,0.037047200000,-0.999227000000,0.013145600000,0.002100790000,-0.061626800000,0.000750403000,0.311509000000,-0.000951683000,-0.950243000000,0.098598800000,0.004544870000,0.097214300000,0.034066700000,-0.999345000000,0.012168600000,-0.000000000000,0.000000000000,-0.000000000000,0.089842700000,-0.009064190000,-0.995915000000,0.098054000000,0,0,0,1200.000000000000,40.000000000000
1782249963.407455682755,1.053065182001,hold_measured_before,0.566986921771,0.566989163775,0.566986921771,0.000002242000,-0.015662900000,-0.004636750000,-0.024854700000,-0.006386430000,0.027709900000,-0.005822910000,-0.023854900000,0.003620720000,-0.013544200000,0.003803040000,0.000000059234,-0.000000305741,0.000000103437,-0.000000472858,-0.000000027196,0.000000020392,0.000000002233,-0.008861380000,0.027676400000,-0.003979330000,-0.023858500000,-0.001375670000,-0.013539100000,0.007466430000,-0.008861380000,0.027676400000,-0.003979330000,-0.023858500000,-0.001375670000,-0.013539100000,0.007466430000,-0.008861380000,0.027676400000,-0.003979330000,-0.023858500000,-0.001375670000,-0.013539100000,0.007466430000,0.051799200000,0.728409000000,-0.019748600000,-2.096750000000,0.003141130000,2.914640000000,1.304570000000,0.000125621000,-0.000817764000,0.000046127400,0.000238317000,0.000511895000,0.000123872000,-0.000818642000,0.294742000000,-0.954925000000,0.035282400000,0.000000000000,-0.951343000000,-0.296708000000,-0.083132900000,0.000000000000,0.089854300000,-0.009062920000,-0.995914000000,0.000000000000,0.566989000000,0.017447500000,0.075959000000,1.000000000000,-0.017447500000,0.566989000000,0.000000000000,0.000000000000,0.000000000000,1.000000000000,-0.256696000000,-0.013308600000,-0.567132000000,-0.051776000000,0.998659000000,0.000000000000,-0.021879200000,0.593985000000,-0.007943130000,0.664790000000,0.034466400000,0.746234000000,0.437688000000,0.020112000000,0.295185000000,0.037049500000,-0.999227000000,0.013145500000,0.002100800000,-0.061626800000,0.000750351000,0.311520000000,-0.000950419000,-0.950239000000,0.098597600000,0.004544770000,0.097215500000,0.034066800000,-0.999345000000,0.012167800000,0.000000000000,0.000000000000,0.000000000000,0.089854300000,-0.009062920000,-0.995914000000,0.040871900000,0,0,0,1200.000000000000,40.000000000000
