WindOilSpirit/serl/Code/spacemouse_franka_teleop_test/debug_output/official_gravity_compensation_joint_states.csv
time_unix_s,q_1,dq_1,effort_1,q_2,dq_2,effort_2,q_3,dq_3,effort_3,q_4,dq_4,effort_4,q_5,dq_5,effort_5,q_6,dq_6,effort_6,q_7,dq_7,effort_7
1782262811.51077,0.05180163911899288,-0.0005963934620966808,-0.058661580085754395,0.7288876708730089,2.2081514987278917e-05,-38.61045455932617,-0.019763105650365518,-0.001036423172307531,0.3041822910308838,-2.0963352908726867,-0.0008353632572780016,12.422196388244629,0.0031419927693710627,-0.0003866614635853865,0.54972904920578,2.9146283682943293,-0.0008176233381327177,1.6816508769989014,1.3045655982748592,-0.00158982720171794,0.07132761925458908
1782262811.5112233,0.05180535014625099,0.0010622252446139788,-0.1102362871170044,0.7288859063747545,0.00022230952954269286,-38.58665084838867,-0.01975930459141018,0.0002068747544399942,0.2526075839996338,-2.0963371424889643,-0.0013478213352729452,12.446000099182129,0.0031419917965164502,-0.0005053648778418694,0.54972904920578,2.9146267047540637,-0.001205902607083198,1.6953837871551514,1.3045687251944407,-0.00039530208773124685,0.04477732628583908
1782262811.5121942,0.05180163994123331,-0.0008007285154221058,-0.058661580085754395,0.7288897075690383,0.0011526262070498438,-38.61045455932617,-0.01975927393143255,-0.0006627494865746973,0.2803785800933838,-2.09633331653482,3.4630113976920592e-06,12.422196388244629,0.0031411256229881704,-0.0012169511907156932,0.55705326795578,2.91462831486375,4.446528298292259e-05,1.6816508769989014,1.3045711023518847,0.00024901754685748034,0.02463572472333908
1782262811.513224,0.05180363792314139,0.0003867704346144492,-0.0864325761795044,0.7288920081811986,0.0019363440185659103,-38.66202926635742,-0.019760353107998053,-0.0006647338744179164,0.3041822910308838,-2.0963347017274288,-0.0004548368870730682,12.422196388244629,0.0031443213483080064,-0.0005247680395800967,0.55705326795578,2.9146324058893978,0.0012720620692870863,1.6752421855926514,1.3045711010425596,0.0004219060444638623,0.02463572472333908
1782262811.5142293,0.051805350443171146,0.0009421706138313493,-0.1102362871170044,0.728891931781985,0.0014524978824327407,-38.63822555541992,-0.019758335968302333,0.0006380684291145691,0.2803785800933838,-2.096329234757968,0.0006911455398947019,12.370621681213379,0.0031430566059099012,0.0002232455099166113,0.54972904920578,2.9146311359398314,0.0011872113758549432,1.6953837871551514,1.3045687195206985,-0.0009372619692747486,0.04477732628583908
1782262811.5151975,0.051805350450784486,0.0007526502415310871,-0.1102362871170044,0.728892477147977,0.001747234961475679,-38.63822555541992,-0.01975825780470815,0.0009555563013669539,0.2803785800933838,-2.0963286999034736,0.0001556863151809478,12.370621681213379,0.003142346408696063,0.00046788264970077894,0.54972904920578,2.914631506318449,0.001993183214522014,1.6953837871551514,1.3045687193752178,-0.0010761118331200485,0.04477732628583908
1782262811.5161235,0.05180164004274447,-0.0006387538014935994,-0.058661580085754395,0.7288885549924711,0.00040459483459495595,-38.61045455932617,-0.019760362616227475,0.0005049648339945391,0.2803785800933838,-2.0963323840246204,-0.00117167938673292,12.422196388244629,0.0031380479936332483,-0.0007183948993361047,0.55705326795578,2.914629915385212,0.0025987686908269343,1.6816508769989014,1.3045664464724605,-0.0017741283587248086,0.06400340050458908
1782262811.5171268,0.05180535045416819,0.0008530647198731654,-0.1102362871170044,0.7288899114918197,0.000731535875460988,-38.63822555541992,-0.019762795759995056,-0.0006175620310608179,0.3319532871246338,-2.0963323245963434,-0.0008606823872145352,12.422196388244629,0.003141723105772965,-0.00011293057108769229,0.54332035779953,2.9146329393965518,0.0013406158572424678,1.6752421855926514,1.3045679616924717,-0.00129548522314833,0.05118601769208908
1782262811.5181658,0.051803637957260416,-7.60335404642668e-05,-0.0864325761795044,0.728887699773752,-0.00015617841598853863,-38.61045455932617,-0.019760587799330268,0.0005500299932220374,0.2803785800933838,-2.096332304786918,-0.0002672652598725101,12.422196388244629,0.0031407835200443473,-0.0006515313840170988,0.55705326795578,2.9146329372428808,0.0009528236770225865,1.6816508769989014,1.3045711406014717,-0.0006718153814348086,0.05118601769208908
1782262811.5191987,0.05179992754677662,-0.0013238441644563442,-0.034857869148254395,0.7288859160083355,-0.0006392685381902425,-38.58665084838867,-0.019759008415050794,0.00024749510205685215,0.2803785800933838,-2.096332284721063,0.00023759208252304933,12.394425392150879,0.0031402538624906223,-0.0012078693357428904,0.56346195936203,2.9146339466824416,0.0004669885933674585,1.6752421855926514,1.3045666402379976,-0.0016238981934181798,0.07132761925458908
1782262811.5201488,0.05179992754680795,-0.0009232975033351693,-0.034857869148254395,0.72888589225226,-0.00039554000847968017,-38.58665084838867,-0.019758481953624302,3.3684254955299465e-05,0.2803785800933838,-2.0963329712847996,-0.00014364347100790775,12.394425392150879,0.0031403298493353753,-0.0013590166609172415,0.56346195936203,2.914634030622932,-0.0001696973613817633,1.6752421855926514,1.3045659338119795,-0.0014797543056798033,0.07132761925458908
1782262811.5212207,0.05180363795739618,0.0003225056534325576,-0.0864325761795044,0.7288892012105537,0.0006016443104394312,-38.66202926635742,-0.019760089115395302,-0.0007729192671155963,0.3041822910308838,-2.096334996251005,-0.0012065020557955838,12.446000099182129,0.003140355178283626,-0.000995536564038401,0.56346195936203,2.9146325433669196,-0.0005888026440062891,1.6880595684051514,1.3045688370401474,0.0006819665340242679,0.04477732628583908
1782262811.5222087,0.051805350454589415,0.0010630456848928008,-0.1102362871170044,0.7288868921809334,-0.0012667767032567257,-38.61045455932617,-0.01976216148573197,-0.0010974957231998103,0.3041822910308838,-2.096328738716189,0.0015234860260752272,12.370621681213379,0.0031427447066857523,-1.792522570919896e-05,0.54332035779953,2.914634067929817,0.0004961758921440051,1.6752421855926514,1.3045727631011181,0.001666161301061855,0.01090281456708908
1782262811.523234,0.051799927546823034,-0.001335925239431088,-0.034857869148254395,0.7288873593079191,-0.0012476743483170447,-38.61045455932617,-0.019758938760880307,-0.0005352984799438625,0.2803785800933838,-2.096328534556214,0.0011506396789294567,12.370621681213379,0.0031419899029253525,-0.00026051017054688243,0.54972904920578,2.9146307331786168,0.0002580590088489402,1.6752421855926514,1.30457111346986,0.00019254691868296654,0.02463572472333908
1782262811.5242462,0.05180535045459096,0.0013468195246833527,-0.1102362871170044,0.7288858025197246,-0.001332776077756516,-38.58665084838867,-0.019758458735567475,4.865329648487599e-06,0.2803785800933838,-2.0963323289088676,-8.224824862185373e-05,12.422196388244629,0.0031403673737031546,-0.0006304319441275853,0.56346195936203,2.9146322018369024,0.0004123957873601035,1.6816508769989014,1.3045711047485513,-0.0001345461066899689,0.02463572472333908
1782262811.525165,0.051805350454591094,0.0013689911779436975,-0.1102362871170044,0.728885854422723,-0.0007835471077255866,-38.58665084838867,-0.019758298727129864,0.0004208820198558025,0.2803785800933838,-2.0963323062244257,0.0004094326033626108,12.422196388244629,0.0031403676864062194,-0.00031630856179935406,0.56346195936203,2.914632943929027,0.000806403983671693,1.6816508769989014,1.3045711018414483,-0.0003618317275690635,0.02463572472333908
1782262811.526162,0.05180577130697898,0.0006473066396168149,-0.0864325761795044,0.7288875842209124,6.204072159033476e-05,-38.61045455932617,-0.019762158905947878,-0.0013358843481147764,0.3041822910308838,-2.09633021890588,0.0013152247401183722,12.394425392150879,0.00314274887605995,0.0006452617426161298,0.54332035779953,2.914629095814873,0.00048024642691939717,1.6880595684051514,1.3045672045508185,-0.0018939016728379034,0.05759470909833908
1782262811.5272021,0.05180277201292706,-0.00029188554983862925,-0.034857869148254395,0.7288841649935327,-0.0013854556364717749,-38.56284713745117,-0.01976285141591616,-0.001375767444770577,0.3041822910308838,-2.0963302163853865,0.0011743721278750438,12.394425392150879,0.0031403678253853593,1.501359755761995e-05,0.56346195936203,2.914628065649518,-0.0005184628114277357,1.6880595684051514,1.3045664466097193,-0.0018237524052199413,0.06400340050458908
1782262811.528195,0.051804721548958765,0.0008728502576038611,-0.058661580085754395,0.7288837733822736,-0.0009379457334073455,-38.58665084838867,-0.01976129960365909,-0.0006071574888913316,0.2803785800933838,-2.096332295302287,0.0004732985536858949,12.422196388244629,0.0031387443696355615,-0.00035155526469084105,0.57719486951828,2.914628479879154,-0.00016009385523925625,1.6816508769989014,1.3045672041201368,-0.0010903245966156672,0.05759470909833908
1782262811.5291896,0.05180466512571654,0.0013320171274366238,-0.0864325761795044,0.7288851780435727,-0.0005726358918875589,-38.58665084838867,-0.01975929679214576,-0.00014807871635276796,0.2526075839996338,-2.096330215265167,0.00047621562686205764,12.394425392150879,0.0031443212923302623,0.0012622212844283207,0.55705326795578,2.914629123034425,-0.0006631441454488822,1.6752421855926514,1.3045718982348107,0.0004615500498708195,0.04477732628583908
1782262811.5301898,0.051803980346839786,0.0009465841217702394,-0.0864325761795044,0.7288856462640058,-0.00030072788701111124,-38.58665084838867,-0.019759322440663103,-0.0005441884381317739,0.2526075839996338,-2.0963302151718155,-0.00028753958485909986,12.394425392150879,0.0031453865714220373,0.0015905161368774871,0.55705326795578,2.914629084880153,-0.0013108894847877622,1.6752421855926514,1.3045729578609766,0.0010669663650665928,0.04477732628583908
1782262811.5311215,0.051801623704690346,0.00031606740241133056,-0.0864325761795044,0.7288858023374835,-0.0005875524445048312,-38.58665084838867,-0.019759279881183527,-0.0007001232028396136,0.2803785800933838,-2.0963322948977634,-0.0008668670780483552,12.422196388244629,0.0031441692983692282,0.0015252416684573221,0.54332035779953,2.914631652404081,-0.0017262627382051878,1.6816508769989014,1.3045717556226422,0.0014646131042008758,0.03104441612958908
1782262811.5321817,0.051802966539831054,-4.7067285278552844e-05,-0.0864325761795044,0.7288895647725537,0.0009523034077993048,-38.63822555541992,-0.019758572442335212,3.679765304206298e-05,0.2803785800933838,-2.0963322948873913,-0.0008385498626867214,12.422196388244629,0.003138403084161642,-0.0007677147315161659,0.55705326795578,2.914632760784753,-0.0004250100378406841,1.6816508769989014,1.3045747502532292,0.0017245811763659494,0.02463572472333908
1782262811.533147,0.05180141623815658,-0.001115482412168467,-0.058661580085754395,0.7288841592062838,-0.0013133292494635568,-38.56284713745117,-0.019758336629385774,0.0006722036387218424,0.2803785800933838,-2.0963284324779554,0.0006741294235799385,12.370621681213379,0.0031394603838630544,-0.0008843105929276986,0.56346195936203,2.914629034766782,-0.0006951784256103077,1.6880595684051514,1.3045708017734985,0.0011433069877324947,0.03745310753583908
1782262811.5342157,0.051801565442061104,-0.0009953115215068308,-0.058661580085754395,0.7288875899811625,0.0005988759753780892,-38.61045455932617,-0.01976212043104782,-0.0005115728861674607,0.3319532871246338,-2.0963263527197373,0.001428985846356712,12.342850685119629,0.003140065356459519,-0.0004936654406846154,0.56346195936203,2.914628802918242,-0.001323420371933438,1.6816508769989014,1.3045699906923134,0.0003099983639730041,0.03745310753583908
1782262811.5351987,0.051801615176695945,-0.0009211265861193477,-0.058661580085754395,0.7288875919079956,0.000768644859229438,-38.61045455932617,-0.019762094229608996,-8.005894251266734e-06,0.3319532871246338,-2.096326352719353,0.0012731482546080547,12.342850685119629,0.003140267013991674,-0.0002096056556448352,0.56346195936203,2.9146284730960326,-0.002076521473011123,1.6816508769989014,1.3045697203319184,-0.00031637496495925103,0.03745310753583908
1782262811.5361946,0.051799503372383704,-0.0011850869140156099,-0.058661580085754395,0.7288841675558937,-0.0006368048942656625,-38.56284713745117,-0.019760005738730692,0.0011007403138657116,0.3041822910308838,-2.096330215125204,-0.0004430611021300966,12.394425392150879,0.0031403342331690594,-1.8399031744248937e-05,0.56346195936203,2.9146332162515796,-0.0006633513410840259,1.6688334941864014,1.3045672491263673,-0.0012414191530050163,0.05759470909833908
1782262811.5371938,0.05180092782013681,-0.0012912268920975425,-0.058661580085754395,0.7288841677699862,-0.0004458339867545885,-38.56284713745117,-0.019758220178546546,0.001419978589897679,0.2803785800933838,-2.0963284324762483,0.0003430300076117381,12.370621681213379,0.003141114257649504,0.00020385701278685556,0.55705326795578,2.914628681510332,-0.0016781507460480354,1.6880595684051514,1.304565595618992,-0.0013509907946556456,0.07132761925458908
1782262811.5381904,0.051797977641675014,-0.0017590107417522836,-0.011054158210754395,0.7288858803385402,0.00014568698812136312,-38.58665084838867,-0.019760350074173608,0.0010042952302839836,0.2803785800933838,-2.0963322948822123,-0.0008543310073576862,12.422196388244629,0.0031387406410276156,-0.0012302369842590965,0.57719486951828,2.914627927548004,-0.002015674828892961,1.6880595684051514,1.3045703879873636,0.00030951135702130125,0.05759470909833908
1782262811.5391185,0.05180527131860487,0.0008239915006960674,-0.1102362871170044,0.7288858803623283,0.00016870658674615263,-38.58665084838867,-0.01976284268829579,0.0002044936142668913,0.3041822910308838,-2.096330215125142,0.0008561416935670878,12.394425392150879,0.0031411242160461535,-0.00022668948542074697,0.55705326795578,2.914628433845316,-0.0008629258936606075,1.6816508769989014,1.304573785162249,0.002461274770266763,0.01090281456708908
1782262811.5401776,0.05180532407592906,0.0001507567389149115,-0.1102362871170044,0.7288858803702576,0.00019036525994699805,-38.58665084838867,-0.019763079343365464,0.0002604328597098101,0.3041822910308838,-2.0963302151251404,0.0013549476561163594,12.394425392150879,0.003141125045912541,-0.0003524108824623939,0.55705326795578,2.914628350071724,-0.0002794549079047261,1.6816508769989014,1.3045730776242352,0.002076868923627123,0.01090281456708908
1782262811.5411222,0.05179991875393625,-0.002327327574860251,-0.034857869148254395,0.7288896989008725,0.0017130666563697134,-38.61045455932617,-0.019759244713424804,0.000736820002696812,0.2803785800933838,-2.0963304987705795,0.0011354407273331075,12.370621681213379,0.0031411253225346702,-0.0005236215190271833,0.55705326795578,2.914631660007301,-0.000890789005979392,1.6816508769989014,1.304571218310899,0.00046100563562855956,0.02463572472333908
1782262811.542121,0.051801637113050907,-0.001096478402581516,-0.058661580085754395,0.7288848698868526,0.0002198939995709361,-38.56284713745117,-0.01976069158579969,0.00036891297709142057,0.2803785800933838,-2.096330903889924,0.00037868034728209083,12.394425392150879,0.00314432124815684,0.00047411936868102045,0.55705326795578,2.914627801991721,-0.0017514469656604481,1.6953837871551514,1.304568758610145,-0.0010491856604105299,0.04477732628583908
1782262811.543134,0.05180748282718126,0.001108101036341011,-0.1102362871170044,0.7288878268746855,0.0012561833956906505,-38.61045455932617,-0.0197590430105406,0.0008021191563998851,0.2803785800933838,-2.0963325244704665,-3.405032117734415e-05,12.422196388244629,0.003141433105194787,-0.0001776756783891993,0.56346195936203,2.914631260851656,0.000621068591307877,1.6880595684051514,1.3045727369577842,0.00011926770992642325,0.01090281456708908
1782262811.54422,0.05180434874826478,1.4389169946371334e-05,-0.0864325761795044,0.7288896687858912,0.0019606610802553144,-38.63822555541992,-0.019760624351504958,0.0005120670679391784,0.2803785800933838,-2.0963323579489126,5.3718754832641016e-05,12.394425392150879,0.0031407229302367634,-0.0006367229554000634,0.56346195936203,2.914632125188553,9.129273973121032e-05,1.6880595684051514,1.304568723669996,-0.000952153982225577,0.04477732628583908
1782262811.5452332,0.05180387488768919,-0.0001562849211699122,-0.0864325761795044,0.7288896167851637,0.0017857475344167978,-38.63822555541992,-0.01976115146515974,0.0003001911974527522,0.2803785800933838,-2.096332995694083,-0.0006549479755066541,12.394425392150879,0.0031404862052507557,-0.0009861106367915677,0.56346195936203,2.914632413300852,-0.00030764625201716426,1.6880595684051514,1.3045687207583172,-0.00028449057965579394,0.04477732628583908
1782262811.5461822,0.051803716934164,0.00017645814968615317,-0.0864325761795044,0.7288858890410101,-5.6369475065460835e-05,-38.58665084838867,-0.019764841358552308,-0.0014852810913266541,0.3557569980621338,-2.0963311419814543,-0.0002798880367506938,12.394425392150879,0.003142788382341462,0.00029587458492727947,0.54332035779953,2.9146316434890416,0.00015498657451928655,1.6953837871551514,1.3045711008731768,0.0010768072447077362,0.02463572472333908
1782262811.5472167,0.051799537987077045,-0.0007673329130733974,-0.058661580085754395,0.7288841707659619,-0.00045724536178800266,-38.56284713745117,-0.019762458098124797,-0.00013509349062647616,0.3041822910308838,-2.096334670128662,-0.0015855577444433937,12.422196388244629,0.0031420044614772556,6.677504812485023e-05,0.54972904920578,2.9146332989688504,0.0014908474219420735,1.6816508769989014,1.3045687194642377,-0.0003838777061046469,0.04477732628583908
1782262811.5481493,0.051804649768945714,0.00014632533621310607,-0.1102362871170044,0.7288875938343885,0.0008440692541052914,-38.61045455932617,-0.019759037631677915,0.0010163704323255683,0.2803785800933838,-2.0963330866310237,-0.0011792727002333594,12.422196388244629,0.0031419956938851814,-0.00017428366117329963,0.54972904920578,2.914631487015745,0.0012534146670361785,1.6688334941864014,1.3045687193563977,-0.0007802128805895175,0.04477732628583908
1782262811.549181,0.05180140648213155,-0.0011123669475812388,-0.058661580085754395,0.7288895911057922,0.001170910185018344,-38.63822555541992,-0.01976062255855073,-6.6371587107869555e-06,0.2803785800933838,-2.096330479041413,1.8314816359413894e-05,12.394425392150879,0.003141126922111081,-0.00036398593504328975,0.55705326795578,2.9146322005765826,0.0011980582645891493,1.6816508769989014,1.3045718580239583,0.0005436089728267973,0.01822703331708908
1782262811.5501804,0.05180156219005276,-0.0006935152570541096,-0.058661580085754395,0.7288895908917974,0.0007064953850594096,-38.63822555541992,-0.019761150867508334,-0.0007560297392382139,0.2803785800933838,-2.096330303097231,0.0001533571966264422,12.394425392150879,0.0031411259479341837,-0.00018914470530048498,0.55705326795578,2.9146329435089204,0.001723986149142972,1.6816508769989014,1.304571858011976,0.00039414178677470293,0.01822703331708908
1782262811.551172,0.05180374744227075,-9.711535832687077e-05,-0.058661580085754395,0.7288895908204658,0.0005050276797855423,-38.63822555541992,-0.01975924721342884,-0.0005190460649153511,0.2526075839996338,-2.0963323242062355,-0.00044447695043193434,12.422196388244629,0.003140368005120568,-0.00017876471041247205,0.56346195936203,2.914633948771121,0.001394573219796663,1.6752421855926514,1.304571858007982,-0.0004859421388534336,0.01822703331708908
1782262811.5521917,0.05180063001290941,-0.000983574369516768,-0.034857869148254395,0.7288875928833006,-0.00034763777665018305,-38.61045455932617,-0.019763168320402657,-0.00212074909383286,0.3041822910308838,-2.0963302248998166,0.0006695018047057653,12.394425392150879,0.0031396102787907072,-0.0003271582543809439,0.56987065076828,2.914629935840963,0.0006091147885151746,1.6816508769989014,1.3045679616850552,-0.0016363560360232441,0.05118601769208908
1782262811.5531979,0.05180016170218554,-0.0005393052416095172,-0.034857869148254395,0.7288858803781851,-0.0009465197878964617,-38.58665084838867,-0.01975719461537184,0.0005340515588854618,0.2526075839996338,-2.0963322846777177,-0.0002895466341760956,12.394425392150879,0.003141125478886048,0.0005962098215920867,0.55705326795578,2.914632188597047,0.0007500367577094209,1.6816508769989014,1.304573521684419,-0.000514871501810367,0.03104441612958908
1782262811.5542305,0.05180158762666486,0.00034797397223323403,-0.0864325761795044,0.728889590786121,0.0007997279720838502,-38.63822555541992,-0.019762484121050323,-0.0010401663674826176,0.3041822910308838,-2.0963329847330643,-0.0009131171979346122,12.422196388244629,0.0031403678487711894,0.0004561664257509057,0.56346195936203,2.9146303592737226,7.707757436059708e-05,1.6752421855926514,1.3045666402371736,-0.002221976296352025,0.07132761925458908
1782262811.5551295,0.05180082613129871,-0.00034076551454939336,-0.0864325761795044,0.7288895907852404,0.0007465783507357758,-38.63822555541992,-0.019762959820950308,-0.0008032400765679166,0.3041822910308838,-2.0963325248324916,-0.0006232852377385089,12.422196388244629,0.003140367844762231,0.0006299561274306382,0.56346195936203,2.9146294969599187,-0.000702886193445937,1.6752421855926514,1.3045659338117046,-0.0017800694249591443,0.07132761925458908
1782262811.5562177,0.05179899027145605,-0.001326810518493717,-0.034857869148254395,0.7288875928715589,-0.0006926478693292993,-38.61045455932617,-0.019760987521532915,-0.0005072400464832662,0.3041822910308838,-2.0963323715323003,-0.0005505492293074935,12.422196388244629,0.003142748928845287,0.0006424126748637048,0.54332035779953,2.9146284519038956,-0.001327884000144168,1.6816508769989014,1.304574397039863,0.0017307764682677677,0.02463572472333908
1782262811.5572526,0.051807171379046224,0.001260919455712339,-0.1102362871170044,0.728887592871461,-2.9646368644652626e-05,-38.61045455932617,-0.01976632336042303,-0.001696788953716816,0.3557569980621338,-2.0963302406751714,0.00047580925360182373,12.394425392150879,0.003141125461068455,-0.00026706549669849004,0.55705326795578,2.9146309363332703,-0.0011741025109134927,1.6880595684051514,1.3045721992718857,0.0008026166780162337,0.02463572472333908
1782262811.5582163,0.051804244932219766,0.0003063271095213435,-0.0864325761795044,0.7288875928714283,3.439326352136176e-05,-38.61045455932617,-0.019761169449835206,0.0006455824774574736,0.2803785800933838,-2.0963323033988823,-0.00022998190892623731,12.422196388244629,0.003142748928251367,0.00036079957159946446,0.54332035779953,2.9146301943918265,-0.0010902039344211664,1.6752421855926514,1.3045675703609645,-0.0010367845196351884,0.05759470909833908
1782262811.559196,0.051800129871763065,-0.0007247683132175914,-0.034857869148254395,0.7288841678770379,-0.0009594621617692659,-38.56284713745117,-0.01975920229855244,0.0005624681094799545,0.2803785800933838,-2.0963284353151193,0.0013096078641792492,12.370621681213379,0.0031419913101138905,1.3422442061285385e-05,0.54972904920578,2.914628684381198,-0.0018929804974385062,1.6816508769989014,1.304574401400506,0.0017892558089784086,0.02463572472333908
1782262811.5602179,0.0517999949884701,-0.00015097085631441526,-0.034857869148254395,0.7288841678770344,-0.00047250996026992323,-38.56284713745117,-0.019758546581458182,0.0005245017340660162,0.2803785800933838,-2.0963284334225243,0.0010601738115290865,12.370621681213379,0.003141991310097393,4.05874057578093e-05,0.54972904920578,2.9146284335836845,-0.0022140760049572535,1.6816508769989014,1.3045753796398214,0.002480046673687519,0.02463572472333908
1782262811.5611753,0.05180208337695003,0.0004894052414038809,-0.034857869148254395,0.7288895907848006,0.0016965322503774537,-38.63822555541992,-0.019760110658006598,0.0005215031282260224,0.3041822910308838,-2.096330215440572,-6.655874092650963e-05,12.394425392150879,0.0031371720093457084,-0.001948882509601707,0.56346195936203,2.9146275923664255,-0.0018052851125199072,1.6880595684051514,1.3045710115690292,0.0016949003652416436,0.03745310753583908
1782262811.5621738,0.051804492003633094,0.0013948652223608226,-0.058661580085754395,0.7288895907848003,0.0014753673549596953,-38.63822555541992,-0.019760386017689237,0.0011555311343281773,0.2803785800933838,-2.096332294987349,-0.0005777833920490446,12.422196388244629,0.0031385449468657543,-0.0019647824765033663,0.56987065076828,2.914632417596319,-0.0010423925239356794,1.6752421855926514,1.3045732395385452,0.0013710763535535891,0.03745310753583908
1782262811.5632064,0.051804588610607986,0.0014604000034436333,-0.0864325761795044,0.7288841678770326,-0.0005520578429122997,-38.56284713745117,-0.019761072020554504,0.0006066018580613322,0.2803785800933838,-2.0963302151601875,0.0005953838235250045,12.394425392150879,0.0031400127501564137,-0.001126646531058423,0.56346195936203,2.9146327633094695,-0.0008455774047637886,1.6816508769989014,1.3045731163458072,0.001979056961391095,0.04477732628583908
1782262811.5642235,0.051801956928415556,0.00017398331175537407,-0.058661580085754395,0.7288875928714121,0.001368613743290835,-38.61045455932617,-0.019760952471038703,-9.995065052749002e-05,0.3041822910308838,-2.0963284324879092,0.0013656256660199767,12.370621681213379,0.003141007096645289,-0.0008727747586682117,0.55705326795578,2.914629793226442,-0.0009870148411955792,1.6816508769989014,1.3045670462800802,0.00013672829252472604,0.07132761925458908
1782262811.56522,0.05180174567214743,-4.612207721095919e-05,-0.058661580085754395,0.7288875928714121,0.0015375667193249468,-38.61045455932617,-0.019760318404895713,2.0746438833679228e-05,0.3041822910308838,-2.096328432480121,0.0013044862835230693,12.370621681213379,0.003141086006112253,-0.0009598249544559058,0.55705326795578,2.914628803198766,-0.001094283207844435,1.6816508769989014,1.3045660691593404,-0.0001215859674576059,0.07132761925458908
1782262811.5662076,0.05180167525339138,0.00021739780147339165,-0.058661580085754395,0.7288821699636445,-0.00040425534785589216,-38.53507614135742,-0.019758324400601553,0.0008492283324720029,0.2803785800933838,-2.096330498771877,5.516381340572288e-05,12.370621681213379,0.003141978158511317,-0.0004268367975848082,0.54972904920578,2.914628473189541,-0.001807442657740807,1.6816508769989014,1.3045720208594416,0.0018977749809968214,0.01822703331708908
1782262811.5672195,0.051807495540628086,0.002000441558060517,-0.1102362871170044,0.7288913032819899,0.0027305699729805078,-38.66202926635742,-0.01975830505779325,0.0017389547887794628,0.2526075839996338,-2.0963309038903564,-0.0002254868938578605,12.394425392150879,0.0031419869262298682,0.00010458182982894289,0.54972904920578,2.914628363186466,-0.001820875268374076,1.6816508769989014,1.3045711546723824,0.0005373475048681532,0.02463572472333908
1782262811.5682223,0.05180064257550259,-0.0012179180981118864,-0.034857869148254395,0.7288821699636445,-0.0012917244840367952,-38.53507614135742,-0.019762803159538767,-0.0002524825179967122,0.3319532871246338,-2.0963325244706104,-0.0006167924644547584,12.422196388244629,0.0031411239995593095,-0.00016942941376847057,0.55705326795578,2.914628326518774,-0.0017623849998072924,1.6816508769989014,1.3045703608646375,-0.0004970528042197218,0.03104441612958908
1782262811.5692222,0.05180016588971661,-0.0008414784134821841,-0.034857869148254395,0.7288875928714121,0.0008734216125782583,-38.61045455932617,-0.019762372914758002,-0.0001000183056490623,0.3041822910308838,-2.0963323714116733,-0.0002581230244148775,12.422196388244629,0.0031403673556622764,-8.810886823228288e-06,0.56346195936203,2.914627556678122,-0.001861686288760944,1.6880595684051514,1.304567210097911,-0.0017150796939420442,0.05759470909833908
1782262811.5702202,0.05180000699445461,-0.0005870509508870826,-0.034857869148254395,0.7288875928714121,0.0004901917059875438,-38.61045455932617,-0.0197629227521862,-0.0007738943633231424,0.3041822910308838,-2.096332320392028,-1.5474459893614694e-05,12.422196388244629,0.003140367680392593,0.0003816594442683886,0.56346195936203,2.9146275526039345,-0.0016627346918460322,1.6880595684051514,1.304567206076838,-0.001488093846416562,0.05759470909833908
1782262811.5711763,0.05180537693713482,0.0017622326916484135,-0.1102362871170044,0.7288875928714121,0.00010622763389098503,-38.61045455932617,-0.01976696843730746,-0.002271690309154798,0.3557569980621338,-2.096330507273853,0.0009888806584053985,12.370621681213379,0.0031411254067240154,0.0006694871161080552,0.55705326795578,2.914630889105979,-0.0011580553205376817,1.6880595684051514,1.3045679623545683,-0.0008263394323385874,0.05118601769208908
1782262811.572204,0.05180164887152792,-0.0002533645569172163,-0.058661580085754395,0.7288858803742223,-0.0005458516610937329,-38.58665084838867,-0.019765246881441875,-0.0012646480334519243,0.3319532871246338,-2.0963291240754356,0.0007549727005251832,12.370621681213379,0.0031364143732144022,-0.0012892833753147931,0.56987065076828,2.91462866341322,-0.0009572710773391167,1.6880595684051514,1.3045679619077826,-0.0009802900612457192,0.05118601769208908
1782262811.5731938,0.05180364089990626,0.0004913113714660153,-0.0864325761795044,0.7288896989021941,0.0003859017574298385,-38.61045455932617,-0.019765267245791068,-0.00045774551882220006,0.3319532871246338,-2.096328663009296,0.000502481066373392,12.370621681213379,0.0031400601770272796,-0.0006307061744258469,0.55705326795578,2.9146320169938287,-9.819374312717752e-05,1.6816508769989014,1.304568719376942,-0.0010790923483287719,0.04477732628583908
1782262811.5741234,0.051807484785003695,0.0016734327214987443,-0.1102362871170044,0.7288902927950607,0.0008330690245881609,-38.63822555541992,-0.019761063410791382,0.0005310714656215454,0.3041822910308838,-2.0963285093205832,0.0007194295826113651,12.370621681213379,0.003140770366239583,-0.00035580062431996067,0.55705326795578,2.91463030207265,7.549501940691875e-05,1.6752421855926514,1.3045695851765424,-0.0009116876433437492,0.03745310753583908
1782262811.5751526,0.05180819524763959,0.0019558595158976496,-0.1102362871170044,0.7288898247882203,0.0004557510715519914,-38.63822555541992,-0.019760355384813275,0.0005156751288444804,0.3041822910308838,-2.096328458091012,0.0008945652228032141,12.370621681213379,0.0031410070959770175,-0.00014368387280060596,0.55705326795578,2.9146294778928943,-6.221405289908713e-05,1.6752421855926514,1.3045695851599948,-0.0010934767563226173,0.03745310753583908
1782262811.5761774,0.05180671957132848,0.0010546467062233621,-0.0864325761795044,0.7288876708725521,-3.3731307800574477e-06,-38.61045455932617,-0.019764329999269987,-0.0008051940520094576,0.3319532871246338,-2.096334369714819,-0.0012266528836872874,12.422196388244629,0.0031427094732208883,0.00015199574527457327,0.54332035779953,2.91463102579024,0.0001682067987362873,1.6880595684051514,1.3045672040690595,-0.001837879691382494,0.05759470909833908
1782262811.577181,0.05180266724865572,0.0006985996557413856,-0.058661580085754395,0.72888961678518,0.0006130026290570355,-38.63822555541992,-0.019760750995284355,0.0003001731554121681,0.3041822910308838,-2.096327044330032,0.0014799431717202442,12.342850685119629,0.003141112309193655,-0.0005843559918748496,0.55705326795578,2.914629466592728,6.472451175623597e-05,1.6816508769989014,1.304567204067221,-0.000369566122231792,0.05759470909833908
1782262811.5781798,0.051801982445560814,0.0007223555057258078,-0.058661580085754395,0.7288858890410156,-0.000554127623751383,-38.58665084838867,-0.019760599463448488,0.000458333479643813,0.2803785800933838,-2.096334308068075,-0.0015708412435701173,12.446000099182129,0.0031419869262051176,0.00031593556194144725,0.54972904920578,2.9146294519389495,-0.0006590394777663572,1.6752421855926514,1.3045711003882035,0.0011722737180103956,0.02463572472333908
1782262811.5792024,0.05180217503025036,0.0001396434847216135,-0.034857869148254395,0.7288916997045132,0.0008916036510755482,-38.63822555541992,-0.019760794952003363,0.0002490074530472411,0.3041822910308838,-2.096328509321879,0.0014183486258636476,12.370621681213379,0.0031403663814630763,0.0005109142070109486,0.56346195936203,2.914629194514994,-0.0010304509732706095,1.6752421855926514,1.3045672040664038,-0.0010712260178761626,0.05759470909833908
1782262811.5802217,0.051802810057543454,0.0003066381620777475,-0.034857869148254395,0.7288923997888198,0.0006105966604494019,-38.63822555541992,-0.0197602658985506,0.0007595482215705298,0.3041822910308838,-2.096328458091444,0.0015726444066816875,12.370621681213379,0.003140367355659527,0.0012488588422853114,0.56346195936203,2.914629108707009,-0.0013014292323672817,1.6752421855926514,1.3045672040663356,-0.0013182825706249328,0.05759470909833908
1782262811.5812352,0.05180459879430802,0.0017271440702908041,-0.0864325761795044,0.7288868167088955,-0.0009285591521183344,-38.58665084838867,-0.019764300170515763,-0.000825567101277881,0.3319532871246338,-2.0963284410146326,0.001058041156685455,12.370621681213379,0.00314112529847966,0.0014248783326833935,0.55705326795578,2.9146290801043473,-0.0014158425904328815,1.6752421855926514,1.3045687193024889,-0.000569149049597968,0.04477732628583908
1782262811.5821838,0.051803958236370275,0.0017217956392071004,-0.0864325761795044,0.7288899028963578,0.0009317918299446862,-38.63822555541992,-0.019762871918417003,-0.00018884917728483313,0.3041822910308838,-2.0963263555652962,0.0017839055773439957,12.342850685119629,0.003137929573308917,0.0011378604827966437,0.55705326795578,2.914632408430234,-0.0002742741806205276,1.6752421855926514,1.3045718982168695,0.00019446802663370126,0.04477732628583908
1782262811.5831974,0.0518037447170577,0.0012077248014810908,-0.0864325761795044,0.728887696908598,-9.029628990305839e-05,-38.61045455932617,-0.01975917557177532,0.0008614539675113333,0.2803785800933838,-2.0963322958309165,-0.00017576205934834448,12.422196388244629,0.003140060165000129,0.0009818150962519563,0.55705326795578,2.914629422394001,-0.00038591232383944037,1.6816508769989014,1.3045690213225203,-0.00042674084094833066,0.05118601769208908
1782262811.5842304,0.05179996313337571,-0.0004591684203723714,-0.034857869148254395,0.7288876275504741,-6.714705838758027e-05,-38.61045455932617,-0.019760320321445642,0.00038946832768496783,0.3041822910308838,-2.0963302154413768,0.000751625890301026,12.394425392150879,0.00314001274414255,0.0006697029920361474,0.56346195936203,2.9146294372060404,0.00039402078100639153,1.6752421855926514,1.3045731172788193,0.0005407089091102702,0.03745310753583908
1782262811.585218,0.05179993940900765,-0.0003592235602966941,-0.034857869148254395,0.7288876044310995,-5.721290099222662e-05,-38.61045455932617,-0.019760107688364694,0.000699872608064816,0.3041822910308838,-2.096330215230552,0.0006578197458879739,12.394425392150879,0.0031402494765526844,0.0007100705113183671,0.56346195936203,2.914629189604024,0.0006993695548363184,1.6752421855926514,1.3045739414418085,0.0006758997688867865,0.03745310753583908
1782262811.586217,0.0518053544086525,0.001515381932608601,-0.1102362871170044,0.7288875967246412,-5.338457681979304e-05,-38.61045455932617,-0.019762167676721766,0.0006354959427392632,0.3041822910308838,-2.0963322814546297,0.0004826409337355908,12.394425392150879,0.0031403283873560625,-6.777122006641142e-05,0.56346195936203,2.914631687312038,0.0005193021762746764,1.6816508769989014,1.3045710774592976,0.0002451027917196293,0.06400340050458908
1782262811.5871167,0.05180151089289801,-0.000252146608819006,-0.0864325761795044,0.7288897001866038,0.0012356993011906087,-38.61045455932617,-0.01976107169059429,0.0010318480935501827,0.2803785800933838,-2.0963329701959887,-7.722061763288126e-05,12.394425392150879,0.003141978158288581,0.0008088163290231949,0.54972904920578,2.9146301921787194,0.0010695299883661097,1.6752421855926514,1.3045687477366628,0.0008985258181437757,0.05759470909833908
1782262811.5881953,0.05180464143309002,0.0007315488758172881,-0.1102362871170044,0.7288865828126195,0.0002384291552129889,-38.58665084838867,-0.019765162984168045,-0.0003051265019117055,0.3319532871246338,-2.096335279533507,-0.0008648565356907966,12.422196388244629,0.003138739991492838,-0.0005510751525892488,0.57719486951828,2.9146301988796717,0.0009489958117056465,1.6688334941864014,1.3045747938590722,0.0024930014000882914,0.02463572472333908
1782262811.5892022,0.05179927532098914,-0.0011337093414548922,-0.058661580085754395,0.7288878270175445,0.0005254513363333833,-38.61045455932617,-0.019765239280033122,-0.000589952876112566,0.3319532871246338,-2.096331210008907,-0.0004953794395090457,12.394425392150879,0.003141123999534561,-0.0005953110184707922,0.55705326795578,2.91462994857396,-0.00017273441742088436,1.6688334941864014,1.3045668117560287,-0.0006459406962670122,0.07132761925458908
1782262811.5901532,0.05179872342048144,-0.00117061779957703,-0.058661580085754395,0.728887670920123,0.00010548161169195765,-38.61045455932617,-0.01976526471198815,-0.0008288715650427706,0.3319532871246338,-2.096330546753062,-0.0009897949034256973,12.394425392150879,0.00314112497374201,-0.0015096385906473552,0.55705326795578,2.914629865138723,-0.0010048648750929014,1.6688334941864014,1.3045659909846563,-0.0009766293795488348,0.07132761925458908
1782262811.5911949,0.05180280118574698,-0.0006050570041750186,-0.058661580085754395,0.7288859063904592,1.745730608037374e-05,-38.58665084838867,-0.019761410783327965,0.0007909424662268399,0.2803785800933838,-2.0963303256677803,-0.0007317330286318407,12.394425392150879,0.0031403676803898432,-0.001268438561172796,0.56346195936203,2.9146309023328207,-0.0011380223260270214,1.6880595684051514,1.3045760395648451,0.002606491051518769,0.01090281456708908
1782262811.5921965,0.051800314594068156,-0.0012263364085530874,-0.034857869148254395,0.7288876015434911,0.00024988393675109044,-38.61045455932617,-0.019757551203122222,0.0018217206696116571,0.2288038730621338,-2.0963323317297515,-0.0012392100304330653,12.422196388244629,0.0031403677886351154,-0.0007045157272540253,0.56346195936203,2.914630183058343,0.0003329384044502239,1.6752421855926514,1.3045690669209284,-0.00035921398112842285,0.05118601769208908
1782262811.5931902,0.05180176905976154,-0.0005233035301517155,-0.058661580085754395,0.7288858832649153,-0.00019491418515028407,-38.58665084838867,-0.019757203927908928,0.0006461928425204926,0.2526075839996338,-2.0963323071647206,-0.0006729410109236475,12.422196388244629,0.0031403678247168727,-0.0005393635880836146,0.56346195936203,2.914632776081566,0.00013839408964426994,1.6752421855926514,1.3045707111819886,-0.0004489948819805888,0.03104441612958908
1782262811.5941157,0.051801683049262755,-0.00010442090522680521,-0.058661580085754395,0.7288954081897242,0.0025504315288364977,-38.68980026245117,-0.01976456698229471,-0.002270509148822633,0.3319532871246338,-2.0963322855136637,-0.0006168507027911104,12.394425392150879,0.0031419913040755176,-8.008939090388932e-05,0.54972904920578,2.9146303025625326,-0.0010977017584467472,1.6752421855926514,1.304569707955781,-0.0009321322729100823,0.03745310753583908
1782262811.5951908,0.05180165437909649,0.00021115905734951887,-0.058661580085754395,0.7288961095576086,0.0019182822804078617,-38.68980026245117,-0.01976504061274201,-0.002292355408059699,0.3319532871246338,-2.096332971549,-0.0013375400846659582,12.394425392150879,0.003141991308084602,-0.0003234554422522931,0.54972904920578,2.9146294780561885,-0.0020235664393564415,1.6752421855926514,1.3045696260864077,-0.001004964597009205,0.03745310753583908
1782262811.596145,0.051801644822374406,0.00013927207158613382,-0.058661580085754395,0.7288868164949659,-0.0009594755156522646,-38.58665084838867,-0.019761336083579252,-0.0007049904953822084,0.2803785800933838,-2.0963332136901585,-0.001643166254502845,12.422196388244629,0.003140367842089571,-9.299303006973965e-05,0.56346195936203,2.9146317834627595,-0.0006068261040426129,1.6816508769989014,1.304567217711197,-0.0016727984878449269,0.05759470909833908
1782262811.5971875,0.05180535204737817,0.0013392019075486646,-0.1102362871170044,0.72888790491166,-0.00013918140417911134,-38.61045455932617,-0.019763171358097673,-0.001158802997703791,0.3041822910308838,-2.0963305213944574,-0.0004191996305574549,12.394425392150879,0.0031411254606230083,0.00016606486196937094,0.55705326795578,2.914628708992784,-0.001021505846711951,1.6880595684051514,1.3045687640616568,-0.000698075037275582,0.07132761925458908
1782262811.5981853,0.05180363848833041,0.00028596054957933943,-0.0864325761795044,0.7288859843876382,-0.0007581802502336337,-38.58665084838867,-0.019759275385002207,-0.00023571810091263463,0.2803785800933838,-2.0963323969719774,-0.0010611341193067577,12.422196388244629,0.0031396102245955263,-0.000277246087805604,0.56987065076828,2.9146294519449976,-0.0011973297189993388,1.6752421855926514,1.3045697804567065,0.00042344862588246406,0.04477732628583908
1782262811.5991848,0.05180363813437774,-0.00014201288156079524,-0.0864325761795044,0.7288897335733328,0.0004257881761554834,-38.61045455932617,-0.01976456421563735,-0.0016086980373366247,0.3319532871246338,-2.096328466506151,0.0007651615333446756,12.370621681213379,0.0031403678427330043,-0.0004453636019171087,0.56346195936203,2.914628436898922,-0.001172274576914949,1.6816508769989014,1.3045738754022735,0.0012719253399490458,0.03104441612958908
1782262811.6001997,0.05180363801639352,-0.0004557589096731279,-0.0864325761795044,0.728890412469501,0.0006716079458782513,-38.61045455932617,-0.01976503969052289,-0.0012305262890413195,0.3319532871246338,-2.0963284438195346,0.0007274065555046758,12.370621681213379,0.003140367842749503,-0.000858307684886006,0.56346195936203,2.914628351089593,-0.0008735043974645473,1.6816508769989014,1.304574699228352,0.001331985690728323,0.03104441612958908
1782262811.601179,0.0518016400636774,-0.001437161689360508,-0.058661580085754395,0.7288885327374418,0.0002751285312329871,-38.61045455932617,-0.0197571251530568,0.0010484835202774117,0.2526075839996338,-2.0963302189062425,0.00020262345855950905,12.394425392150879,0.003141125460842985,-0.0005851443497422249,0.55705326795578,2.9146309027285024,-0.000605697952456796,1.6880595684051514,1.3045725525407446,0.00030978751372473805,0.02463572472333908
1782262811.6021233,0.051799511668044196,-0.0016164655695455085,-0.058661580085754395,0.7288861936628989,-0.0003550771397268669,-38.58665084838867,-0.019758547451981426,-4.020746216739279e-05,0.2803785800933838,-2.0963284337365944,0.001008250575006334,12.370621681213379,0.0031379296274300253,-0.0007812195397018484,0.55705326795578,2.914628667954061,0.00014458566443099446,1.6880595684051514,1.3045715844388461,-3.217849554647793e-05,0.02463572472333908
1782262811.6031184,0.051804640995934764,-0.000698376520356529,-0.1102362871170044,0.7288876973009709,0.0003171033994787507,-38.61045455932617,-0.01976224181423173,-0.001541768675420832,0.3041822910308838,-2.096328432896349,0.0009423911215398001,12.370621681213379,0.0031400601830404986,-0.000529094774485045,0.55705326795578,2.914628680647335,0.0001425090387298026,1.6816508769989014,1.3045705041201254,-0.0008939014911891714,0.03104441612958908
1782262811.6041195,0.05180140355779457,-0.0019207710802885587,-0.058661580085754395,0.728889625594653,0.0009504625535687197,-38.63822555541992,-0.019761096403097613,-0.0004114830764660077,0.2803785800933838,-2.09633049891062,0.0002396929936361082,12.370621681213379,0.0031423938355753817,0.000351331207836321,0.54332035779953,2.9146284323390637,-0.0008852385741397714,1.6816508769989014,1.3045703965532478,-0.0008056620165060667,0.03104441612958908
1782262811.6051357,0.05180156121527377,-0.0014706100946382875,-0.058661580085754395,0.7288896023880844,0.0007093026177642096,-38.63822555541992,-0.019761308815690628,-0.0002177266223599158,0.2803785800933838,-2.0963311875820434,-0.00027827323091563817,12.370621681213379,0.0031426305639765456,0.0004281543427162449,0.54332035779953,2.91462834956964,-0.001652695671090026,1.6816508769989014,1.304570360697622,-0.0007390993839337746,0.03104441612958908
1782262811.606227,0.05180161376776683,-0.0009732518007553835,-0.058661580085754395,0.7288858842419838,-0.0004923723960281652,-38.58665084838867,-0.019755386347859054,0.0012806914417241091,0.2288038730621338,-2.0963332132508103,-0.0015013989197583968,12.422196388244629,0.0031371325546094312,-0.0011982094440962402,0.56346195936203,2.914632417458028,-0.0004057370162184746,1.6752421855926514,1.3045695911276587,-0.0012625108680642107,0.03745310753583908
1782262811.6071997,0.05180534169584231,0.0004421586278449594,-0.1102362871170044,0.7288858816634761,-0.0003939112555486735,-38.58665084838867,-0.019756482309487868,0.0004823352494460113,0.2526075839996338,-2.0963305212480083,-0.0007660662316346346,12.394425392150879,0.0031400470314629616,-0.0005963967634526033,0.55705326795578,2.9146311397960414,-0.0013383590707478576,1.6953837871551514,1.3045687615053376,-0.002006530794460967,0.07132761925458908
1782262811.6082234,0.051801637124430415,-0.0012668291948533918,-0.058661580085754395,0.7288916972453334,0.0018036855142923506,-38.63822555541992,-0.01975833317079178,4.20708569001523e-05,0.2803785800933838,-2.0963344632175134,-0.0014484391916046186,12.422196388244629,0.0031407659843848104,-0.0003929430474586117,0.55705326795578,2.914632373453096,0.0006760222716492554,1.6880595684051514,1.3045738243682314,0.0004429104862507193,0.03745310753583908
1782262811.6092205,0.05180534948139684,-7.857828204753023e-05,-0.1102362871170044,0.7288902929383112,0.0013335365227012718,-38.63822555541992,-0.019762170387168515,-0.0011134118326222783,0.3041822910308838,-2.0963330041979282,-0.0008905839207021092,12.394425392150879,0.003144201468773553,0.00020401997938722594,0.55705326795578,2.9146316302064563,0.00027682674246907,1.6953837871551514,1.304570998223891,-0.00039961250238260176,0.03745310753583908
1782262811.610184,0.05180535013019305,-0.000541931834432819,-0.1102362871170044,0.7288898248359704,0.0010043619651594273,-38.63822555541992,-0.019762855242989708,-0.001348741707967956,0.3041822910308838,-2.0963332111104216,-0.0012443367900718894,12.394425392150879,0.0031453466302364674,0.0006499523994382913,0.55705326795578,2.9146316710739906,0.0002869763403256014,1.6953837871551514,1.3045700561757778,-0.0010222123433431402,0.03745310753583908
1782262811.6111944,0.051803637849268704,-0.000970260664719309,-0.0864325761795044,0.7288859583912791,-0.0003005774996410733,-38.58665084838867,-0.019763083528263437,-0.001379760098672661,0.3041822910308838,-2.0963332935439656,-0.0014651660429176071,12.422196388244629,0.0031425325173093125,4.3445504601479296e-05,0.55705326795578,2.9146333081638334,0.001739269422903832,1.6816508769989014,1.3045744363103038,-0.0004133964902923845,0.02463572472333908
1782262811.612221,0.05180164000796913,-0.0012536051380719361,-0.058661580085754395,0.7288838003491258,-0.000620737197034081,-38.58665084838867,-0.019757166351325434,0.0011206408788621935,0.2526075839996338,-2.0963287653634803,0.00016879958872486353,12.370621681213379,0.003140836861578944,9.003331892343247e-05,0.56346195936203,2.9146307324626517,0.0011720869770943422,1.6752421855926514,1.3045722123620325,-0.000927278788733071,0.02463572472333908
1782262811.6132283,0.05179992753480887,-0.0013073105066786386,-0.034857869148254395,0.7288872930633055,2.1900503465550815e-05,-38.58665084838867,-0.0197603438336508,-0.0003477109770967169,0.3041822910308838,-2.0963362682506013,-0.0023446459416151836,12.473771095275879,0.003137328348950023,-0.0007960472269670845,0.56346195936203,2.9146288637381397,0.000661504316621785,1.6816508769989014,1.3045707134278544,-0.0005542553345919881,0.03104441612958908
1782262811.6142223,0.05180164004000845,-0.0003206752479388925,-0.058661580085754395,0.7288900616811611,0.0010345226560004197,-38.63822555541992,-0.019760115525766415,0.00013142763747099373,0.3041822910308838,-2.096330252112612,-4.6759266096425985e-05,12.394425392150879,0.0031393546781551757,-0.00015391569782855364,0.56346195936203,2.914628493369332,0.0010401041795464578,1.6816508769989014,1.3045665700008955,-0.0020012878279326244,0.06400340050458908
1782262811.6151943,0.05180164004267839,-0.00022948284914894865,-0.058661580085754395,0.7288897477502537,0.0004419359830689884,-38.63822555541992,-0.019760039423138285,0.000473960351876594,0.3041822910308838,-2.096330227454297,-0.0005243455583834632,12.394425392150879,0.0031400301212235597,0.0003227705937387567,0.56346195936203,2.914628369913063,0.001326401988987806,1.6816508769989014,1.304566487632441,-0.001679112929272471,0.06400340050458908
1782262811.616217,0.0518073483675342,0.0016598701052624064,-0.1380072832107544,0.72888764519323,-0.0004584203565012357,-38.61045455932617,-0.01975615164961705,0.002010406957389712,0.2526075839996338,-2.096328436585946,0.00020207366353486723,12.370621681213379,0.003141012887001004,0.0004548106721056315,0.55705326795578,2.914626705293642,-0.00027881402061414933,1.6953837871551514,1.3045711141159726,0.00018797990103691176,0.02463572472333908
1782262811.6172163,0.051805350454442824,0.0007172833817993794,-0.1102362871170044,0.728889608225406,0.00034567083358149725,-38.63822555541992,-0.01975822295083484,0.0012397454043404856,0.2803785800933838,-2.096330216495046,-0.0001401789317451967,12.394425392150879,0.0031419537854742337,0.0005099108530150832,0.54972904920578,2.91462831504361,0.0006336435321215675,1.6816508769989014,1.3045687238785029,-2.3249887252611585e-05,0.04477732628583908
1782262811.618227,0.05180164004396392,-0.0005766895372750086,-0.058661580085754395,0.7288895965983354,-2.2198678851842652e-06,-38.63822555541992,-0.019758220132218986,0.0012217433613908543,0.2803785800933838,-2.0963304992272143,0.00037631435265661007,12.370621681213379,0.0031403553345527814,0.00013327651413535835,0.56346195936203,2.9146283104711554,-0.0001148384854083724,1.6816508769989014,1.3045687610387002,-0.00011126315615633906,0.07132761925458908
1782262811.6192,0.051801640043996885,-4.789464456977997e-05,-0.058661580085754395,0.7288895927226452,9.197150993582416e-05,-38.63822555541992,-0.019758219192680365,0.0017338473986152863,0.2803785800933838,-2.0963291079305093,0.0004894106876955078,12.342850685119629,0.003140363673356095,0.00012355543226840943,0.56346195936203,2.914628308947004,0.0003939146088227939,1.6816508769989014,1.304573784001805,0.0022982856773805203,0.01090281456708908
1782262811.6201696,0.05180164004400787,0.0003246352982605745,-0.058661580085754395,0.7288895914307485,0.0001719079586630223,-38.63822555541992,-0.019758218879500827,0.0021187669511913876,0.2803785800933838,-2.096329337417296,-0.00016035608129815328,12.342850685119629,0.0031403664529571994,0.00010904813975006249,0.56346195936203,2.9146283084389535,0.0007791290873464867,1.6816508769989014,1.3045730772374204,0.0014942621562994795,0.01090281456708908
1782262811.6212156,0.051803773393589124,0.0008420753177903987,-0.058661580085754395,0.7288875930867282,-0.00111898691364436,-38.61045455932617,-0.019760349641158366,0.0017857363803539359,0.2803785800933838,-2.0963350724304965,-0.002130715417133526,12.446000099182129,0.003142748464910277,0.0009711937323516297,0.54332035779953,2.9146316461297106,0.0014217463897832224,1.6816508769989014,1.304570460563873,0.0002641134707600673,0.03104441612958908
1782262811.622224,0.05180434907392666,0.0012765389377033852,-0.0864325761795044,0.7288875929431842,-0.0009131870393659498,-38.61045455932617,-0.019758929028993493,0.0018672239466101337,0.2803785800933838,-2.096330546758266,-0.0002224694026839355,12.394425392150879,0.0031411253064234515,0.00010616886869622394,0.55705326795578,2.9146335163113846,0.0019108970329479009,1.6752421855926514,1.304573560948885,0.0005535032675208185,0.03104441612958908
1782262811.623196,0.051801877082855115,0.00018296698999761178,-0.058661580085754395,0.7288895908087241,0.00010264758240812025,-38.63822555541992,-0.019758455491605202,0.0019645793989686903,0.2803785800933838,-2.096330325669515,-0.0002143283128970159,12.394425392150879,0.0031419912586150497,0.0001408419138341386,0.54972904920578,2.914632371929737,0.0013442848277614656,1.6880595684051514,1.3045690344107481,-0.0002117019610200769,0.05118601769208908
1782262811.6242256,0.051803716970348655,0.0005759780760260362,-0.0864325761795044,0.7288875928793868,-0.0007232825476887481,-38.61045455932617,-0.019758297645809105,0.002224645768727413,0.2803785800933838,-2.0963284558616384,0.000850587941500574,12.342850685119629,0.003139610207511737,-0.0008451562015951755,0.56987065076828,2.914633253166001,0.0016330117719074826,1.6816508769989014,1.3045659381744232,-0.0016697512392993268,0.07132761925458908
1782262811.6252184,0.05180366429505049,0.00013993205270432599,-0.0864325761795044,0.7288875928740703,-0.0006097603311581577,-38.61045455932617,-0.01975824503054374,0.0024198063641083837,0.2803785800933838,-2.096329120061006,0.0002525381303675672,12.342850685119629,0.0031396102189504248,-0.0007179742804535589,0.56987065076828,2.91463329437206,0.0015670999741187795,1.6816508769989014,1.304565699790788,-0.0019264039660939181,0.07132761925458908
1782262811.6262171,0.051801648823229726,-0.0007976719520809147,-0.058661580085754395,0.7288858803751084,-0.0007967201806911115,-38.58665084838867,-0.01975822749212195,0.002112569295359909,0.2803785800933838,-2.0963332173294864,-0.001665776002239845,12.422196388244629,0.0031396102227633205,-0.0008369682170725173,0.56987065076828,2.9146307278653936,0.001993560699239105,1.6752421855926514,1.3045727635858342,0.001284514423624845,0.01090281456708908
1782262811.6271923,0.05180364088380686,-0.0003203915938148659,-0.0864325761795044,0.7288895907850954,0.00112074122028432,-38.63822555541992,-0.019760352512032075,0.0008768211584691252,0.2803785800933838,-2.0963326023646323,-0.0016260564623703025,12.422196388244629,0.003139610224034286,-0.0006432839721383281,0.56987065076828,2.9146288622057206,0.0005445237988092153,1.6816508769989014,1.3045727773096445,0.0008426741499181625,0.03745310753583908
1782262811.6282198,0.05180577228244748,0.0002678022448713451,-0.0864325761795044,0.7288895907848985,0.0009967042339771924,-38.63822555541992,-0.01976284350091528,-0.000133631225766431,0.3041822910308838,-2.096330317619282,-0.0004694910804340606,12.394425392150879,0.003139610224457941,0.00013503167701285065,0.56987065076828,2.9146325883367212,0.0009888167895169468,1.6752421855926514,1.304567510500855,4.928886960670639e-05,0.06400340050458908
1782262811.6292212,0.05180434939908343,6.973985774465401e-05,-0.0864325761795044,0.7288875928714449,-0.00019090783645900642,-38.61045455932617,-0.019759166099274743,0.00028762644546858913,0.2803785800933838,-2.0963341116958323,-0.001534151038242256,12.446000099182129,0.003141991310018535,0.001015227891016959,0.54972904920578,2.91462948236283,-0.0002407765265439752,1.6816508769989014,1.3045699398359347,0.0008753135302188136,0.03745310753583908
1782262811.6302,0.05180387510462875,-7.227121844597053e-05,-0.0864325761795044,0.728887592871423,-0.00034643132602593126,-38.61045455932617,-0.019758534515032285,-5.665604598959251e-05,0.2803785800933838,-2.0963340889193565,-0.0009362809751198545,12.446000099182129,0.003141991310065608,0.0008120849513722951,0.54972904920578,2.914628699577562,-0.0008837138521017934,1.6816508769989014,1.3045697033797923,0.0003349931603426752,0.03745310753583908
1782262811.6312263,0.051803717006477186,0.00012138364576979757,-0.0864325761795044,0.7288858803742259,-0.0008316456879264896,-38.58665084838867,-0.01976010663586463,-0.00024398734266636667,0.3041822910308838,-2.096332298678284,-0.0003640661405842002,12.422196388244629,0.0031379296274230964,-0.0001348942953446356,0.55705326795578,2.9146299538853153,-0.00011345729514562243,1.6688334941864014,1.3045728034754662,0.0009400431385094298,0.03745310753583908
1782262811.632216,0.05180537680428308,0.0009020648377929235,-0.1102362871170044,0.7288858803742234,-0.0005988853681606276,-38.58665084838867,-0.01976003645983769,0.00010298863556108633,0.3041822910308838,-2.0963322961475646,0.0002404411947261719,12.422196388244629,0.0031393025649502056,-0.0002719924822224294,0.56346195936203,2.9146283516729983,-0.0008922164563958682,1.6816508769989014,1.3045675192227955,-0.0005898549482956006,0.06400340050458908
1782262811.6332295,0.051805780090209634,0.00027398010634235837,-0.0864325761795044,0.7288916968155825,0.0012973863842819127,-38.63822555541992,-0.01976209282489407,-0.0003001654579990028,0.3319532871246338,-2.0963340779529047,-9.277966396422694e-05,12.446000099182129,0.0031407703682432195,0.0002928084388530577,0.55705326795578,2.9146316605410587,-0.00035991471809124296,1.6816508769989014,1.3045683192759168,3.5630986117673585e-06,0.05118601769208908
1782262811.6342347,0.051804352001670814,0.0001373410060117782,-0.0864325761795044,0.7288902927950609,0.0005344494751548753,-38.63822555541992,-0.019758222621579218,0.001171692162395682,0.2803785800933838,-2.0963340776717136,0.0002784990231604329,12.446000099182129,0.00313949186046893,-0.00010526476160259169,0.56987065076828,2.914632763497079,0.0002697102214573236,1.6816508769989014,1.3045673232634774,2.5559271658423923e-05,0.05759470909833908
1782262811.635185,0.051803875972157874,3.0436865787009513e-05,-0.0864325761795044,0.7288898247882203,-1.2292696492350675e-05,-38.63822555541992,-0.01975822002246711,0.0008553233867281294,0.2803785800933838,-2.0963340775779833,0.0005409353970370614,12.446000099182129,0.0031395707699361556,0.000146024291106757,0.56987065076828,2.914633131149086,0.0007381725887682554,1.6816508769989014,1.3045672437986935,0.00031255768437754886,0.05759470909833908
1782262811.6362681,0.05180171938226552,-0.0006286670315950347,-0.058661580085754395,0.7288896687859401,0.00016612573132985219,-38.63822555541992,-0.019762081562074933,-0.0005902910587195164,0.3319532871246338,-2.0963361438410923,0.0006847320782881809,12.446000099182129,0.003141112309267864,0.0005865586638745658,0.55705326795578,2.9146308726143357,-0.0001538377126284301,1.7017924785614014,1.3045718712501155,0.001355873577747235,0.01822703331708908
1782262811.6372306,0.0518075102502528,0.001196872005993662,-0.1102362871170044,0.7288876188717921,-0.0007795954270315055,-38.61045455932617,-0.019758218867306172,0.001143014659387549,0.2803785800933838,-2.0963329836521964,0.0016120297193824885,12.422196388244629,0.0031396058408104783,-3.920202713614485e-05,0.56987065076828,2.914630714307959,0.0014784901452424516,1.6752421855926514,1.3045750413350832,0.0015404243613881307,0.01822703331708908
1782262811.6381452,0.05180435788928862,0.0004176540665581067,-0.0864325761795044,0.7288892059180012,-7.339567367948717e-07,-38.66202926635742,-0.019760001419955927,0.00039461813703000443,0.3041822910308838,-2.096328662066224,0.0025813181036080596,12.370621681213379,0.0031419898488027143,0.0008549236997660997,0.54972904920578,2.914631437928595,0.0012846325135254634,1.6880595684051514,1.3045658840905816,-0.0019521592901645193,0.07773631066083908
1782262811.6391916,0.05179975163878525,-0.0011853677889274122,-0.058661580085754395,0.7288906041606603,-0.00021141661317096623,-38.66202926635742,-0.019760001387868122,0.0004624165059371753,0.3041822910308838,-2.096332371412204,0.0005820696654190332,12.422196388244629,0.0031419908229936675,0.00031593488353765295,0.54972904920578,2.914631318364956,0.001351232612553708,1.6953837871551514,1.3045675577695346,-0.0011226729743896518,0.05759470909833908
1782262811.6402245,0.05179888219308014,-0.0016679227010233536,-0.058661580085754395,0.7288910702415468,-0.0003440529263019412,-38.66202926635742,-0.01976000137717219,0.0005084123236303564,0.3041822910308838,-2.0963323203922046,0.0005220480977241642,12.422196388244629,0.003141991147723985,-7.179645500549287e-05,0.54972904920578,2.914631567126824,0.0017089018504450404,1.6953837871551514,1.3045673219673792,-0.0014081734159530953,0.05759470909833908
1782262811.6411788,0.05179729576598946,-0.0022435887809106494,-0.011054158210754395,0.7288895131046523,-0.0009166258291313878,-38.63822555541992,-0.019760349590744433,0.000686307790015662,0.2803785800933838,-2.0963323033855383,0.000669671495202203,12.422196388244629,0.0031419912559674246,0.0004876504690919286,0.54972904920578,2.9146306932727586,0.0025435899783055062,1.6752421855926514,1.3045672433666606,-0.0011912601779102102,0.05759470909833908
1782262811.6422222,0.051803466965709484,0.00033274077939820433,-0.058661580085754395,0.7288875669780296,-0.0017023798504987968,-38.61045455932617,-0.019762791418167374,-0.0004800642954628952,0.3319532871246338,-2.09633822641698,-0.0014531976112685534,12.473771095275879,0.0031396102066291952,-0.00048033133655187184,0.56987065076828,2.9146321885349495,0.0018189375617530313,1.6816508769989014,1.3045711536988973,-1.1708778191449055e-05,0.05118601769208908
1782262811.6431925,0.05180224901791207,0.0008217287076379901,-0.058661580085754395,0.7288858717430947,-0.0017467353784003832,-38.58665084838867,-0.01976023813491682,0.0011828966999664302,0.3041822910308838,-2.096332971129091,0.00012411670308652776,12.394425392150879,0.003142748922163603,0.0005921494116800793,0.54332035779953,2.9146318744891997,0.0018129587762130645,1.6624248027801514,1.3045697833073135,-0.00029239157424866655,0.04477732628583908
1782262811.6442182,0.051803840948700976,0.0011797798998777812,-0.0864325761795044,0.72888416499999,-0.001942906877953779,-38.56284713745117,-0.019762211158905807,0.0008277813875124657,0.3041822910308838,-2.0963293511442105,0.001205329446962443,12.370621681213379,0.003141125458841227,-0.000576394838233683,0.55705326795578,2.9146271158675994,-0.00015199711104945963,1.6953837871551514,1.3045714550561756,0.0005709045405889843,0.02463572472333908
1782262811.6452227,0.05180370562116793,0.0007300113149522072,-0.0864325761795044,0.7288841669180184,-0.0015035286541172106,-38.56284713745117,-0.019762868833568804,0.0005635568317927609,0.3041822910308838,-2.096328738698888,0.0014024991544935345,12.370621681213379,0.0031411254601775656,-0.0008500127299970015,0.55705326795578,2.9146268284342645,-0.00019477730761774647,1.6953837871551514,1.3045712186106564,0.00036829498722583225,0.02463572472333908
1782262811.6462214,0.05180166259860221,-0.00018465348922757545,-0.058661580085754395,0.7288875925517407,0.00013247808245638861,-38.61045455932617,-0.019766950464434992,-0.0014121837180263786,0.3557569980621338,-2.096336259362404,-0.001473908588253231,12.473771095275879,0.003142748927954404,-5.778326740232429e-07,0.54332035779953,2.914628356090484,0.0009696879284131631,1.6816508769989014,1.3045704223882761,-0.0005150230050496897,0.05759470909833908
1782262811.647158,0.051801647562209646,4.109534183736489e-05,-0.058661580085754395,0.7288913031754327,0.0014938019298275796,-38.66202926635742,-0.019763110024433664,9.52455680710032e-05,0.3319532871246338,-2.09633024914988,0.0009442057014519365,12.394425392150879,0.003141991310014903,-0.0006654896627619391,0.54972904920578,2.914629081771535,0.0013294458687028539,1.6752421855926514,1.304568276840293,-0.00022917742316701825,0.05759470909833908
1782262811.64823,0.05180364046346683,0.0003209417699058259,-0.0864325761795044,0.728887592835893,-0.0007628526343333265,-38.61045455932617,-0.019758612797077777,0.0018381637865576201,0.2526075839996338,-2.0963284438178067,0.0014149098909814683,12.370621681213379,0.0031403678427330047,-0.0010098219159712278,0.56346195936203,2.914629071125856,0.0005030708485006888,1.6752421855926514,1.3045714579792274,0.0004869175405436347,0.02463572472333908
1782262811.6491923,0.051799928382178756,-0.0005871115685027682,-0.034857869148254395,0.7288895907729603,-0.00013027162018671454,-38.63822555541992,-0.019762905739300275,-0.0005635400161335743,0.3319532871246338,-2.096330218905666,9.96756118784348e-05,12.394425392150879,0.00313717200933471,-0.0011834127160695266,0.56346195936203,2.9146275523411203,-0.0009758090239730223,1.6880595684051514,1.3045705021777998,2.476239170008806e-05,0.05759470909833908
1782262811.6501982,0.05179992782527533,8.60667703287604e-05,-0.034857869148254395,0.7288895907808535,-0.0003819941331538882,-38.63822555541992,-0.01976235599902648,-0.0001686292959019214,0.3319532871246338,-2.096330216385315,-0.00021440875366431653,12.394425392150879,0.003136106731535278,-0.0013274250746264716,0.56346195936203,2.914627551158267,-0.001530417550696907,1.6880595684051514,1.304571482351189,0.0011108334150643192,0.05759470909833908
1782262811.6511364,0.05180377348640819,0.0011049987224000877,-0.058661580085754395,0.7288875928700965,-0.0007148188754878493,-38.61045455932617,-0.019762223861253907,0.0002486459399666935,0.3041822910308838,-2.096330215545198,0.00024599337671429167,12.394425392150879,0.0031397050904382437,-0.0009152708312393559,0.55705326795578,2.914633919096442,0.0005962762912118389,1.6624248027801514,1.304568630161264,6.698204355689707e-05,0.05759470909833908
1782262811.6521263,0.051806482454443935,0.001930761557755511,-0.0864325761795044,0.7288875928709736,-0.0009199145024323045,-38.61045455932617,-0.019762873067684837,-0.00035987565069375306,0.3041822910308838,-2.0963263528591805,0.0017272547041201967,12.342850685119629,0.003140652004043238,-0.0003380319377838089,0.55705326795578,2.9146335163488737,0.0002939840517585427,1.6752421855926514,1.3045652983458698,-0.0012387585687374165,0.07773631066083908
1782262811.6531508,0.051799163215314706,-0.000833309790660492,-0.011054158210754395,0.728891696815436,0.0002293291734942126,-38.63822555541992,-0.01976308946982848,-0.000817518984718469,0.3041822910308838,-2.0963284325229,0.0006238016352787629,12.370621681213379,0.003140967641911569,-0.00048594450887389277,0.55705326795578,2.9146331295603214,-0.0002824816834548936,1.6816508769989014,1.3045673625212975,-0.0007017981119144304,0.05759470909833908
1782262811.6541574,0.05180395401262835,0.0006740115160440291,-0.0864325761795044,0.7288848698872445,-0.0015557169721656207,-38.56284713745117,-0.019764893143804165,-0.0014658059944098367,0.3557569980621338,-2.0963322948977625,-0.0008299689685372676,12.422196388244629,0.0031410728545343465,-0.0003455295894745266,0.55705326795578,2.914629157691971,-0.00123242669708793,1.6880595684051514,1.304571910824317,0.0006156958544979057,0.01822703331708908
1782262811.6551905,0.05180374330914372,-0.00018949862234514349,-0.0864325761795044,0.7288844018804366,-0.0009229153911292716,-38.56284713745117,-0.01976420689980322,-0.0005529349987304441,0.3557569980621338,-2.096332294887391,-0.0005204474718953716,12.422196388244629,0.0031411079254086054,-0.00023892045006277914,0.55705326795578,2.914628086275217,-0.0016769974960651535,1.6880595684051514,1.3045718756120956,-7.316826316808062e-05,0.01822703331708908
1782262811.6561904,0.051803673074648844,-0.00011127595045796828,-0.0864325761795044,0.7288876708725468,0.0010887375553042466,-38.61045455932617,-0.01976219550288974,0.0009570422982151405,0.3319532871246338,-2.0963302151268683,0.0010162302247957921,12.394425392150879,0.0031419854649434344,-9.489940081276813e-05,0.54972904920578,2.9146318246144944,-0.0007513421398084949,1.6816508769989014,1.304567967553093,-0.0019414878861452067,0.05118601769208908
1782262811.6571887,0.0518037850993401,-0.0004433632710065046,-0.058661580085754395,0.7288876188717903,0.0008094907831747443,-38.61045455932617,-0.0197621192535563,0.0011633699835620365,0.3319532871246338,-2.096332281420068,0.00021757479136968306,12.394425392150879,0.003144319345878625,-7.909804425610497e-05,0.55705326795578,2.9146328181882244,0.0006435614983061099,1.6816508769989014,1.304568721258712,-0.0004176519518993408,0.04477732628583908
1782262811.6581147,0.051800642565265856,-0.0011031741749939462,-0.034857869148254395,0.7288876015382049,0.0003958349760074601,-38.61045455932617,-0.019768087109141068,-0.0006656482994945154,0.3835279941558838,-2.096332983647181,-0.0006593018842856011,12.422196388244629,0.003143055938433441,-2.028893023584615e-05,0.54972904920578,2.9146331493794677,0.000439747130163138,1.6816508769989014,1.304571101039975,9.586737881572556e-05,0.02463572472333908
1782262811.6592,0.05180387629688215,0.0004312979956038162,-0.0864325761795044,0.728889593673731,0.0006910118431200788,-38.63822555541992,-0.019764926519697957,0.000624791647768788,0.3319532871246338,-2.096330444713465,0.0007403772294221413,12.394425392150879,0.003143103804291893,0.0006057674610487822,0.54332035779953,2.914634017394637,0.0007881294361116958,1.6752421855926514,1.304568719519837,-0.0009374552673013375,0.04477732628583908
1782262811.6601899,0.051803717403894986,0.0002193057880015209,-0.0864325761795044,0.728889591747777,0.00019685523196315096,-38.63822555541992,-0.019765160458543093,0.0001629425925697866,0.3319532871246338,-2.0963302916545814,0.0010220210578090968,12.394425392150879,0.0031428672202153825,0.0008081319082201982,0.54332035779953,2.9146340541936637,0.0007768138140158278,1.6752421855926514,1.3045687193749307,-0.0008329346489214246,0.04477732628583908
1782262811.661197,0.05180579778914352,0.0002995715421903539,-0.0864325761795044,0.7288875931924045,-0.000757486111930701,-38.61045455932617,-0.01976523843815814,0.00038092585633140775,0.3319532871246338,-2.0963284445233272,0.0017159608512702968,12.342850685119629,0.0031411648915251533,0.00024411404350698266,0.55705326795578,2.9146340664600063,0.00026377474477932137,1.6752421855926514,1.3045735217083483,0.00029464404329519034,0.03104441612958908
1782262811.662188,0.0518023599879274,-0.00042630015465711747,-0.058661580085754395,0.7288854869476274,-0.0010409975858820314,-38.61045455932617,-0.019763184674297794,0.0004437688485400478,0.3041822910308838,-2.0963291162815687,0.0012080239798829629,12.342850685119629,0.0031420044536489503,0.0009699168631595932,0.54972904920578,2.91463073268868,-0.0001136555456309811,1.6752421855926514,1.3045738237122888,0.0002851642987055391,0.03745310753583908
1782262811.6631882,0.05180387793870608,0.0001705592729253956,-0.0864325761795044,0.728890601307395,0.0005911278924709259,-38.66202926635742,-0.019765273095764826,-0.0007639117416966669,0.3319532871246338,-2.096331136312609,-0.0002892357850723064,12.394425392150879,0.003141129842032337,0.0006055653596752991,0.55705326795578,2.9146281061953947,-0.0009570357928245579,1.6880595684051514,1.304569374537912,-0.0003691997281529625,0.05118601769208908
1782262811.6641877,0.051803717951169635,0.00030157377160951285,-0.0864325761795044,0.7288873588798804,-0.0002045476026110184,-38.61045455932617,-0.01976492776676116,-0.000955503252517771,0.3557569980621338,-2.096330522187629,0.00022894655558871864,12.394425392150879,0.0031419927704846784,0.000802318521504475,0.54972904920578,2.9146300086306223,-0.00039864719203940496,1.6688334941864014,1.3045691902536518,-0.0004004699097144156,0.04477732628583908
1782262811.66517,0.05180366462199081,0.00040976172067142035,-0.0864325761795044,0.7288875148742349,0.0005691350472775644,-38.61045455932617,-0.019764218440788885,-0.00045941594911969946,0.3557569980621338,-2.096330317479303,0.0005992680069304056,12.394425392150879,0.0031419917968876555,0.000630091625803639,0.54972904920578,2.91462988515761,-0.0008131236478354783,1.6688334941864014,1.3045688762862024,-0.0007122985551624007,0.04477732628583908
1782262811.6661167,0.05180164893220983,-0.00028928088616866844,-0.058661580085754395,0.7288841418779735,-0.0008362969482055416,-38.56284713745117,-0.019760467809957154,0.001631010096676474,0.2803785800933838,-2.0963323155375466,8.97724150267882e-05,12.394425392150879,0.0031443214565266987,0.001281956781117329,0.55705326795578,2.9146316666238707,-0.0010077267642140304,1.6816508769989014,1.304571950544774,-0.00025747815376859015,0.04477732628583908
1782262811.6671362,0.05180364092013356,0.0004982456239674801,-0.0864325761795044,0.7288821612972914,-0.0009415549441472135,-38.53507614135742,-0.019762881933556974,0.0006825080533122575,0.3041822910308838,-2.096329132613696,0.0009164457181069729,12.370621681213379,0.0031430566419827985,0.0011089051331401394,0.54972904920578,2.9146320079065955,-0.0002155987653224783,1.6880595684051514,1.304569796383243,-0.00029301840067561793,0.04477732628583908
1782262811.6681273,0.051801641031590746,-0.00016778354833789345,-0.058661580085754395,0.728885877485438,0.0004873527177487284,-38.58665084838867,-0.019765172182184553,0.00013327851661473295,0.3319532871246338,-2.0963307321497355,0.00018726943577758703,12.370621681213379,0.0031367695018861934,-0.00035910733257930926,0.56987065076828,2.914633131824954,0.0001868922334171026,1.6816508769989014,1.3045746383292067,0.0004952750101521284,0.02463572472333908
1782262811.6691184,0.051805771636171456,0.0007065208468041652,-0.0864325761795044,0.7288858794112941,0.00032078148442885425,-38.58665084838867,-0.01975716931694402,0.0025768724771647704,0.2526075839996338,-2.0963348440889544,-0.0019524111638551114,12.446000099182129,0.0031394209351632268,-0.0005672518603333902,0.56346195936203,2.914629916064937,0.0003420865330324897,1.6816508769989014,1.3045691812090403,-0.0014498454042441824,0.07773631066083908
1782262811.6701207,0.05180648253323568,0.0006276994237040049,-0.0864325761795044,0.7288858800532462,0.00020102050422666395,-38.58665084838867,-0.019756482416211803,0.0022529754538917366,0.2526075839996338,-2.096334333050397,-0.001510087455626123,12.446000099182129,0.00314005220689291,-0.0010165645788560794,0.56346195936203,2.914628844144931,0.0004570940089913495,1.6816508769989014,1.3045694546379896,-0.0006203594084815695,0.07773631066083908
1782262811.671131,0.051808431996113506,0.0018093160771337912,-0.1102362871170044,0.7288858802672302,1.6279544243523083e-05,-38.58665084838867,-0.019762246721330312,-1.260988554558089e-06,0.3041822910308838,-2.0963303002982325,0.0008948457741051578,12.394425392150879,0.003141886098134197,-9.296097002256022e-05,0.54972904920578,2.914628486838262,-0.00022070503509987626,1.6816508769989014,1.3045718866555116,0.0013234416293989653,0.03104441612958908
1782262811.6722362,0.051804800574098406,0.0008398779872070973,-0.058661580085754395,0.7288913032463259,0.001267122860810233,-38.66202926635742,-0.01975896717274642,0.0006404963201092872,0.2803785800933838,-2.096332323273236,-0.0003864886975604565,12.422196388244629,0.003138760406022702,-0.0004198083062944592,0.54972904920578,2.914632463214235,0.0009862171387302037,1.6752421855926514,1.3045716552273452,0.00031084247597574024,0.05118601769208908
1782262811.6732051,0.051804691467429755,0.0012531304973646446,-0.0864325761795044,0.7288896988903061,0.00039122350016997586,-38.61045455932617,-0.019762381721153396,-0.0005562551539068527,0.3041822910308838,-2.096332290883169,0.00030216660369802655,12.394425392150879,0.0031392908747356046,-0.0011608070345754571,0.56346195936203,2.9146294406553346,-0.00011584181821879889,1.6816508769989014,1.3045699906943435,0.0002316963017044353,0.07132761925458908
1782262811.674185,0.05180199121402281,-2.2460604563415577e-05,-0.058661580085754395,0.7288920052882879,0.0011853535927039904,-38.66202926635742,-0.019766788093629858,-0.0017730128677908763,0.3557569980621338,-2.0963309070444827,0.00011356373305485777,12.394425392150879,0.003138385386085643,-0.0013940477159980042,0.57719486951828,2.9146286856750634,-0.0007857313489516047,1.6816508769989014,1.3045710551835121,0.001173893260542777,0.03745310753583908
1782262811.6751556,0.05180175710068318,-0.0002531109026946952,-0.058661580085754395,0.7288915372840892,0.0004408802480452896,-38.66202926635742,-0.019766969415795838,-0.0013027756853812946,0.3557569980621338,-2.0963304457649206,-1.4768016093092345e-05,12.394425392150879,0.0031386247123127873,-0.000992275334494419,0.57719486951828,2.9146284340149733,-0.0012906696390838149,1.6816508769989014,1.3045700751623182,0.0004117704955457962,0.03745310753583908
1782262811.676154,0.051805389473481095,0.0005543716228357993,-0.1102362871170044,0.728885958374922,-0.0014539030591376521,-38.58665084838867,-0.019765247207604666,-0.0006096099395080742,0.3319532871246338,-2.0963323717621316,-0.000732792142056246,12.422196388244629,0.0031410855731412108,7.38183266450056e-05,0.55705326795578,2.91463320322456,0.0001877175691074888,1.6688334941864014,1.3045688826393433,-0.0002944723414245025,0.04477732628583908
1782262811.6771758,0.0518037863998876,-0.0006555550300949743,-0.058661580085754395,0.7288859063744555,-0.000903398521047142,-38.58665084838867,-0.019763136488461275,-0.00023197190370472103,0.3319532871246338,-2.096332307046134,-0.00035429087993217617,12.394425392150879,0.003137916331529434,-0.000456140187929095,0.55705326795578,2.91462943478608,-0.0015022660657645287,1.6816508769989014,1.3045727783008503,0.0008959687457902062,0.01090281456708908
1782262811.6781747,0.05180606590654923,0.0008697437512472917,-0.1102362871170044,0.7288876015381566,-0.00010300539021541248,-38.61045455932617,-0.01976035315834812,0.0008673936586198265,0.3041822910308838,-2.096330912432138,4.847327315013217e-06,12.394425392150879,0.003140921600317044,-0.0001506766184111029,0.54972904920578,2.9146279261005574,-0.0020341891345190197,1.6880595684051514,1.3045735398327378,-0.00037455631575020973,0.03104441612958908
1782262811.6792,0.05180229938038723,-0.0008610984439459842,-0.034857869148254395,0.7288895936737149,0.0008314316402371162,-38.63822555541992,-0.01975838709407105,0.002072191989079482,0.2526075839996338,-2.096330731206245,-0.00023144356491956405,12.370621681213379,0.003140011272833718,-0.000799673191088938,0.56346195936203,2.914629190980922,-0.0009217620625575967,1.6752421855926514,1.3045666462866132,-0.002106220799956666,0.07132761925458908
1782262811.6802335,0.05180285150758908,-0.00017728856210222593,-0.034857869148254395,0.7288895917477717,0.0008110905603706847,-38.63822555541992,-0.019759019207971535,0.0015989877777581219,0.2526075839996338,-2.0963312650139185,-0.0010463889385189462,12.370621681213379,0.0031402489861164073,-0.0006865795130570171,0.56346195936203,2.914629107528985,-0.0006450751321406149,1.6752421855926514,1.3045659358281845,-0.0016818497955938118,0.07132761925458908
1782262811.6812298,0.05180674596056748,0.0016139774715703279,-0.0864325761795044,0.7288895911057907,0.0004317365063470899,-38.63822555541992,-0.01975709904655431,0.0012525889452507071,0.2526075839996338,-2.0963332255987224,-0.002159825729190389,12.394425392150879,0.0031419516912086958,-0.0007345704183779358,0.54972904920578,2.9146283220935842,-0.001262243610007949,1.6816508769989014,1.304574397712023,0.0013844269296347305,0.02463572472333908
1782262811.682209,0.05180480939464631,0.0012076127714925546,-0.058661580085754395,0.728887592978409,-0.0005498103080229995,-38.61045455932617,-0.01976032139872709,1.9777492823666435e-05,0.3041822910308838,-2.096331218616334,-0.001500027542486529,12.394425392150879,0.0031411122545522523,-0.00105110333515182,0.55705326795578,2.9146308930631664,8.838932743179492e-05,1.6880595684051514,1.304570684259763,0.0010367712963285551,0.03745310753583908
1782262811.6831257,0.051808540254379726,0.0021901541274303806,-0.1102362871170044,0.7288858804098879,-0.0010277617204137394,-38.58665084838867,-0.01976223891350923,-0.0004905199283444074,0.3041822910308838,-2.0963287669732917,1.4518801150760301e-05,12.370621681213379,0.0031355441399137382,-0.0022292850687462436,0.57719486951828,2.914630179968458,0.0007586219147471536,1.6752421855926514,1.3045722243753324,0.0007990753096585653,0.01822703331708908
1782262811.6842222,0.05180483666018715,0.0011781379618458474,-0.058661580085754395,0.7288862739197031,-0.0007865978169345496,-38.56284713745117,-0.01976109543619011,2.0981682178369072e-05,0.2803785800933838,-2.096328530512535,0.0001138046227279274,12.342850685119629,0.0031424969310016714,-0.0005800724377769741,0.56346195936203,2.9146286795734087,-1.6053729060314876e-05,1.6816508769989014,1.3045704648929248,-0.00041860473721052986,0.03104441612958908
1782262811.6852112,0.05180483893231555,0.0017894868590147927,-0.058661580085754395,0.7288869759220381,-1.181872878482722e-05,-38.56284713745117,-0.019761308493388127,-0.00025353973976114535,0.2803785800933838,-2.096329144944638,-0.0005495328832185503,12.342850685119629,0.0031442733722538514,4.8694238773272684e-05,0.56346195936203,2.9146284319810882,-0.0003158473361778101,1.6816508769989014,1.3045703834775144,-0.0007585454271225463,0.03104441612958908
1782262811.68622,0.051803127192501935,0.0013752244280548238,-0.034857869148254395,0.7288868163892241,0.0007198759108138792,-38.58665084838867,-0.019759299755388773,0.00017751294161187062,0.2526075839996338,-2.0963293632180524,-0.0011060461025410853,12.370621681213379,0.0031424273040111016,0.0003858628054528645,0.55705326795578,2.9146332025465984,-0.0004035717558636876,1.6688334941864014,1.3045687328717128,-0.0014676955387805692,0.04477732628583908
1782262811.687195,0.05180683785553843,0.0029384689296093496,-0.0864325761795044,0.7288879048764128,0.0011981644715460366,-38.61045455932617,-0.01976105496833858,-0.0009731019595107117,0.3041822910308838,-2.0963308090178545,-0.0012614964205569868,12.370621681213379,0.003141559408567524,-1.226234594511538e-05,0.55705326795578,2.914629434560093,-0.001511788970778658,1.6816508769989014,1.3045655851220488,-0.0020608269811414463,0.07132761925458908
1782262811.6882212,0.0518048400263033,0.0021303358882689563,-0.058661580085754395,0.7288896947864669,0.0013291589112134868,-38.63822555541992,-0.019758569921749174,9.425994321056539e-05,0.2803785800933838,-2.0963330736000345,-0.0016350672307660484,12.394425392150879,0.0031412701100863314,-0.00012967897836522175,0.55705326795578,2.9146312638853358,-0.0015833503259244665,1.6880595684051514,1.304572765573802,9.545001685560054e-05,0.03745310753583908
1782262811.6891878,0.05180641711535446,0.002415702117459621,-0.1102362871170044,0.7288859150414445,-0.00045950067038686934,-38.58665084838867,-0.01975833578919043,0.00019976376501050003,0.2803785800933838,-2.0963353140015224,-0.00222295644068195,12.422196388244629,0.003140416059171284,-0.0002374786981016548,0.56346195936203,2.9146336414359557,-0.0003547260733586823,1.6752421855926514,1.3045722007394713,-0.0003437225792816166,0.05118601769208908
1782262811.690231,0.05180570600817892,0.0012844424729038522,-0.1102362871170044,0.728885891929963,-0.0004313652859754144,-38.58665084838867,-0.01975825774500418,0.0002814766970212335,0.2803785800933838,-2.096335367549663,-0.0019323696845735148,12.422196388244629,0.003140383914895596,-4.1539830325515385e-05,0.56346195936203,2.9146339288741037,9.05968701553857e-06,1.6752421855926514,1.3045725536171382,-7.51540248924511e-05,0.05118601769208908
1782262811.6912053,0.051803756475263994,0.00030312061773764656,-0.0864325761795044,0.7288895946367137,0.001337749823887798,-38.63822555541992,-0.019762145245239317,-0.0007771443364926565,0.3041822910308838,-2.0963312393476254,-0.00018964154077451888,12.394425392150879,0.003141130818225016,-2.431909325450592e-05,0.55705326795578,2.9146306868267122,-8.211932309539013e-05,1.6752421855926514,1.3045734288611153,0.0015156204990763656,0.04477732628583908
1782262811.6922274,0.05180538996054535,0.00047905361108484246,-0.1102362871170044,0.7288858816581935,-0.0002528823617977416,-38.58665084838867,-0.01976284686234664,-0.00030666388075516025,0.3041822910308838,-2.096330556532635,-0.0005271721613614598,12.394425392150879,0.0031403696285508455,-0.0008679022851901615,0.56346195936203,2.9146321863862674,-0.00042915947113923996,1.6816508769989014,1.3045758491551642,0.0022639945841430587,0.02463572472333908
1782262811.6932187,0.051801653212664764,-0.0014719652513232695,-0.058661580085754395,0.7288895912127904,0.001302362169162142,-38.63822555541992,-0.01976302962573039,-0.000775291167633646,0.3319532871246338,-2.096330328927638,-0.00036092074835162923,12.394425392150879,0.0031419919053535085,-0.000620334146389559,0.54972904920578,2.914630358536796,-0.0009019154234302492,1.6752421855926514,1.3045743067776507,0.0018721210334683048,0.01090281456708908
1782262811.6942253,0.05180206528595167,-0.0016436882618675243,-0.034857869148254395,0.7288858805168857,-0.00041553250635613143,-38.58665084838867,-0.019762448403488543,-0.000183103285575157,0.3041822910308838,-2.096332332816371,-0.0007195354059694571,12.422196388244629,0.0031396104230912232,-0.0015558306385991857,0.56987065076828,2.9146320769562952,0.00024641192244604434,1.6816508769989014,1.304569246943285,0.00015707212255826623,0.04477732628583908
1782262811.6952305,0.05180277347611056,-0.0011788373839635798,-0.034857869148254395,0.7288858804217767,-0.00034022930707661744,-38.58665084838867,-0.019762947915096384,-0.0005162383521975722,0.3041822910308838,-2.096332307526927,-0.0002352886954798669,12.422196388244629,0.0031396102908102536,-0.0013851070901079216,0.56987065076828,2.914632902302158,0.001384966885221609,1.6816508769989014,1.3045688951827468,0.000348292763094436,0.04477732628583908
1782262811.6962197,0.051804586600497055,0.00034731369433238176,-0.0864325761795044,0.7288858803900737,-0.0002975209436310464,-38.58665084838867,-0.019761331770052497,-0.0005149483409963316,0.2803785800933838,-2.0963322990971123,-0.00024712990980594614,12.422196388244629,0.003139610246716597,-0.001658622754497559,0.56987065076828,2.91462908193925,-0.00023096810338123794,1.6880595684051514,1.304570441607446,-6.923977063007605e-05,0.05759470909833908
1782262811.6972187,0.05180395417176662,-7.270744427532837e-05,-0.0864325761795044,0.7288841678823164,-0.0005694429031714817,-38.56284713745117,-0.019759256405291536,2.9145456071337007e-05,0.2803785800933838,-2.0963343625815263,-0.00011191891496481596,12.422196388244629,0.0031411254681946777,-0.0003907127164550398,0.55705326795578,2.9146280610243105,-0.0003111836227605334,1.6880595684051514,1.3045714219501905,0.0004816949679761325,0.03104441612958908
1782262811.698197,0.05180174544880177,-0.0009817083243958934,-0.058661580085754395,0.7288875928731734,0.0004691615569299207,-38.61045455932617,-0.019762478132001767,-0.0007250128576963616,0.3041822910308838,-2.096332970652599,-3.6680639266638846e-05,12.394425392150879,0.0031403678452073995,-0.0006308411105680665,0.56346195936203,2.9146277207193303,-0.0005909738345280171,1.6880595684051514,1.3045715003255716,8.184606003289592e-05,0.05118601769208908
1782262811.6991777,0.05180167517894283,-0.0009198619120620673,-0.058661580085754395,0.7288895907853872,0.001231852234292891,-38.63822555541992,-0.019761175175687623,-0.0002014179855390871,0.2803785800933838,-2.096333213391358,-0.00039814593155449465,12.422196388244629,0.0031387954774909003,-0.0005429412886299003,0.54972904920578,2.914631702762532,-2.8195081311564615e-05,1.6816508769989014,1.3045747012312578,0.0013791828106097526,0.03104441612958908
1782262811.7001307,0.05180165175565652,-0.0008830996562120736,-0.058661580085754395,0.7288895907849957,0.0010998983880957862,-38.63822555541992,-0.019761335073220632,-0.00046127944372047105,0.2803785800933838,-2.0963326010519223,9.751928695209342e-05,12.422196388244629,0.0031377301991416034,-0.0010636378231288332,0.54972904920578,2.9146327775709033,0.00011629178254512983,1.6816508769989014,1.30457497450468,0.0014802542323532027,0.03104441612958908
1782262811.70116,0.05180164394789442,-0.0005027168653191232,-0.058661580085754395,0.7288854868406952,-0.00042728751253123614,-38.61045455932617,-0.01975930861533294,-4.922090922790975e-05,0.2526075839996338,-2.096330317181712,0.0010033003756341463,12.394425392150879,0.003139705090529888,-0.0010672084380274178,0.55705326795578,2.9146323782222727,0.0001905612476380867,1.6880595684051514,1.3045679903598373,-0.0005537153998959362,0.06400340050458908
1782262811.7021806,0.05180151087617124,-0.00024452000165795494,-0.0864325761795044,0.728888888774561,0.0004808179816666133,-38.63822555541992,-0.019761406138790856,-0.0008968022472858556,0.2803785800933838,-2.096330249143997,0.00047552710742178756,12.394425392150879,0.003141517853317195,-0.0004578184815104586,0.54972904920578,2.914631631796182,-0.0005214501651394115,1.6953837871551514,1.3045669610854216,-0.0007627383592696373,0.06400340050458908
1782262811.7031403,0.05179921851974689,-0.0014141326941420735,-0.034857869148254395,0.728889356781387,0.0004879471570453165,-38.63822555541992,-0.019763194709834876,-0.001242956014871858,0.3041822910308838,-2.0963343725161763,-0.0007697874438660597,12.422196388244629,0.0031370141904189758,-0.0014040313066983365,0.56346195936203,2.914629957211123,-0.001177092333635481,1.6816508769989014,1.3045688908482136,-0.0001553703742088862,0.04477732628583908
1782262811.704159,0.051803401615042495,0.0003221304721682376,-0.0864325761795044,0.7288875148702744,-0.0005181946335427196,-38.61045455932617,-0.019761065817827772,-0.0001479239066592879,0.3041822910308838,-2.0963309076697967,0.0007296135216465368,12.394425392150879,0.0031376264913134336,-0.0021811752021896015,0.57719486951828,2.91463371095661,-0.00017238664203164124,1.6688334941864014,1.3045665036301257,-0.0011941400835205928,0.06400340050458908
1782262811.7051883,0.051803559176615104,0.0002611673381452017,-0.0864325761795044,0.7288875668710328,-0.0005412630430847835,-38.61045455932617,-0.01976035618715874,0.0006546633628832905,0.3041822910308838,-2.0963304459733587,0.0010907115314014578,12.394425392150879,0.003138371747388718,-0.002188110882647551,0.57719486951828,2.9146344571263803,4.140082306424309e-05,1.6688334941864014,1.304566465508851,-0.001144691477954657,0.06400340050458908
1782262811.706199,0.051803611697139304,-6.201535995072657e-05,-0.0864325761795044,0.7288875842046191,-0.00017615801367077926,-38.61045455932617,-0.019764330266718474,0.00015171513854002577,0.3319532871246338,-2.096332371831611,1.0294028946650734e-05,12.422196388244629,0.0031418671007432636,-0.0007204535234822679,0.54972904920578,2.914633190613461,0.000628587726412307,1.6816508769989014,1.304570349123355,0.0003142495327071931,0.03104441612958908
1782262811.7071369,0.051803629203980704,0.0001559374197202124,-0.0864325761795044,0.7288841649881015,-0.0011132515581584953,-38.56284713745117,-0.019756888678455327,0.0026570884528896565,0.2526075839996338,-2.096334386826359,-0.00010944940929787339,12.422196388244629,0.0031410840577304417,-0.0013139773448069267,0.55705326795578,2.914629178043018,-0.0004665777261001254,1.6880595684051514,1.3045672061841502,-0.0010205802091511431,0.05759470909833908
1782262811.7081056,0.05180534753678425,0.000668288306469445,-0.1102362871170044,0.7288875919084351,0.00041235480460671435,-38.61045455932617,-0.01976238214207815,0.0008953603491348666,0.3041822910308838,-2.096332992196923,0.0002588027006415904,12.422196388244629,0.0031403540417193204,-0.001238688261970146,0.56346195936203,2.914629608295076,-0.0005506467931041862,1.6752421855926514,1.3045750376263225,0.0013121462221762465,0.01822703331708908
1782262811.7091901,0.05180163907141106,-0.0009557245173351314,-0.058661580085754395,0.7288875925504198,1.4722045794116328e-05,-38.61045455932617,-0.019760794961908863,0.0006894990731741335,0.3041822910308838,-2.0963345936147966,-0.00015947595040137025,12.422196388244629,0.0031419867097430003,-0.0009439760217573165,0.54972904920578,2.9146310692576343,-5.004094679018591e-05,1.6880595684051514,1.304566640472416,-0.001088329763763207,0.07132761925458908
1782262811.710196,0.051801639719812595,-0.0008142878902047002,-0.058661580085754395,0.7288875927644146,-0.0002752597290893474,-38.61045455932617,-0.019760265901852436,0.0005250006309239401,0.3041822910308838,-2.0963351274207547,-0.00047957654008765066,12.422196388244629,0.0031419897766404295,-0.001312521407398381,0.54972904920578,2.914632061323879,0.0008794491948391841,1.6880595684051514,1.3045659338901188,-0.0005852271919112529,0.07132761925458908
1782262811.7111611,0.051805771198912075,0.0007919303381705774,-0.0864325761795044,0.7288875928357462,-0.000297593366415886,-38.61045455932617,-0.019762220414551012,-0.00013292463721533934,0.3041822910308838,-2.0963311593046563,0.00046608549156471296,12.394425392150879,0.003141124949696163,-0.0009681185906557841,0.55705326795578,2.9146346648668913,0.0019019800883266307,1.6688334941864014,1.3045688370661939,0.0009023119941846552,0.04477732628583908
1782262811.7121887,0.05180606153509471,0.0012295780487780932,-0.1102362871170044,0.7288916968036935,0.0011834261755979433,-38.63822555541992,-0.01976287191878387,-0.00013717248852712868,0.3041822910308838,-2.0963305298516453,0.0009576414136211056,12.394425392150879,0.0031403676723745612,-0.0013814697667873827,0.56346195936203,2.91463250224221,0.0006414096647538096,1.6880595684051514,1.3045696244062932,0.0004218230506274538,0.03745310753583908
1782262811.7132204,0.05180387498423592,-0.00011635520329885717,-0.0864325761795044,0.7288941113190697,0.0017482742867821887,-38.66202926635742,-0.019759175571897606,0.0009200172103189696,0.2803785800933838,-2.096332386328327,0.00042204445804431314,12.394425392150879,0.0031419912532947474,-0.00046716576366141917,0.54972904920578,2.9146332966034922,0.0011077241651250489,1.6816508769989014,1.304566459533071,-0.0013309851197281992,0.06400340050458908
1782262811.7142215,0.0518017190529582,-0.0010243452929714213,-0.058661580085754395,0.7288851038893924,-0.0014417004282215062,-38.56284713745117,-0.019762451187537125,-0.0005260901186450676,0.3041822910308838,-2.0963309388595355,0.0004514655524031478,12.394425392150879,0.0031411254419142693,-0.0006527686905274237,0.55705326795578,2.914629970991116,0.0009166617552680611,1.6816508769989014,1.3045695895133402,-0.00029526313035457905,0.03745310753583908
1782262811.7151182,0.05180166638032831,-0.0009851411803812728,-0.058661580085754395,0.7288844798811525,-0.0012282327271248515,-38.56284713745117,-0.019762948843112575,-0.0009517606455905082,0.3041822910308838,-2.0963304563699383,0.0004812483518571706,12.394425392150879,0.0031411254545352465,-0.00046997970007811227,0.55705326795578,2.9146288624536574,0.0007738362387189175,1.6816508769989014,1.3045695866055942,-0.0006693523646809339,0.03745310753583908
1782262811.7161987,0.05180735714675084,0.0010633226408968844,-0.1380072832107544,0.7288896947861734,0.0004708850071237858,-38.63822555541992,-0.01975920121334051,0.0003242572879308535,0.2803785800933838,-2.0963302955400724,0.0005932411373964485,12.394425392150879,0.0031403678406542557,-0.0003098988537532103,0.56346195936203,2.9146284929411714,-2.1769351255029726e-05,1.6816508769989014,1.3045703432544336,-0.0006197833998240159,0.03104441612958908
1782262811.7172227,0.05179993047308083,-0.0017618578193834469,-0.034857869148254395,0.7288876275385365,-0.0008405025449356326,-38.61045455932617,-0.01975681467979307,0.001342879720417547,0.2288038730621338,-2.0963302419301173,0.0002457978791601939,12.394425392150879,0.0031403678420565866,-6.903483165642606e-05,0.56346195936203,2.914633980484714,0.0007536252150231292,1.6624248027801514,1.3045655807605119,-0.0026406278685789705,0.07132761925458908
1782262811.7182205,0.051809482692975854,0.0014969031182200802,-0.1380072832107544,0.7288876044271203,-0.0006698482398251291,-38.61045455932617,-0.019761169043248622,-0.0007951926483903135,0.2803785800933838,-2.0963302240601323,0.0005433402604068154,12.394425392150879,0.003137172009109237,-0.00043514921369902464,0.56346195936203,2.9146286837153474,-0.0005868765443071724,1.6880595684051514,1.3045718580598322,0.0006125689297172903,0.01822703331708908
1782262811.7192087,0.0518081952458343,0.00041101337542178,-0.1102362871170044,0.728885884226125,-0.000672245361459353,-38.58665084838867,-0.019763115677987463,-0.0015321164111517921,0.3041822910308838,-2.0963284354545575,0.0012213098001370483,12.370621681213379,0.0031400601829628966,-0.0010042983573069243,0.55705326795578,2.9146335389973808,0.0002249031162374763,1.6688334941864014,1.3045703829986386,-0.0006893713452570044,0.05759470909833908
1782262811.7202294,0.05180843206791646,0.00036063793141578155,-0.1102362871170044,0.7288858816581899,-5.485321834900126e-05,-38.58665084838867,-0.019763170339929356,-0.00144692191373958,0.3041822910308838,-2.0963284334690035,0.001087068852826233,12.370621681213379,0.003140770368218122,-0.0017082181503637161,0.55705326795578,2.914634399806637,-9.829686030503174e-07,1.6688334941864014,1.3045714426248018,5.00499656714428e-05,0.05759470909833908
1782262811.7211957,0.05180466516184317,-7.544450486308935e-05,-0.0864325761795044,0.7288875932994013,0.000562370992670325,-38.61045455932617,-0.019761057694525932,-0.0006661328237201449,0.3041822910308838,-2.096326353050087,0.001093359398883686,12.342850685119629,0.0031410070966365307,-0.0021017642950526506,0.55705326795578,2.9146331715068796,0.0009475069165914528,1.6816508769989014,1.3045725132407304,0.00115207759314537,0.02463572472333908
1782262811.722218,0.05180198244549395,-0.0008856334690298718,-0.058661580085754395,0.7288875930140751,1.6812870928984287e-05,-38.61045455932617,-0.01976248434544218,-0.0002800592430698311,0.3041822910308838,-2.0963284325865352,0.0004653647785094863,12.370621681213379,0.0031419518553527427,-0.001194770020340888,0.54972904920578,2.9146340247704408,0.0015575584013883803,1.6752421855926514,1.3045723289569295,0.0007647023752368341,0.01822703331708908
1782262811.723175,0.05180546458841802,0.0004888910831240732,-0.1102362871170044,0.7288875929189664,-0.0004875241566714646,-38.61045455932617,-0.01976117724683443,0.00023226370795239774,0.2803785800933838,-2.0963284325129963,0.0006486043789405273,12.370621681213379,0.0031403546911789515,-0.001426147580657715,0.56346195936203,2.9146314764102454,0.0009673440425060048,1.6688334941864014,1.3045720149896332,0.00010041222239275777,0.01822703331708908
1782262811.7242,0.05179996559143257,-0.0016921398629840653,-0.034857869148254395,0.7288875928872636,-0.0004287209936357063,-38.61045455932617,-0.01975920489755218,0.00032312133694128585,0.2803785800933838,-2.096330215137396,0.00018348881411031713,12.394425392150879,0.0031403634588981514,-0.0008633946212999272,0.56346195936203,2.9146303744174844,0.0008390984797843783,1.6688334941864014,1.3045696374796036,-0.000513969988364668,0.03745310753583908
1782262811.7251947,0.05179994022835993,-0.0013527131051084252,-0.034857869148254395,0.7288875928766959,-0.00038059964847196397,-38.61045455932617,-0.01975854744779143,0.00040374014436238346,0.2803785800933838,-2.096330215129225,0.0004775014050478041,12.394425392150879,0.0031403663814712182,-0.0004500890149747897,0.56346195936203,2.914630007086564,0.0007506880371810096,1.6688334941864014,1.3045696025943485,-0.0001371579520373222,0.03745310753583908
1782262811.7261918,0.05180535468176992,0.0006596631034727579,-0.1102362871170044,0.7288895907865613,9.985033434681473e-05,-38.63822555541992,-0.01975624854080582,0.0010382908230062457,0.2526075839996338,-2.0963284324775886,0.0016251209310049288,12.370621681213379,0.003140367355662241,-0.00037606792410257127,0.56346195936203,2.9146332225030314,0.0009676637031654329,1.6688334941864014,1.3045655864131795,-0.002044205403737161,0.07132761925458908
1782262811.7271895,0.051807349777038776,0.0011422741546501794,-0.1380072832107544,0.7288895907853872,1.2089852126617327e-05,-38.63822555541992,-0.019760386113948484,-5.890773741257818e-06,0.2803785800933838,-2.0963245700707023,0.0019953840984753887,12.319046974182129,0.0031411252984805647,0.00023429353496369533,0.55705326795578,2.914633536690433,0.0001693309214595035,1.6752421855926514,1.3045711023259667,0.0009583046087996863,0.02463572472333908
1782262811.7281456,0.051803638427087934,-0.0001691653593402543,-0.0864325761795044,0.7288858803744179,-0.0012109719689655095,-38.58665084838867,-0.019760723835503362,-0.000556515223813802,0.3041822910308838,-2.0963322814196435,-0.0010937107452282388,12.394425392150879,0.0031403677886360283,0.0003170610954793991,0.56346195936203,2.914633136340841,0.0007041973765263341,1.6816508769989014,1.304567204712325,-0.00033437289362119873,0.05759470909833908
1782262811.7291696,0.05180363811396358,4.732444404234861e-05,-0.0864325761795044,0.7288879864050696,-0.0004981181731824766,-38.58665084838867,-0.01976232195011596,-0.0010501050283434122,0.3319532871246338,-2.0963309038899745,-0.0003658584947370423,12.394425392150879,0.0031411254428051604,0.0005742552809306077,0.55705326795578,2.9146306751883206,3.3052438168946474e-05,1.6752421855926514,1.3045718582213262,0.0013283260006828309,0.01822703331708908
1782262811.7301934,0.051803638009588794,0.0002022961578869428,-0.0864325761795044,0.7288886884152868,1.0917633409524962e-05,-38.58665084838867,-0.01976216140263171,-0.0006884164655275921,0.3319532871246338,-2.096330444713418,0.00015556268441771986,12.394425392150879,0.00314112545483221,0.0004900748195717019,0.55705326795578,2.9146296022647844,-0.0007545585113128918,1.6752421855926514,1.3045718580777654,0.0008743382656135812,0.01822703331708908
